; generated by Slic3r 1.2.9 on 2016-11-24 at 19:33:31

; external perimeters extrusion width = 0.45mm
; perimeters extrusion width = 0.45mm
; infill extrusion width = 0.45mm
; solid infill extrusion width = 0.45mm
; top infill extrusion width = 0.40mm

M115 U3.0.8 ; tell printer latest fw version
M83  ; extruder relative mode
M104 S235 ; set extruder temp
M140 S100 ; set bed temp
M190 S100 ; wait for bed temp
M109 S235 ; wait for extruder temp
G28 W ; home all without mesh bed level
G80 ; mesh bed leveling
G1 Y-3.0 F1000.0 ; go outside pritn area
G1 X60.0 E9.0  F1000.0 ; intro line
G1 X100.0 E12.5  F1000.0 ; intro line
G21 ; set units to millimeters
G90 ; use absolute coordinates
M83 ; use relative distances for extrusion
G1 E-0.80000 F2100.00000
G1 Z0.150 F7200.000
G1 Z0.300 F7200.000
G1 X118.493 Y99.447 F7200.000
G1 Z0.150 F7200.000
G1 E0.80000 F2100.00000
M204 S1000
G1 X118.981 Y98.925 E0.01729 F1800.000
G1 X119.260 Y98.660 E0.00930
G1 X119.825 Y98.188 E0.01780
G1 X120.428 Y97.773 E0.01771
G1 X121.232 Y97.323 E0.02228
G1 X121.589 Y97.158 E0.00953
G1 X122.452 Y96.836 E0.02228
G1 X123.048 Y96.672 E0.01495
G1 X123.353 Y96.608 E0.00752
G1 X124.272 Y96.479 E0.02246
G1 X125.193 Y96.450 E0.02228
G1 X125.922 Y96.495 E0.01767
G1 X126.650 Y96.608 E0.01784
G1 X127.026 Y96.691 E0.00930
G1 X127.712 Y96.886 E0.01725
G1 X128.416 Y97.159 E0.01826
G1 X128.765 Y97.321 E0.00930
G1 X129.377 Y97.649 E0.01681
G1 X130.021 Y98.077 E0.01869
G1 X130.736 Y98.657 E0.02228
G1 X131.023 Y98.928 E0.00953
G1 X131.641 Y99.611 E0.02228
G1 X132.034 Y100.130 E0.01575
G1 X132.187 Y100.364 E0.00677
G1 X132.644 Y101.164 E0.02228
G1 X133.015 Y102.015 E0.02246
G1 X133.249 Y102.731 E0.01822
G1 X133.450 Y103.662 E0.02303
G1 X133.537 Y104.440 E0.01892
G1 X133.544 Y105.456 E0.02457
G1 X133.469 Y106.193 E0.01792
G1 X133.291 Y107.098 E0.02231
G1 X133.186 Y107.478 E0.00953
G1 X132.872 Y108.344 E0.02228
G1 X132.537 Y109.048 E0.01886
G1 X132.185 Y109.639 E0.01664
G1 X131.969 Y109.958 E0.00930
G1 X131.508 Y110.553 E0.01821
G1 X131.020 Y111.075 E0.01729
G1 X130.741 Y111.340 E0.00930
G1 X130.176 Y111.812 E0.01780
G1 X129.573 Y112.227 E0.01771
G1 X129.235 Y112.430 E0.00955
G1 X128.743 Y112.689 E0.01344
G1 X127.909 Y113.042 E0.02191
G1 X127.542 Y113.166 E0.00936
G1 X126.809 Y113.362 E0.01834
G1 X125.851 Y113.512 E0.02347
G1 X124.925 Y113.554 E0.02241
G1 X124.033 Y113.500 E0.02161
G1 X123.235 Y113.371 E0.01957
G1 X122.460 Y113.166 E0.01938
G1 X121.583 Y112.839 E0.02264
G1 X121.233 Y112.677 E0.00933
G1 X120.429 Y112.228 E0.02228
G1 X119.906 Y111.872 E0.01529
G1 X119.670 Y111.688 E0.00723
G1 X118.982 Y111.076 E0.02228
G1 X118.553 Y110.622 E0.01511
G1 X118.032 Y109.959 E0.02039
G1 X117.817 Y109.640 E0.00930
G1 X117.504 Y109.120 E0.01468
G1 X117.130 Y108.345 E0.02082
G1 X117.027 Y108.098 E0.00646
G1 X116.814 Y107.474 E0.01595
G1 X116.729 Y107.182 E0.00735
G1 X116.556 Y106.370 E0.02007
G1 X116.473 Y105.656 E0.01739
G1 X116.452 Y105.269 E0.00938
G1 X116.454 Y104.634 E0.01534
G1 X116.532 Y103.809 E0.02004
G1 X116.710 Y102.902 E0.02236
G1 X116.815 Y102.522 E0.00953
G1 X117.129 Y101.656 E0.02228
G1 X117.460 Y100.960 E0.01864
G1 X117.816 Y100.361 E0.01686
G1 X118.032 Y100.042 E0.00930
G1 X118.455 Y99.494 E0.01676
G1 X118.787 Y99.700 F7200.000
G1 X119.263 Y99.191 E0.01685 F1800.000
G1 X119.511 Y98.956 E0.00828
G1 X120.059 Y98.497 E0.01727
G1 X120.645 Y98.094 E0.01722
G1 X121.413 Y97.666 E0.02126
G1 X121.733 Y97.518 E0.00852
G1 X122.556 Y97.210 E0.02126
G1 X123.415 Y96.991 E0.02144
G1 X124.293 Y96.866 E0.02144
G1 X125.172 Y96.837 E0.02126
G1 X125.881 Y96.880 E0.01718
G1 X126.588 Y96.991 E0.01731
G1 X126.922 Y97.065 E0.00828
G1 X127.591 Y97.254 E0.01681
G1 X128.272 Y97.520 E0.01768
G1 X128.583 Y97.663 E0.00828
G1 X129.181 Y97.984 E0.01642
G1 X129.804 Y98.398 E0.01807
G1 X130.485 Y98.952 E0.02126
G1 X130.741 Y99.195 E0.00852
G1 X131.332 Y99.845 E0.02126
G1 X131.855 Y100.564 E0.02149
G1 X132.292 Y101.327 E0.02126
G1 X132.647 Y102.139 E0.02144
G1 X132.875 Y102.833 E0.01765
G1 X133.067 Y103.720 E0.02196
G1 X133.150 Y104.472 E0.01829
G1 X133.156 Y105.435 E0.02331
G1 X133.084 Y106.151 E0.01740
G1 X132.912 Y107.015 E0.02130
G1 X132.818 Y107.354 E0.00852
G1 X132.520 Y108.181 E0.02126
G1 X132.201 Y108.854 E0.01801
G1 X131.853 Y109.439 E0.01648
G1 X131.660 Y109.723 E0.00828
G1 X131.214 Y110.300 E0.01764
G1 X130.738 Y110.809 E0.01685
G1 X130.490 Y111.044 E0.00828
G1 X129.942 Y111.503 E0.01727
G1 X129.356 Y111.906 E0.01722
G1 X128.562 Y112.346 E0.02194
G1 X127.765 Y112.682 E0.02092
G1 X127.438 Y112.792 E0.00835
G1 X126.729 Y112.982 E0.01776
G1 X125.817 Y113.126 E0.02233
G1 X124.934 Y113.167 E0.02139
G1 X124.080 Y113.115 E0.02068
G1 X123.310 Y112.990 E0.01886
G1 X122.564 Y112.792 E0.01868
G1 X121.726 Y112.479 E0.02162
G1 X121.414 Y112.335 E0.00831
G1 X120.646 Y111.907 E0.02126
G1 X119.921 Y111.392 E0.02149
G1 X119.264 Y110.809 E0.02126
G1 X118.841 Y110.361 E0.01490
G1 X118.341 Y109.724 E0.01958
G1 X117.840 Y108.926 E0.02280
G1 X117.391 Y107.967 E0.02560
G1 X117.181 Y107.350 E0.01576
G1 X117.106 Y107.089 E0.00656
G1 X116.939 Y106.309 E0.01930
G1 X116.859 Y105.614 E0.01692
G1 X116.841 Y104.644 E0.02345
G1 X116.917 Y103.851 E0.01928
G1 X117.088 Y102.985 E0.02134
G1 X117.183 Y102.646 E0.00852
G1 X117.481 Y101.819 E0.02126
G1 X117.800 Y101.146 E0.01802
G1 X118.148 Y100.561 E0.01647
G1 X118.341 Y100.277 E0.00828
G1 X118.749 Y99.747 E0.01619
G1 X119.080 Y99.953 F7200.000
G1 X119.762 Y99.252 E0.02366 F1800.000
G1 X120.293 Y98.807 E0.01674
G1 X120.863 Y98.415 E0.01673
G1 X121.595 Y98.008 E0.02025
G1 X121.876 Y97.878 E0.00750
G1 X122.660 Y97.584 E0.02025
G1 X123.478 Y97.373 E0.02043
G1 X124.314 Y97.254 E0.02043
G1 X125.151 Y97.224 E0.02025
G1 X125.840 Y97.266 E0.01669
G1 X126.525 Y97.374 E0.01678
G1 X127.470 Y97.623 E0.02362
G1 X128.129 Y97.880 E0.01711
G1 X128.985 Y98.319 E0.02329
G1 X129.586 Y98.719 E0.01744
G1 X130.234 Y99.248 E0.02025
G1 X130.460 Y99.461 E0.00750
G1 X131.023 Y100.080 E0.02025
G1 X131.523 Y100.764 E0.02048
G1 X131.940 Y101.490 E0.02025
G1 X132.280 Y102.263 E0.02043
G1 X132.501 Y102.934 E0.01708
G1 X132.683 Y103.777 E0.02088
G1 X132.764 Y104.503 E0.01766
G1 X132.769 Y105.415 E0.02205
G1 X132.698 Y106.109 E0.01687
G1 X132.534 Y106.931 E0.02029
G1 X132.451 Y107.230 E0.00750
G1 X132.168 Y108.018 E0.02025
G1 X131.861 Y108.668 E0.01739
G1 X131.352 Y109.488 E0.02334
G1 X130.921 Y110.047 E0.01707
G1 X130.238 Y110.748 E0.02366
G1 X129.708 Y111.193 E0.01674
G1 X129.138 Y111.585 E0.01673
G1 X128.382 Y112.003 E0.02089
G1 X127.622 Y112.322 E0.01993
G1 X127.334 Y112.418 E0.00734
G1 X126.648 Y112.603 E0.01718
G1 X125.783 Y112.740 E0.02118
G1 X124.942 Y112.779 E0.02036
G1 X124.127 Y112.730 E0.01975
G1 X123.385 Y112.610 E0.01816
G1 X122.667 Y112.419 E0.01797
G1 X121.870 Y112.119 E0.02061
G1 X121.596 Y111.992 E0.00729
G1 X120.864 Y111.586 E0.02025
G1 X120.173 Y111.097 E0.02048
G1 X119.545 Y110.543 E0.02025
G1 X119.128 Y110.101 E0.01469
G1 X118.650 Y109.489 E0.01878
G1 X118.176 Y108.731 E0.02162
G1 X117.754 Y107.830 E0.02405
G1 X117.549 Y107.226 E0.01544
G1 X117.467 Y106.931 E0.00740
G1 X117.322 Y106.248 E0.01690
G1 X117.244 Y105.572 E0.01645
G1 X117.229 Y104.655 E0.02218
G1 X117.303 Y103.893 E0.01851
G1 X117.467 Y103.069 E0.02033
G1 X117.550 Y102.770 E0.00750
G1 X117.833 Y101.982 E0.02025
G1 X118.141 Y101.331 E0.01740
G1 X118.481 Y100.760 E0.01607
G1 X119.043 Y100.000 E0.02288
G1 X119.374 Y100.206 F7200.000
G1 X120.014 Y99.547 E0.02220 F1800.000
G1 X120.527 Y99.116 E0.01622
G1 X121.081 Y98.736 E0.01624
G1 X121.777 Y98.351 E0.01923
G1 X122.020 Y98.239 E0.00648
G1 X122.764 Y97.957 E0.01923
G1 X123.541 Y97.756 E0.01941
G1 X124.335 Y97.641 E0.01941
G1 X125.130 Y97.612 E0.01923
G1 X125.799 Y97.652 E0.01621
G1 X126.462 Y97.757 E0.01625
G1 X127.348 Y97.991 E0.02217
G1 X127.985 Y98.240 E0.01653
G1 X128.790 Y98.654 E0.02188
G1 X129.368 Y99.040 E0.01682
G1 X129.983 Y99.544 E0.01923
G1 X130.178 Y99.728 E0.00648
G1 X130.715 Y100.315 E0.01923
G1 X131.190 Y100.964 E0.01946
G1 X131.588 Y101.652 E0.01923
G1 X131.912 Y102.387 E0.01941
G1 X132.126 Y103.035 E0.01651
G1 X132.300 Y103.835 E0.01980
G1 X132.377 Y104.535 E0.01703
G1 X132.382 Y105.395 E0.02080
G1 X132.313 Y106.067 E0.01634
G1 X132.155 Y106.848 E0.01927
G1 X132.083 Y107.106 E0.00648
G1 X131.816 Y107.855 E0.01923
G1 X131.520 Y108.483 E0.01678
G1 X131.043 Y109.254 E0.02192
G1 X130.627 Y109.794 E0.01650
G1 X129.987 Y110.453 E0.02220
G1 X129.474 Y110.884 E0.01622
G1 X128.920 Y111.264 E0.01624
G1 X128.201 Y111.659 E0.01985
G1 X127.478 Y111.961 E0.01894
G1 X127.231 Y112.045 E0.00632
G1 X126.568 Y112.224 E0.01661
G1 X125.749 Y112.353 E0.02004
G1 X124.950 Y112.391 E0.01934
G1 X124.173 Y112.345 E0.01883
G1 X123.461 Y112.229 E0.01746
G1 X122.771 Y112.045 E0.01727
G1 X122.013 Y111.758 E0.01960
G1 X121.778 Y111.649 E0.00628
G1 X121.082 Y111.265 E0.01923
G1 X120.424 Y110.801 E0.01946
G1 X119.827 Y110.276 E0.01923
G1 X119.415 Y109.840 E0.01449
G1 X118.959 Y109.255 E0.01797
G1 X118.511 Y108.537 E0.02045
G1 X118.117 Y107.694 E0.02251
G1 X117.916 Y107.102 E0.01511
G1 X117.705 Y106.187 E0.02273
G1 X117.630 Y105.530 E0.01599
G1 X117.617 Y104.665 E0.02092
G1 X117.688 Y103.935 E0.01775
G1 X117.846 Y103.152 E0.01931
G1 X117.918 Y102.894 E0.00648
G1 X118.185 Y102.145 E0.01923
G1 X118.481 Y101.517 E0.01679
G1 X118.813 Y100.960 E0.01567
G1 X119.337 Y100.253 E0.02129
G1 F5760
G1 X120.014 Y99.547 E-0.33868
G1 F5760
G1 X120.527 Y99.116 E-0.23228
G1 F5760
G1 X120.977 Y98.807 E-0.18904
G1 E-0.04000 F2100.00000
G1 Z0.300 F7200.000
G1 X127.776 Y107.297 F7200.000
G1 Z0.150 F7200.000
G1 E0.80000 F2100.00000
G1 X127.109 Y107.920 E0.02208 F720.000
G1 X126.332 Y108.347 E0.02145
G1 X125.457 Y108.574 E0.02186
G1 X124.537 Y108.572 E0.02224
G1 X123.675 Y108.350 E0.02152
G1 X122.883 Y107.915 E0.02186
G1 X122.225 Y107.296 E0.02184
G1 X121.741 Y106.534 E0.02184
G1 X121.462 Y105.675 E0.02184
G1 X121.405 Y104.774 E0.02184
G1 X121.572 Y103.899 E0.02154
G1 X121.958 Y103.071 E0.02210
G1 X122.534 Y102.374 E0.02187
G1 X123.266 Y101.842 E0.02187
G1 X124.117 Y101.509 E0.02210
G1 X125.000 Y101.397 E0.02154
G1 X125.896 Y101.511 E0.02184
G1 X126.736 Y101.843 E0.02184
G1 X127.467 Y102.374 E0.02184
G1 X128.042 Y103.070 E0.02184
G1 X128.427 Y103.887 E0.02184
G1 X128.596 Y104.774 E0.02184
G1 X128.539 Y105.675 E0.02184
G1 X128.260 Y106.534 E0.02184
G1 X127.808 Y107.246 E0.02041
G1 X127.475 Y107.047 F7200.000
G1 X126.880 Y107.604 E0.01971 F720.000
G1 X126.188 Y107.984 E0.01910
G1 X125.408 Y108.186 E0.01948
G1 X124.586 Y108.184 E0.01986
G1 X123.819 Y107.987 E0.01916
G1 X123.113 Y107.598 E0.01950
G1 X122.526 Y107.047 E0.01947
G1 X122.094 Y106.367 E0.01947
G1 X121.846 Y105.602 E0.01947
G1 X121.795 Y104.798 E0.01947
G1 X121.944 Y104.019 E0.01919
G1 X122.289 Y103.279 E0.01973
G1 X122.802 Y102.659 E0.01948
G1 X123.454 Y102.185 E0.01948
G1 X124.213 Y101.888 E0.01973
G1 X125.000 Y101.788 E0.01919
G1 X125.799 Y101.889 E0.01947
G1 X126.548 Y102.186 E0.01947
G1 X127.199 Y102.659 E0.01947
G1 X127.712 Y103.279 E0.01947
G1 X128.055 Y104.008 E0.01947
G1 X128.206 Y104.798 E0.01947
G1 X128.155 Y105.602 E0.01947
G1 X127.906 Y106.367 E0.01947
G1 X127.507 Y106.997 E0.01803
G1 X127.598 Y107.428 F7200.000
G1 F5760
G1 X126.880 Y107.604 E-0.30236
G1 F5760
G1 X126.188 Y107.984 E-0.27351
G1 F5760
G1 X125.673 Y108.117 E-0.18412
G1 E-0.04000 F2100.00000
G1 Z0.300 F7200.000
G1 X128.361 Y107.849 F7200.000
G1 Z0.150 F7200.000
G1 E0.80000 F2100.00000
G1 X128.030 Y108.199 E0.01165 F720.000
G1 X127.670 Y108.504 E0.01142
G1 X127.272 Y108.774 E0.01163
G1 X126.838 Y109.003 E0.01186
G1 X126.401 Y109.177 E0.01138
G1 X125.950 Y109.302 E0.01132
G1 X125.476 Y109.380 E0.01161
G1 X125.002 Y109.405 E0.01148
G1 X124.525 Y109.380 E0.01155
G1 X124.053 Y109.302 E0.01157
G1 X123.600 Y109.177 E0.01137
G1 X123.147 Y108.996 E0.01179
G1 X122.730 Y108.775 E0.01141
G1 X122.332 Y108.505 E0.01165
G1 X121.972 Y108.199 E0.01142
G1 X121.641 Y107.849 E0.01165
G1 X121.355 Y107.474 E0.01142
G1 X121.107 Y107.061 E0.01165
G1 X120.909 Y106.632 E0.01142
G1 X120.756 Y106.180 E0.01155
G1 X120.653 Y105.713 E0.01155
G1 X120.602 Y105.239 E0.01153
G1 X120.602 Y104.759 E0.01162
G1 X120.653 Y104.288 E0.01146
G1 X120.755 Y103.825 E0.01146
G1 X120.908 Y103.369 E0.01165
G1 X121.107 Y102.940 E0.01142
G1 X121.355 Y102.527 E0.01165
G1 X121.640 Y102.151 E0.01142
G1 X121.971 Y101.801 E0.01165
G1 X122.331 Y101.496 E0.01142
G1 X122.729 Y101.225 E0.01164
G1 X123.155 Y101.000 E0.01164
G1 X123.594 Y100.825 E0.01142
G1 X124.056 Y100.697 E0.01160
G1 X124.522 Y100.621 E0.01142
G1 X125.001 Y100.595 E0.01160
G1 X125.472 Y100.620 E0.01142
G1 X125.947 Y100.698 E0.01164
G1 X126.411 Y100.827 E0.01164
G1 X126.850 Y101.002 E0.01142
G1 X127.275 Y101.227 E0.01165
G1 X127.666 Y101.492 E0.01142
G1 X128.033 Y101.804 E0.01165
G1 X128.357 Y102.147 E0.01142
G1 X128.649 Y102.531 E0.01165
G1 X128.892 Y102.936 E0.01142
G1 X129.093 Y103.371 E0.01160
G1 X129.244 Y103.818 E0.01142
G1 X129.348 Y104.289 E0.01167
G1 X129.399 Y104.762 E0.01149
G1 X129.399 Y105.240 E0.01156
G1 X129.348 Y105.713 E0.01150
G1 X129.246 Y106.175 E0.01145
G1 X129.093 Y106.631 E0.01165
G1 X128.894 Y107.060 E0.01142
G1 X128.646 Y107.473 E0.01165
G1 X128.397 Y107.801 E0.00997
G1 X128.657 Y108.100 F7200.000
G1 X128.297 Y108.480 E0.01267 F720.000
G1 X127.905 Y108.813 E0.01244
G1 X127.472 Y109.107 E0.01266
G1 X127.001 Y109.355 E0.01288
G1 X126.525 Y109.545 E0.01238
G1 X126.033 Y109.681 E0.01233
G1 X125.518 Y109.766 E0.01263
G1 X125.002 Y109.794 E0.01250
G1 X124.483 Y109.766 E0.01256
G1 X123.970 Y109.682 E0.01259
G1 X123.476 Y109.545 E0.01239
G1 X122.984 Y109.349 E0.01281
G1 X122.530 Y109.108 E0.01243
G1 X122.097 Y108.814 E0.01267
G1 X121.705 Y108.481 E0.01244
G1 X121.345 Y108.101 E0.01267
G1 X121.034 Y107.691 E0.01244
G1 X120.764 Y107.243 E0.01267
G1 X120.548 Y106.776 E0.01244
G1 X120.382 Y106.284 E0.01257
G1 X120.270 Y105.776 E0.01256
G1 X120.214 Y105.261 E0.01255
G1 X120.214 Y104.738 E0.01264
G1 X120.270 Y104.225 E0.01248
G1 X120.381 Y103.721 E0.01247
G1 X120.547 Y103.225 E0.01267
G1 X120.763 Y102.758 E0.01244
G1 X121.033 Y102.309 E0.01267
G1 X121.344 Y101.900 E0.01244
G1 X121.704 Y101.520 E0.01267
G1 X122.096 Y101.187 E0.01244
G1 X122.529 Y100.892 E0.01266
G1 X122.992 Y100.648 E0.01266
G1 X123.470 Y100.457 E0.01244
G1 X123.972 Y100.318 E0.01262
G1 X124.480 Y100.235 E0.01244
G1 X125.001 Y100.206 E0.01262
G1 X125.514 Y100.234 E0.01244
G1 X126.031 Y100.318 E0.01266
G1 X126.535 Y100.459 E0.01266
G1 X127.013 Y100.649 E0.01244
G1 X127.475 Y100.895 E0.01267
G1 X127.901 Y101.183 E0.01244
G1 X128.300 Y101.523 E0.01267
G1 X128.653 Y101.896 E0.01244
G1 X128.970 Y102.313 E0.01267
G1 X129.235 Y102.754 E0.01244
G1 X129.454 Y103.227 E0.01262
G1 X129.618 Y103.714 E0.01244
G1 X129.731 Y104.227 E0.01269
G1 X129.787 Y104.741 E0.01251
G1 X129.787 Y105.261 E0.01258
G1 X129.731 Y105.775 E0.01251
G1 X129.620 Y106.279 E0.01246
G1 X129.453 Y106.775 E0.01267
G1 X129.238 Y107.242 E0.01244
G1 X128.968 Y107.691 E0.01267
G1 X128.693 Y108.052 E0.01098
G1 X128.265 Y108.021 F7200.000
G1 F5760
G1 X128.297 Y108.480 E-0.20206
G1 F5760
G1 X127.905 Y108.813 E-0.17808
G1 F5760
G1 X127.472 Y109.107 E-0.18128
G1 F5760
G1 X127.001 Y109.355 E-0.18448
G1 F5760
G1 X126.963 Y109.371 E-0.01410
G1 E-0.04000 F2100.00000
G1 Z0.300 F7200.000
G1 X128.393 Y103.180 F7200.000
G1 Z0.150 F7200.000
G1 E0.80000 F2100.00000
G1 X128.942 Y103.729 E0.01880 F1440.000
G1 X128.705 Y104.040 E0.00947
G1 X129.129 Y104.465 E0.01452
G1 X128.823 Y104.707 E0.00945
G1 X129.172 Y105.056 E0.01194
G1 X128.790 Y105.224 E0.01008
G1 X129.142 Y105.576 E0.01205
G1 X128.740 Y105.722 E0.01035
G1 X129.059 Y106.041 E0.01090
G1 X128.932 Y106.463 E0.01066
G1 X128.606 Y106.136 E0.01118
G1 X128.471 Y106.551 E0.01054
G1 X128.771 Y106.850 E0.01024
G1 X128.577 Y107.205 E0.00979
G1 X128.265 Y106.893 E0.01070
G1 X128.052 Y107.228 E0.00962
G1 X128.356 Y107.533 E0.01043
G1 X128.100 Y107.826 E0.00941
G1 X127.807 Y107.532 E0.01003
G1 X127.523 Y107.797 E0.00939
G1 X127.826 Y108.100 E0.01035
G1 X127.536 Y108.359 E0.00940
G1 X127.240 Y108.062 E0.01014
G1 X126.893 Y108.264 E0.00971
G1 X127.210 Y108.581 E0.01082
