; generated by Slic3r 1.31.6-prusa3d on 2016-12-20 at 20:23:56

; external perimeters extrusion width = 0.60mm
; perimeters extrusion width = 0.43mm
; infill extrusion width = 0.70mm
; solid infill extrusion width = 0.70mm
; top infill extrusion width = 0.43mm

M107
M115 U3.0.9 ; tell printer latest fw version
M83  ; extruder relative mode
M104 S215 ; set extruder temp
M140 S55 ; set bed temp
M190 S55 ; wait for bed temp
M109 S215 ; wait for extruder temp
G28 W ; home all without mesh bed level
G80 ; mesh bed leveling
G1 Y-3.0 F1000.0 ; go outside pritn area
G1 X60.0 E9.0  F1000.0 ; intro line
G1 X100.0 E12.5  F1000.0 ; intro line
G21 ; set units to millimeters
G90 ; use absolute coordinates
M83 ; use relative distances for extrusion
G1 E-0.80000 F2100.00000
G1 Z0.200 F6000.000
G1 X100.629 Y105.194 F6000.000
G1 E0.80000 F2100.00000
M204 S1000
G1 F2100
G1 X104.667 Y101.973 E0.15383
G1 X105.349 Y101.575 E0.02353
G1 X131.981 Y90.784 E0.85592
G1 X132.513 Y90.604 E0.01674
G1 X133.054 Y90.482 E0.01651
G1 X137.085 Y89.993 E0.12098
G1 X137.639 Y89.982 E0.01651
G1 X138.643 Y90.083 E0.03004
G1 X139.203 Y90.172 E0.01690
G1 X139.738 Y90.315 E0.01648
G1 X143.535 Y91.755 E0.12098
G1 X144.031 Y92.003 E0.01651
G1 X144.872 Y92.559 E0.03004
G1 X145.327 Y92.897 E0.01688
G1 X145.734 Y93.273 E0.01650
G1 X148.427 Y96.313 E0.12098
G1 X148.751 Y96.762 E0.01650
G1 X149.289 Y97.748 E0.03347
G1 X149.482 Y98.156 E0.01344
G1 X149.668 Y98.678 E0.01651
G1 X150.640 Y102.622 E0.12098
G1 X150.718 Y103.170 E0.01651
G1 X150.736 Y103.621 E0.01344
G1 X150.718 Y104.745 E0.03348
G1 X150.640 Y105.293 E0.01649
G1 X149.668 Y109.236 E0.12098
G1 X149.482 Y109.758 E0.01651
G1 X149.032 Y110.661 E0.03004
G1 X148.751 Y111.152 E0.01687
G1 X148.427 Y111.602 E0.01651
G1 X145.734 Y114.642 E0.12098
G1 X145.326 Y115.018 E0.01651
G1 X144.876 Y115.353 E0.01674
G1 X144.031 Y115.912 E0.03017
G1 X143.535 Y116.160 E0.01651
G1 X139.738 Y117.600 E0.12098
G1 X139.202 Y117.743 E0.01651
G1 X138.757 Y117.815 E0.01344
G1 X137.607 Y117.935 E0.03444
G1 X107.316 Y120.021 E0.90440
G1 X106.615 Y119.979 E0.02090
G1 X105.670 Y119.764 E0.02886
G1 X104.667 Y119.257 E0.03349
G1 X100.629 Y116.037 E0.15383
G1 X99.911 Y115.171 E0.03349
G1 X99.593 Y114.531 E0.02130
G1 X99.491 Y114.298 E0.00758
G1 X99.262 Y113.198 E0.03348
G1 X99.262 Y108.033 E0.15383
G1 X99.491 Y106.932 E0.03349
G1 X99.636 Y106.605 E0.01065
G1 X99.911 Y106.059 E0.01821
G1 X100.591 Y105.240 E0.03171
G1 X100.864 Y105.488 F6000.000
G1 F2100
G1 X104.902 Y102.268 E0.15383
G1 X105.490 Y101.924 E0.02031
G1 X132.115 Y91.137 E0.85566
G1 X132.633 Y90.962 E0.01628
G1 X133.099 Y90.857 E0.01425
G1 X137.131 Y90.367 E0.12098
G1 X137.609 Y90.357 E0.01425
G1 X138.597 Y90.457 E0.02959
G1 X139.143 Y90.544 E0.01644
G1 X139.604 Y90.667 E0.01422
G1 X143.401 Y92.108 E0.12098
G1 X143.829 Y92.321 E0.01425
G1 X144.658 Y92.869 E0.02959
G1 X145.100 Y93.199 E0.01643
G1 X145.451 Y93.523 E0.01424
G1 X148.145 Y96.563 E0.12098
G1 X148.424 Y96.951 E0.01424
G1 X148.906 Y97.825 E0.02973
G1 X149.142 Y98.318 E0.01628
G1 X149.302 Y98.768 E0.01425
G1 X150.274 Y102.712 E0.12098
G1 X150.341 Y103.185 E0.01425
G1 X150.359 Y104.278 E0.03256
G1 X150.341 Y104.730 E0.01346
G1 X150.274 Y105.203 E0.01423
G1 X149.302 Y109.146 E0.12098
G1 X149.142 Y109.597 E0.01425
G1 X148.696 Y110.490 E0.02973
G1 X148.424 Y110.964 E0.01627
G1 X148.145 Y111.352 E0.01425
G1 X145.451 Y114.392 E0.12098
G1 X145.100 Y114.716 E0.01425
G1 X144.662 Y115.043 E0.01628
G1 X143.829 Y115.593 E0.02972
G1 X143.401 Y115.807 E0.01425
G1 X139.604 Y117.247 E0.12098
G1 X139.142 Y117.371 E0.01425
G1 X138.154 Y117.511 E0.02972
G1 X107.290 Y119.645 E0.92153
G1 X106.685 Y119.609 E0.01804
G1 X105.768 Y119.400 E0.02801
G1 X104.902 Y118.962 E0.02891
G1 X100.864 Y115.742 E0.15383
G1 X100.245 Y114.995 E0.02891
G1 X99.938 Y114.380 E0.02045
G1 X99.837 Y114.147 E0.00758
G1 X99.639 Y113.198 E0.02889
G1 X99.639 Y108.033 E0.15383
G1 X99.837 Y107.083 E0.02891
G1 X99.976 Y106.769 E0.01023
G1 X100.245 Y106.236 E0.01779
G1 X100.826 Y105.535 E0.02712
G1 F4800
G1 X102.253 Y104.391 E-0.76000
G1 E-0.04000 F2100.00000
G1 X133.023 Y104.426 F6000.000
G1 E0.80000 F2100.00000
G1 F840
G1 X133.023 Y103.488 E0.02794
G1 X133.254 Y102.588 E0.02768
G1 X133.708 Y101.758 E0.02817
G1 X134.350 Y101.074 E0.02796
G1 X135.142 Y100.572 E0.02794
G1 X136.034 Y100.282 E0.02794
G1 X136.962 Y100.223 E0.02768
G1 X137.891 Y100.398 E0.02817
G1 X138.740 Y100.798 E0.02796
G1 X139.463 Y101.396 E0.02794
G1 X140.014 Y102.155 E0.02794
G1 X140.356 Y103.019 E0.02768
G1 X140.477 Y103.957 E0.02817
G1 X140.360 Y104.888 E0.02796
G1 X140.014 Y105.760 E0.02794
G1 X139.463 Y106.519 E0.02794
G1 X138.740 Y107.117 E0.02794
G1 X137.892 Y107.516 E0.02794
G1 X136.970 Y107.692 E0.02794
G1 X136.034 Y107.633 E0.02794
G1 X135.142 Y107.343 E0.02794
G1 X134.350 Y106.840 E0.02794
G1 X133.708 Y106.157 E0.02794
G1 X133.256 Y105.335 E0.02794
G1 X133.038 Y104.484 E0.02615
G1 X133.400 Y104.379 F6000.000
G1 F840
G1 X133.400 Y103.536 E0.02510
G1 X133.608 Y102.728 E0.02486
G1 X134.016 Y101.982 E0.02533
G1 X134.593 Y101.367 E0.02511
G1 X135.304 Y100.916 E0.02510
G1 X136.106 Y100.655 E0.02510
G1 X136.938 Y100.603 E0.02486
G1 X137.774 Y100.760 E0.02533
G1 X138.537 Y101.119 E0.02511
G1 X139.186 Y101.656 E0.02510
G1 X139.681 Y102.338 E0.02510
G1 X139.988 Y103.114 E0.02486
G1 X140.097 Y103.957 E0.02533
G1 X139.992 Y104.793 E0.02511
G1 X139.681 Y105.577 E0.02510
G1 X139.186 Y106.258 E0.02510
G1 X138.537 Y106.796 E0.02510
G1 X137.774 Y107.154 E0.02510
G1 X136.947 Y107.312 E0.02510
G1 X136.106 Y107.259 E0.02510
G1 X135.304 Y106.999 E0.02510
G1 X134.593 Y106.547 E0.02510
G1 X134.016 Y105.933 E0.02510
G1 X133.610 Y105.195 E0.02510
G1 X133.415 Y104.437 E0.02331
G1 X133.032 Y104.224 F6000.000
G1 F4800
G1 X133.400 Y103.536 E-0.37443
G1 F4800
G1 X133.608 Y102.728 E-0.34684
G1 F4800
G1 X133.653 Y102.646 E-0.03873
G1 E-0.04000 F2100.00000
G1 X126.318 Y106.229 F6000.000
G1 E0.80000 F2100.00000
G1 F1680
G1 X126.606 Y106.006 E0.01085
G1 X127.006 Y105.783 E0.01365
G1 X127.316 Y105.676 E0.00975
G1 X128.483 Y105.536 E0.03502
G1 X128.726 Y105.475 E0.00747
G1 X128.980 Y105.338 E0.00858
G1 X129.192 Y105.143 E0.00858
G1 X129.349 Y104.901 E0.00858
G1 X129.448 Y104.607 E0.00925
G1 X129.448 Y103.308 E0.03869
G1 X129.349 Y103.014 E0.00925
G1 X129.192 Y102.772 E0.00858
G1 X128.980 Y102.576 E0.00858
G1 X128.726 Y102.440 E0.00858
G1 X128.483 Y102.379 E0.00747
G1 X127.316 Y102.239 E0.03502
G1 X127.006 Y102.132 E0.00975
G1 X126.606 Y101.908 E0.01365
G1 X126.318 Y101.686 E0.01085
G1 X126.463 Y101.126 E0.01723
G1 X126.814 Y101.064 E0.01061
G1 X127.272 Y101.052 E0.01365
G1 X127.596 Y101.101 E0.00975
G1 X128.695 Y101.520 E0.03502
G1 X128.938 Y101.579 E0.00747
G1 X129.227 Y101.576 E0.00858
G1 X129.505 Y101.501 E0.00858
G1 X129.756 Y101.360 E0.00858
G1 X129.965 Y101.161 E0.00858
G1 X130.091 Y100.958 E0.00713
G1 X130.585 Y99.992 E0.03230
G1 X130.633 Y99.689 E0.00916
G1 X130.607 Y99.402 E0.00858
G1 X130.510 Y99.130 E0.00858
G1 X130.349 Y98.891 E0.00858
G1 X130.161 Y98.725 E0.00747
G1 X129.193 Y98.058 E0.03502
G1 X128.969 Y97.820 E0.00975
G1 X128.718 Y97.436 E0.01365
G1 X128.567 Y97.104 E0.01086
G1 X128.956 Y96.676 E0.01723
G1 X129.295 Y96.785 E0.01061
G1 X129.706 Y96.987 E0.01365
G1 X129.970 Y97.181 E0.00975
G1 X130.748 Y98.062 E0.03502
G1 X130.937 Y98.228 E0.00747
G1 X131.193 Y98.359 E0.00858
G1 X131.474 Y98.422 E0.00858
G1 X131.763 Y98.414 E0.00858
G1 X132.061 Y98.329 E0.00925
G1 X133.130 Y97.591 E0.03869
G1 X133.316 Y97.342 E0.00925
G1 X133.426 Y97.075 E0.00858
G1 X133.466 Y96.790 E0.00858
G1 X133.435 Y96.504 E0.00858
G1 X133.346 Y96.269 E0.00747
G1 X132.799 Y95.229 E0.03502
G1 X132.711 Y94.913 E0.00975
G1 X132.667 Y94.457 E0.01365
G1 X132.687 Y94.101 E0.01061
G1 X133.225 Y93.889 E0.01723
G1 X133.481 Y94.149 E0.01085
G1 X133.751 Y94.519 E0.01365
G1 X133.894 Y94.813 E0.00975
G1 X134.174 Y95.955 E0.03502
G1 X134.263 Y96.189 E0.00747
G1 X134.430 Y96.425 E0.00858
G1 X134.649 Y96.611 E0.00858
G1 X134.908 Y96.738 E0.00858
G1 X135.209 Y96.800 E0.00916
G1 X136.287 Y96.681 E0.03230
G1 X136.522 Y96.635 E0.00713
G1 X136.782 Y96.511 E0.00858
G1 X137.003 Y96.326 E0.00858
G1 X137.171 Y96.092 E0.00858
G1 X137.277 Y95.823 E0.00858
G1 X137.307 Y95.574 E0.00747
G1 X137.306 Y94.399 E0.03501
G1 X137.375 Y94.079 E0.00975
G1 X137.548 Y93.655 E0.01365
G1 X137.735 Y93.341 E0.01086
G1 X138.308 Y93.419 E0.01723
G1 X138.412 Y93.760 E0.01061
G1 X138.479 Y94.213 E0.01365
G1 X138.469 Y94.540 E0.00975
G1 X138.186 Y95.681 E0.03502
G1 X138.157 Y95.930 E0.00747
G1 X138.195 Y96.216 E0.00858
G1 X138.302 Y96.483 E0.00858
G1 X138.472 Y96.716 E0.00858
G1 X138.695 Y96.899 E0.00858
G1 X138.912 Y97.000 E0.00713
G1 X139.930 Y97.374 E0.03230
G1 X140.237 Y97.385 E0.00916
G1 X140.519 Y97.324 E0.00858
G1 X140.777 Y97.195 E0.00858
G1 X140.995 Y97.007 E0.00858
G1 X141.138 Y96.801 E0.00747
G1 X141.683 Y95.759 E0.03502
G1 X141.892 Y95.508 E0.00975
G1 X142.243 Y95.213 E0.01365
G1 X142.547 Y95.026 E0.01061
G1 X142.969 Y95.305 E0.01508
G1 X143.027 Y95.349 E0.00215
G1 X142.959 Y95.707 E0.01085
G1 X142.807 Y96.139 E0.01365
G1 X142.647 Y96.424 E0.00975
G1 X141.866 Y97.303 E0.03502
G1 X141.724 Y97.510 E0.00747
G1 X141.625 Y97.781 E0.00858
G1 X141.596 Y98.068 E0.00858
G1 X141.639 Y98.352 E0.00858
G1 X141.760 Y98.639 E0.00925
G1 X142.621 Y99.611 E0.03869
G1 X142.890 Y99.765 E0.00925
G1 X143.168 Y99.842 E0.00858
G1 X143.456 Y99.848 E0.00858
G1 X143.737 Y99.782 E0.00858
G1 X143.959 Y99.666 E0.00747
G1 X144.926 Y98.997 E0.03502
G1 X145.228 Y98.872 E0.00975
G1 X145.676 Y98.774 E0.01365
G1 X146.040 Y98.749 E0.01086
G1 X146.302 Y99.265 E0.01723
G1 X146.080 Y99.544 E0.01061
G1 X145.745 Y99.857 E0.01365
G1 X145.470 Y100.034 E0.00975
G1 X144.371 Y100.450 E0.03502
G1 X144.149 Y100.567 E0.00747
G1 X143.935 Y100.761 E0.00858
G1 X143.776 Y101.001 E0.00858
G1 X143.682 Y101.273 E0.00858
G1 X143.656 Y101.579 E0.00916
G1 X143.904 Y102.635 E0.03230
G1 X143.979 Y102.863 E0.00713
G1 X144.134 Y103.106 E0.00858
G1 X144.344 Y103.303 E0.00858
G1 X144.596 Y103.442 E0.00858
G1 X144.875 Y103.514 E0.00858
G1 X145.126 Y103.515 E0.00747
G1 X146.293 Y103.372 E0.03502
G1 X146.619 Y103.401 E0.00975
G1 X147.061 Y103.522 E0.01365
G1 X147.387 Y103.666 E0.01061
G1 X147.394 Y104.245 E0.01723
G1 X147.061 Y104.392 E0.01086
G1 X146.619 Y104.513 E0.01365
G1 X146.293 Y104.543 E0.00975
G1 X145.126 Y104.400 E0.03502
G1 X144.875 Y104.400 E0.00747
G1 X144.596 Y104.473 E0.00858
G1 X144.344 Y104.612 E0.00858
G1 X144.134 Y104.809 E0.00858
G1 X143.979 Y105.052 E0.00858
G1 X143.904 Y105.279 E0.00713
G1 X143.656 Y106.335 E0.03230
G1 X143.682 Y106.641 E0.00916
G1 X143.776 Y106.914 E0.00858
G1 X143.935 Y107.154 E0.00858
G1 X144.149 Y107.348 E0.00858
G1 X144.371 Y107.465 E0.00747
G1 X145.470 Y107.880 E0.03502
G1 X145.745 Y108.058 E0.00975
G1 X146.080 Y108.371 E0.01365
G1 X146.302 Y108.650 E0.01061
G1 X146.040 Y109.165 E0.01723
G1 X145.676 Y109.141 E0.01085
G1 X145.228 Y109.043 E0.01365
G1 X144.926 Y108.917 E0.00975
G1 X143.959 Y108.248 E0.03502
G1 X143.737 Y108.132 E0.00747
G1 X143.456 Y108.067 E0.00858
G1 X143.168 Y108.072 E0.00858
G1 X142.890 Y108.149 E0.00858
G1 X142.621 Y108.304 E0.00925
G1 X141.760 Y109.276 E0.03869
G1 X141.639 Y109.562 E0.00925
G1 X141.596 Y109.847 E0.00858
G1 X141.625 Y110.134 E0.00858
G1 X141.724 Y110.404 E0.00858
G1 X141.866 Y110.611 E0.00747
G1 X142.647 Y111.490 E0.03502
G1 X142.807 Y111.775 E0.00975
G1 X142.959 Y112.208 E0.01365
G1 X143.027 Y112.566 E0.01086
G1 X142.547 Y112.888 E0.01723
G1 X142.243 Y112.702 E0.01061
G1 X141.892 Y112.407 E0.01365
G1 X141.683 Y112.156 E0.00975
G1 X141.138 Y111.114 E0.03502
G1 X140.995 Y110.908 E0.00747
G1 X140.777 Y110.719 E0.00858
G1 X140.519 Y110.590 E0.00858
G1 X140.237 Y110.529 E0.00858
G1 X139.949 Y110.540 E0.00858
G1 X139.720 Y110.608 E0.00713
G1 X138.710 Y111.004 E0.03230
G1 X138.472 Y111.199 E0.00916
G1 X138.302 Y111.431 E0.00858
G1 X138.195 Y111.699 E0.00858
G1 X138.157 Y111.984 E0.00858
G1 X138.186 Y112.233 E0.00747
G1 X138.469 Y113.374 E0.03502
G1 X138.479 Y113.702 E0.00975
G1 X138.412 Y114.155 E0.01365
G1 X138.306 Y114.504 E0.01086
G1 X138.239 Y114.515 E0.00202
G1 X137.731 Y114.566 E0.01521
G1 X137.548 Y114.260 E0.01061
G1 X137.375 Y113.836 E0.01365
G1 X137.306 Y113.516 E0.00975
G1 X137.307 Y112.340 E0.03502
G1 X137.277 Y112.091 E0.00747
G1 X137.171 Y111.823 E0.00858
G1 X137.003 Y111.589 E0.00858
G1 X136.782 Y111.404 E0.00858
G1 X136.502 Y111.270 E0.00925
G1 X135.212 Y111.113 E0.03869
G1 X134.908 Y111.177 E0.00925
G1 X134.649 Y111.303 E0.00858
G1 X134.430 Y111.490 E0.00858
G1 X134.263 Y111.725 E0.00858
G1 X134.174 Y111.960 E0.00747
G1 X133.894 Y113.101 E0.03502
G1 X133.751 Y113.395 E0.00975
G1 X133.481 Y113.766 E0.01365
G1 X133.225 Y114.025 E0.01086
G1 X132.687 Y113.813 E0.01723
G1 X132.667 Y113.457 E0.01061
G1 X132.711 Y113.001 E0.01365
G1 X132.799 Y112.686 E0.00975
G1 X133.346 Y111.646 E0.03502
G1 X133.435 Y111.411 E0.00747
G1 X133.466 Y111.124 E0.00858
G1 X133.426 Y110.839 E0.00858
G1 X133.316 Y110.573 E0.00858
G1 X133.132 Y110.326 E0.00916
G1 X132.246 Y109.701 E0.03230
G1 X132.040 Y109.580 E0.00713
G1 X131.763 Y109.500 E0.00858
G1 X131.474 Y109.492 E0.00858
G1 X131.193 Y109.556 E0.00858
G1 X130.937 Y109.687 E0.00858
G1 X130.748 Y109.853 E0.00747
G1 X129.970 Y110.733 E0.03502
G1 X129.706 Y110.927 E0.00975
G1 X129.295 Y111.130 E0.01365
G1 X128.956 Y111.238 E0.01061
G1 X128.567 Y110.810 E0.01723
G1 X128.718 Y110.479 E0.01086
G1 X128.969 Y110.095 E0.01365
G1 X129.193 Y109.857 E0.00975
G1 X130.161 Y109.190 E0.03502
G1 X130.349 Y109.023 E0.00747
G1 X130.510 Y108.784 E0.00858
G1 X130.607 Y108.513 E0.00858
G1 X130.633 Y108.226 E0.00858
G1 X130.588 Y107.941 E0.00858
G1 X130.493 Y107.721 E0.00713
G1 X129.978 Y106.767 E0.03230
G1 X129.756 Y106.554 E0.00916
G1 X129.505 Y106.413 E0.00858
G1 X129.227 Y106.339 E0.00858
G1 X128.938 Y106.336 E0.00858
G1 X128.695 Y106.395 E0.00747
G1 X127.596 Y106.813 E0.03502
G1 X127.272 Y106.862 E0.00975
G1 X126.814 Y106.850 E0.01365
G1 X126.463 Y106.789 E0.01061
G1 X126.330 Y106.288 E0.01545
G1 X125.901 Y106.074 F6000.000
G1 F1260
G1 X126.398 Y105.691 E0.01869
G1 X126.852 Y105.437 E0.01548
G1 X127.231 Y105.306 E0.01194
G1 X128.414 Y105.164 E0.03551
G1 X128.589 Y105.120 E0.00536
G1 X128.759 Y105.029 E0.00576
G1 X128.901 Y104.898 E0.00576
G1 X129.006 Y104.736 E0.00576
G1 X129.071 Y104.545 E0.00600
G1 X129.071 Y103.370 E0.03500
G1 X129.006 Y103.179 E0.00600
G1 X128.901 Y103.017 E0.00576
G1 X128.759 Y102.886 E0.00576
G1 X128.589 Y102.794 E0.00576
G1 X128.414 Y102.751 E0.00536
G1 X127.231 Y102.608 E0.03551
G1 X126.852 Y102.477 E0.01194
G1 X126.398 Y102.224 E0.01548
G1 X125.901 Y101.840 E0.01869
G1 X125.965 Y101.528 E0.00949
G1 X126.161 Y100.796 E0.02258
G1 X126.776 Y100.688 E0.01861
G1 X127.296 Y100.674 E0.01548
G1 X127.692 Y100.735 E0.01194
G1 X128.807 Y101.159 E0.03551
G1 X128.982 Y101.201 E0.00536
G1 X129.175 Y101.199 E0.00576
G1 X129.362 Y101.149 E0.00576
G1 X129.530 Y101.055 E0.00576
G1 X129.670 Y100.921 E0.00576
G1 X129.763 Y100.772 E0.00524
G1 X130.222 Y99.874 E0.03004
G1 X130.253 Y99.676 E0.00596
G1 X130.236 Y99.484 E0.00576
G1 X130.171 Y99.302 E0.00576
G1 X130.063 Y99.141 E0.00576
G1 X129.928 Y99.022 E0.00536
G1 X128.946 Y98.346 E0.03551
G1 X128.671 Y98.054 E0.01194
G1 X128.387 Y97.618 E0.01548
G1 X128.126 Y97.048 E0.01869
G1 X128.325 Y96.805 E0.00936
G1 X128.841 Y96.244 E0.02271
G1 X129.437 Y96.434 E0.01861
G1 X129.903 Y96.664 E0.01548
G1 X130.226 Y96.901 E0.01194
G1 X131.015 Y97.795 E0.03551
G1 X131.150 Y97.914 E0.00536
G1 X131.323 Y98.002 E0.00576
G1 X131.511 Y98.044 E0.00576
G1 X131.704 Y98.039 E0.00576
G1 X131.898 Y97.983 E0.00600
G1 X132.865 Y97.316 E0.03500
G1 X132.985 Y97.154 E0.00600
G1 X133.059 Y96.976 E0.00576
G1 X133.086 Y96.784 E0.00576
G1 X133.065 Y96.592 E0.00576
G1 X133.002 Y96.424 E0.00536
G1 X132.446 Y95.369 E0.03551
G1 X132.339 Y94.982 E0.01194
G1 X132.289 Y94.465 E0.01548
G1 X132.323 Y93.841 E0.01861
G1 X133.026 Y93.558 E0.02258
G1 X133.328 Y93.457 E0.00949
G1 X133.769 Y93.904 E0.01869
G1 X134.075 Y94.324 E0.01548
G1 X134.251 Y94.684 E0.01194
G1 X134.535 Y95.842 E0.03551
G1 X134.599 Y96.010 E0.00536
