; generated by Slic3r 1.31.6-prusa3d on 2016-12-01 at 19:26:02

; external perimeters extrusion width = 0.60mm
; perimeters extrusion width = 0.43mm
; infill extrusion width = 0.70mm
; solid infill extrusion width = 0.70mm
; top infill extrusion width = 0.43mm

M107
M115 U3.0.9 ; tell printer latest fw version
M83  ; extruder relative mode
M104 S215 ; set extruder temp
M140 S55 ; set bed temp
M190 S55 ; wait for bed temp
M109 S215 ; wait for extruder temp
G28 W ; home all without mesh bed level
G80 ; mesh bed leveling
G1 Y-3.0 F1000.0 ; go outside pritn area
G1 X60.0 E9.0  F1000.0 ; intro line
G1 X100.0 E12.5  F1000.0 ; intro line
G21 ; set units to millimeters
G90 ; use absolute coordinates
M83 ; use relative distances for extrusion
G1 E-0.80000 F2100.00000
G1 Z0.200 F6000.000
G1 X103.410 Y94.357 F6000.000
G1 E0.80000 F2100.00000
M204 S1000
G1 F2100
G1 X103.774 Y94.047 E0.01500
G1 X107.117 Y91.740 E0.12734
G1 X107.535 Y91.509 E0.01500
G1 X107.951 Y91.332 E0.01416
G1 X108.979 Y90.962 E0.03427
G1 X109.446 Y90.857 E0.01500
G1 X113.478 Y90.367 E0.12734
G1 X113.956 Y90.357 E0.01500
G1 X114.944 Y90.457 E0.03115
G1 X115.489 Y90.544 E0.01731
G1 X115.950 Y90.667 E0.01497
G1 X119.808 Y92.131 E0.12938
G1 X146.042 Y102.908 E0.88923
G1 X146.550 Y103.194 E0.01827
G1 X147.285 Y103.780 E0.02949
G1 X147.876 Y104.550 E0.03043
G1 X150.116 Y109.203 E0.16193
G1 X150.350 Y110.145 E0.03042
G1 X150.361 Y110.488 E0.01078
G1 X150.350 Y111.086 E0.01874
G1 X150.116 Y112.027 E0.03042
G1 X147.876 Y116.680 E0.16193
G1 X147.285 Y117.451 E0.03043
G1 X147.024 Y117.673 E0.01077
G1 X146.550 Y118.037 E0.01873
G1 X145.667 Y118.441 E0.03043
G1 X140.632 Y119.591 E0.16193
G1 X139.916 Y119.643 E0.02253
G1 X113.576 Y117.557 E0.82844
G1 X109.446 Y117.058 E0.13046
G1 X108.979 Y116.953 E0.01500
G1 X108.461 Y116.778 E0.01714
G1 X107.535 Y116.405 E0.03129
G1 X107.117 Y116.175 E0.01500
G1 X103.774 Y113.867 E0.12734
G1 X103.410 Y113.558 E0.01500
G1 X102.733 Y112.824 E0.03129
G1 X102.386 Y112.402 E0.01715
G1 X102.122 Y112.003 E0.01499
G1 X100.235 Y108.407 E0.12734
G1 X100.056 Y107.963 E0.01500
G1 X99.798 Y106.999 E0.03129
G1 X99.687 Y106.463 E0.01716
G1 X99.639 Y105.988 E0.01498
G1 X99.639 Y101.927 E0.12734
G1 X99.687 Y101.451 E0.01498
G1 X99.931 Y100.385 E0.03429
G1 X100.056 Y99.951 E0.01416
G1 X100.235 Y99.508 E0.01498
G1 X102.122 Y95.912 E0.12734
G1 X102.386 Y95.513 E0.01498
G1 X102.671 Y95.163 E0.01417
G1 X103.368 Y94.400 E0.03240
G1 F4800
G1 X103.774 Y94.047 E-0.22360
G1 F4800
G1 X104.836 Y93.314 E-0.53640
G1 E-0.04000 F2100.00000
G1 X139.885 Y108.983 F6000.000
G1 E0.80000 F2100.00000
G1 F840
G1 X142.599 Y108.983 E0.08512
G1 X143.059 Y109.587 E0.02380
G1 X143.265 Y110.092 E0.01709
G1 X143.334 Y110.632 E0.01709
G1 X143.261 Y111.172 E0.01709
G1 X143.052 Y111.675 E0.01709
G1 X142.719 Y112.107 E0.01709
G1 X142.286 Y112.438 E0.01709
G1 X141.782 Y112.646 E0.01709
G1 X141.242 Y112.717 E0.01709
G1 X140.702 Y112.646 E0.01709
G1 X140.198 Y112.438 E0.01709
G1 X139.765 Y112.107 E0.01709
G1 X139.433 Y111.675 E0.01709
G1 X139.223 Y111.172 E0.01709
G1 X139.150 Y110.632 E0.01709
G1 X139.219 Y110.092 E0.01709
G1 X139.426 Y109.587 E0.01709
G1 X139.848 Y109.030 E0.02192
G1 X140.072 Y109.360 F6000.000
G1 F840
G1 X142.412 Y109.360 E0.07339
G1 X142.728 Y109.776 E0.01638
G1 X142.897 Y110.189 E0.01398
G1 X142.954 Y110.631 E0.01398
G1 X142.894 Y111.073 E0.01398
G1 X142.723 Y111.484 E0.01398
G1 X142.450 Y111.837 E0.01398
G1 X142.096 Y112.108 E0.01398
G1 X141.684 Y112.279 E0.01398
G1 X141.242 Y112.337 E0.01398
G1 X140.800 Y112.279 E0.01398
G1 X140.388 Y112.108 E0.01398
G1 X140.034 Y111.837 E0.01398
G1 X139.762 Y111.484 E0.01398
G1 X139.590 Y111.073 E0.01398
G1 X139.530 Y110.631 E0.01398
G1 X139.587 Y110.189 E0.01398
G1 X139.756 Y109.776 E0.01398
G1 X140.036 Y109.408 E0.01450
G1 X140.142 Y108.966 F6000.000
G1 F4800
G1 X141.864 Y109.371 E-0.76000
G1 E-0.04000 F2100.00000
G1 X135.721 Y107.874 F6000.000
G1 E0.80000 F2100.00000
G1 F1680
G1 X136.024 Y107.823 E0.00964
G1 X136.463 Y107.814 E0.01378
G1 X136.783 Y107.857 E0.01011
G1 X137.012 Y107.926 E0.00750
G1 X137.884 Y108.622 E0.03500
G1 X138.125 Y108.768 E0.00882
G1 X138.440 Y108.853 E0.01025
G1 X138.767 Y108.846 E0.01025
G1 X139.079 Y108.748 E0.01025
G1 X139.307 Y108.596 E0.00860
G1 X139.882 Y108.116 E0.02347
G1 X140.056 Y107.818 E0.01084
G1 X140.136 Y107.501 E0.01025
G1 X140.123 Y107.174 E0.01025
G1 X140.033 Y106.905 E0.00891
G1 X139.576 Y105.988 E0.03212
G1 X139.539 Y105.806 E0.00582
G1 X139.533 Y105.671 E0.00424
G1 X139.563 Y105.342 E0.01035
G1 X139.669 Y104.915 E0.01378
G1 X139.787 Y104.632 E0.00964
G1 X139.939 Y104.597 E0.00489
G1 X140.164 Y104.798 E0.00945
G1 X140.449 Y105.140 E0.01398
G1 X140.615 Y105.416 E0.01009
G1 X140.699 Y105.628 E0.00715
G1 X140.717 Y105.716 E0.00279
G1 X140.703 Y106.752 E0.03250
G1 X140.739 Y107.034 E0.00891
G1 X140.869 Y107.333 E0.01025
G1 X141.079 Y107.585 E0.01025
G1 X141.365 Y107.778 E0.01084
G1 X142.091 Y107.960 E0.02347
G1 X142.363 Y107.998 E0.00860
G1 X142.686 Y107.951 E0.01025
G1 X142.984 Y107.816 E0.01025
G1 X143.231 Y107.603 E0.01025
G1 X143.386 Y107.364 E0.00891
G1 X143.826 Y106.417 E0.03274
G1 X144.049 Y106.197 E0.00983
G1 X144.314 Y106.022 E0.00996
G1 X144.714 Y105.839 E0.01378
G1 X145.016 Y105.752 E0.00985
G1 X145.132 Y105.841 E0.00457
G1 X145.114 Y106.158 E0.00996
G1 X145.025 Y106.589 E0.01378
G1 X144.912 Y106.891 E0.01011
G1 X144.799 Y107.089 E0.00715
G1 X144.742 Y107.157 E0.00279
G1 X143.923 Y107.793 E0.03250
G1 X143.725 Y107.996 E0.00891
G1 X143.572 Y108.285 E0.01025
G1 X143.506 Y108.605 E0.01025
G1 X143.532 Y108.931 E0.01025
G1 X143.630 Y109.187 E0.00860
G1 X143.969 Y109.854 E0.02347
G1 X144.221 Y110.091 E0.01084
G1 X144.513 Y110.239 E0.01025
G1 X144.834 Y110.299 E0.01025
G1 X145.117 Y110.272 E0.00891
G1 X146.132 Y110.026 E0.03274
G1 X146.443 Y110.062 E0.00983
G1 X146.745 Y110.161 E0.00996
G1 X147.137 Y110.359 E0.01378
G1 X147.393 Y110.541 E0.00985
G1 X147.396 Y110.687 E0.00457
G1 X147.137 Y110.871 E0.00996
G1 X146.745 Y111.069 E0.01378
G1 X146.438 Y111.170 E0.01011
G1 X146.213 Y111.205 E0.00715
G1 X146.124 Y111.203 E0.00279
G1 X145.117 Y110.959 E0.03250
G1 X144.834 Y110.931 E0.00891
G1 X144.513 Y110.992 E0.01025
G1 X144.221 Y111.140 E0.01025
G1 X143.969 Y111.376 E0.01084
G1 X143.630 Y112.043 E0.02347
G1 X143.532 Y112.299 E0.00860
G1 X143.506 Y112.625 E0.01025
G1 X143.572 Y112.945 E0.01025
G1 X143.725 Y113.234 E0.01025
G1 X143.923 Y113.438 E0.00891
G1 X144.732 Y114.066 E0.03212
G1 X144.845 Y114.213 E0.00582
G1 X144.909 Y114.332 E0.00424
G1 X145.025 Y114.642 E0.01035
G1 X145.114 Y115.072 E0.01378
G1 X145.132 Y115.389 E0.00996
G1 X145.016 Y115.478 E0.00457
G1 X144.714 Y115.391 E0.00985
G1 X144.314 Y115.208 E0.01378
G1 X144.045 Y115.031 E0.01011
G1 X143.858 Y114.856 E0.00803
G1 X143.384 Y113.864 E0.03448
G1 X143.231 Y113.628 E0.00882
G1 X142.984 Y113.414 E0.01025
G1 X142.686 Y113.279 E0.01025
G1 X142.344 Y113.229 E0.01084
G1 X141.611 Y113.380 E0.02347
G1 X141.350 Y113.463 E0.00860
G1 X141.079 Y113.646 E0.01025
G1 X140.869 Y113.897 E0.01025
G1 X140.739 Y114.197 E0.01025
G1 X140.703 Y114.479 E0.00891
G1 X140.717 Y115.503 E0.03212
G1 X140.672 Y115.683 E0.00582
G1 X140.619 Y115.807 E0.00424
G1 X140.449 Y116.091 E0.01035
G1 X140.168 Y116.429 E0.01378
G1 X139.939 Y116.633 E0.00964
G1 X139.787 Y116.599 E0.00489
G1 X139.669 Y116.315 E0.00964
G1 X139.563 Y115.888 E0.01378
G1 X139.534 Y115.567 E0.01011
G1 X139.550 Y115.340 E0.00715
G1 X139.571 Y115.253 E0.00279
G1 X140.033 Y114.326 E0.03250
G1 X140.123 Y114.056 E0.00891
G1 X140.136 Y113.730 E0.01025
G1 X140.056 Y113.413 E0.01025
G1 X139.882 Y113.114 E0.01084
G1 X139.307 Y112.635 E0.02347
G1 X139.079 Y112.483 E0.00860
G1 X138.767 Y112.384 E0.01025
G1 X138.440 Y112.378 E0.01025
G1 X138.125 Y112.462 E0.01025
G1 X137.882 Y112.610 E0.00891
G1 X137.090 Y113.259 E0.03212
G1 X136.921 Y113.337 E0.00582
G1 X136.790 Y113.373 E0.00424
G1 X136.463 Y113.416 E0.01035
G1 X136.024 Y113.408 E0.01378
G1 X135.721 Y113.356 E0.00964
G1 X135.653 Y113.216 E0.00489
G1 X135.801 Y112.946 E0.00964
G1 X136.069 Y112.598 E0.01378
G1 X136.302 Y112.374 E0.01011
G1 X136.489 Y112.245 E0.00715
G1 X136.570 Y112.208 E0.00279
G1 X137.584 Y111.991 E0.03250
G1 X137.851 Y111.893 E0.00891
G1 X138.114 Y111.699 E0.01025
G1 X138.312 Y111.440 E0.01025
G1 X138.436 Y111.117 E0.01084
G1 X138.453 Y110.369 E0.02347
G1 X138.430 Y110.096 E0.00860
G1 X138.312 Y109.791 E0.01025
G1 X138.114 Y109.531 E0.01025
G1 X137.851 Y109.337 E0.01025
G1 X137.584 Y109.239 E0.00891
G1 X136.582 Y109.025 E0.03212
G1 X136.417 Y108.941 E0.00582
G1 X136.307 Y108.861 E0.00424
G1 X136.069 Y108.633 E0.01035
G1 X135.801 Y108.284 E0.01378
G1 X135.653 Y108.015 E0.00964
G1 X135.695 Y107.928 E0.00301
G1 X135.465 Y107.536 F6000.000
G1 F1260
G1 X135.988 Y107.446 E0.01663
G1 X136.485 Y107.437 E0.01557
G1 X136.863 Y107.487 E0.01197
G1 X137.227 Y107.610 E0.01205
G1 X138.101 Y108.313 E0.03517
G1 X138.275 Y108.418 E0.00636
G1 X138.486 Y108.475 E0.00687
G1 X138.705 Y108.470 E0.00687
G1 X138.914 Y108.404 E0.00687
G1 X139.081 Y108.293 E0.00628
G1 X139.590 Y107.869 E0.02077
G1 X139.704 Y107.674 E0.00708
G1 X139.757 Y107.461 E0.00687
G1 X139.748 Y107.243 E0.00687
G1 X139.684 Y107.049 E0.00639
G1 X139.217 Y106.112 E0.03282
G1 X139.163 Y105.853 E0.00830
G1 X139.155 Y105.662 E0.00600
G1 X139.190 Y105.279 E0.01205
G1 X139.310 Y104.797 E0.01557
G1 X139.513 Y104.307 E0.01663
G1 X140.045 Y104.186 E0.01709
G1 X140.436 Y104.535 E0.01643
G1 X140.757 Y104.922 E0.01577
G1 X140.954 Y105.249 E0.01196
G1 X141.061 Y105.520 E0.00914
G1 X141.095 Y105.679 E0.00512
G1 X141.080 Y106.730 E0.03296
G1 X141.106 Y106.933 E0.00639
G1 X141.194 Y107.134 E0.00687
G1 X141.334 Y107.302 E0.00687
G1 X141.521 Y107.428 E0.00708
G1 X142.164 Y107.589 E0.02077
G1 X142.362 Y107.617 E0.00628
G1 X142.579 Y107.586 E0.00687
G1 X142.778 Y107.495 E0.00687
G1 X142.944 Y107.352 E0.00687
G1 X143.055 Y107.181 E0.00639
G1 X143.500 Y106.226 E0.03305
G1 X143.562 Y106.139 E0.00335
G1 X143.814 Y105.900 E0.01088
G1 X144.131 Y105.691 E0.01191
G1 X144.583 Y105.484 E0.01557
G1 X145.095 Y105.338 E0.01671
G1 X145.409 Y105.579 E0.01242
G1 X145.519 Y105.673 E0.00454
G1 X145.489 Y106.207 E0.01678
G1 X145.388 Y106.694 E0.01557
G1 X145.254 Y107.051 E0.01197
G1 X145.110 Y107.304 E0.00914
G1 X145.005 Y107.430 E0.00512
G1 X144.175 Y108.074 E0.03296
G1 X144.033 Y108.220 E0.00639
G1 X143.930 Y108.414 E0.00687
G1 X143.886 Y108.629 E0.00687
G1 X143.904 Y108.847 E0.00687
G1 X143.975 Y109.034 E0.00628
G1 X144.276 Y109.625 E0.02077
G1 X144.440 Y109.779 E0.00708
G1 X144.636 Y109.878 E0.00687
G1 X144.851 Y109.919 E0.00687
G1 X145.054 Y109.899 E0.00639
G1 X146.078 Y109.651 E0.03305
G1 X146.185 Y109.646 E0.00335
G1 X146.528 Y109.693 E0.01088
G1 X146.889 Y109.812 E0.01191
G1 X147.333 Y110.035 E0.01557
G1 X147.767 Y110.344 E0.01671
G1 X147.774 Y110.740 E0.01242
G1 X147.769 Y110.885 E0.00454
G1 X147.333 Y111.195 E0.01678
G1 X146.889 Y111.419 E0.01557
G1 X146.527 Y111.538 E0.01197
G1 X146.238 Y111.582 E0.00914
G1 X146.075 Y111.579 E0.00512
G1 X145.054 Y111.331 E0.03296
G1 X144.851 Y111.312 E0.00639
G1 X144.636 Y111.352 E0.00687
G1 X144.440 Y111.451 E0.00687
G1 X144.276 Y111.606 E0.00708
G1 X143.975 Y112.196 E0.02077
G1 X143.904 Y112.383 E0.00628
G1 X143.886 Y112.602 E0.00687
G1 X143.930 Y112.816 E0.00687
G1 X144.033 Y113.010 E0.00687
G1 X144.175 Y113.156 E0.00639
G1 X145.002 Y113.798 E0.03282
G1 X145.163 Y114.008 E0.00830
G1 X145.254 Y114.177 E0.00600
G1 X145.388 Y114.537 E0.01205
G1 X145.489 Y115.023 E0.01557
G1 X145.519 Y115.557 E0.01678
G1 X145.095 Y115.893 E0.01695
G1 X144.583 Y115.746 E0.01671
G1 X144.131 Y115.539 E0.01557
G1 X143.812 Y115.329 E0.01197
G1 X143.538 Y115.061 E0.01205
G1 X143.054 Y114.048 E0.03517
G1 X142.944 Y113.878 E0.00636
G1 X142.778 Y113.735 E0.00687
G1 X142.579 Y113.644 E0.00687
G1 X142.355 Y113.612 E0.00708
G1 X141.706 Y113.745 E0.02077
G1 X141.516 Y113.806 E0.00628
G1 X141.334 Y113.929 E0.00687
G1 X141.194 Y114.097 E0.00687
G1 X141.106 Y114.298 E0.00687
G1 X141.080 Y114.500 E0.00639
G1 X141.094 Y115.547 E0.03282
G1 X141.030 Y115.804 E0.00830
G1 X140.955 Y115.979 E0.00600
G1 X140.757 Y116.309 E0.01205
G1 X140.440 Y116.691 E0.01557
G1 X140.045 Y117.044 E0.01663
G1 X139.513 Y116.923 E0.01709
G1 X139.310 Y116.433 E0.01663
G1 X139.190 Y115.951 E0.01557
G1 X139.155 Y115.571 E0.01197
G1 X139.176 Y115.280 E0.00914
G1 X139.215 Y115.122 E0.00512
G1 X139.684 Y114.181 E0.03296
G1 X139.748 Y113.988 E0.00639
G1 X139.757 Y113.769 E0.00687
G1 X139.704 Y113.556 E0.00687
G1 X139.590 Y113.362 E0.00708
G1 X139.081 Y112.937 E0.02077
G1 X138.914 Y112.826 E0.00628
G1 X138.705 Y112.760 E0.00687
G1 X138.486 Y112.756 E0.00687
G1 X138.275 Y112.813 E0.00687
G1 X138.100 Y112.918 E0.00639
G1 X137.291 Y113.582 E0.03282
G1 X137.050 Y113.692 E0.00830
G1 X136.866 Y113.743 E0.00600
G1 X136.485 Y113.794 E0.01205
G1 X135.988 Y113.784 E0.01557
G1 X135.465 Y113.695 E0.01663
G1 X135.229 Y113.204 E0.01709
G1 X135.485 Y112.740 E0.01663
G1 X135.787 Y112.346 E0.01557
G1 X136.062 Y112.081 E0.01197
G1 X136.303 Y111.916 E0.00914
G1 X136.451 Y111.848 E0.00512
G1 X137.479 Y111.628 E0.03296
G1 X137.670 Y111.558 E0.00639
G1 X137.847 Y111.428 E0.00687
G1 X137.980 Y111.254 E0.00687
G1 X138.061 Y111.043 E0.00708
G1 X138.075 Y110.381 E0.02077
G1 X138.059 Y110.181 E0.00628
G1 X137.980 Y109.977 E0.00687
G1 X137.847 Y109.803 E0.00687
G1 X137.670 Y109.673 E0.00687
G1 X137.479 Y109.603 E0.00639
G1 X136.455 Y109.383 E0.03282
G1 X136.219 Y109.264 E0.00830
G1 X136.064 Y109.151 E0.00600
G1 X135.787 Y108.885 E0.01205
G1 X135.485 Y108.491 E0.01557
G1 X135.229 Y108.026 E0.01663
G1 X135.439 Y107.590 E0.01520
G1 X135.833 Y107.693 F6000.000
G1 F4800
G1 X135.988 Y107.446 E-0.23574
G1 F4800
G1 X136.485 Y107.437 E-0.20637
G1 F4800
G1 X136.863 Y107.487 E-0.15863
G1 F4800
G1 X137.146 Y107.573 E-0.12288
G1 F4800
G1 X137.225 Y107.610 E-0.03637
G1 E-0.04000 F2100.00000
G1 X137.170 Y109.035 F6000.000
G1 E0.80000 F2100.00000
G1 F2520
G1 X136.237 Y108.101 E0.04188
G1 X136.447 Y108.097 E0.00667
G1 X136.721 Y108.134 E0.00878
G1 X136.849 Y108.174 E0.00423
G1 X137.929 Y109.254 E0.04846
G1 F4800
G1 X136.849 Y108.174 E-0.63507
G1 F4800
G1 X136.721 Y108.134 E-0.05549
G1 F4800
G1 X136.556 Y108.112 E-0.06944
G1 E-0.04000 F2100.00000
G1 X138.790 Y112.273 F6000.000
G1 E0.80000 F2100.00000
G1 F2520
G1 X138.360 Y111.843 E0.01930
G1 X138.314 Y111.903 E0.00240
G1 X138.065 Y112.087 E0.00983
G1 X138.143 Y112.165 E0.00349
G1 X138.012 Y112.200 E0.00427
G1 X137.780 Y112.341 E0.00864
G1 X137.691 Y112.253 E0.00396
G1 X137.251 Y112.352 E0.01432
G1 X137.476 Y112.577 E0.01011
G1 X137.180 Y112.820 E0.01215
G1 X136.806 Y112.447 E0.01674
G1 X136.678 Y112.474 E0.00418
G1 X136.476 Y112.599 E0.00752
G1 X136.447 Y112.627 E0.00126
G1 X136.869 Y113.049 E0.01894
G1 X136.824 Y113.070 E0.00159
G1 X136.413 Y113.132 E0.01317
G1 X136.067 Y112.786 E0.01553
G1 F4800
G1 X136.413 Y113.132 E-0.20353
G1 F4800
G1 X136.824 Y113.070 E-0.17264
G1 F4800
G1 X136.869 Y113.049 E-0.02079
G1 F4800
G1 X136.447 Y112.627 E-0.24828
G1 F4800
G1 X136.476 Y112.599 E-0.01655
G1 F4800
G1 X136.677 Y112.475 E-0.09820
G1 E-0.04000 F2100.00000
G1 X140.645 Y114.128 F6000.000
G1 E0.80000 F2100.00000
G1 F2520
G1 X140.412 Y113.895 E0.01045
G1 X140.404 Y114.107 E0.00673
G1 X140.324 Y114.347 E0.00801
G1 X140.422 Y114.444 E0.00439
G1 X140.427 Y114.989 E0.01726
G1 X140.155 Y114.716 E0.01222
G1 X139.975 Y115.076 E0.01276
G1 X140.421 Y115.522 E0.01998
G1 X140.366 Y115.678 E0.00526
G1 X140.243 Y115.883 E0.00759
G1 X139.830 Y115.470 E0.01853
G1 X139.818 Y115.571 E0.00322
G1 X139.843 Y115.841 E0.00860
G1 X139.903 Y116.082 E0.00788
G1 X140.125 Y116.304 E0.00996
G1 F4800
G1 X139.903 Y116.082 E-0.13049
G1 F4800
G1 X139.843 Y115.841 E-0.10330
G1 F4800
G1 X139.818 Y115.571 E-0.11266
G1 F4800
G1 X139.830 Y115.470 E-0.04223
G1 F4800
G1 X140.243 Y115.883 E-0.24285
G1 F4800
G1 X140.366 Y115.678 E-0.09943
G1 F4800
G1 X140.389 Y115.612 E-0.02905
G1 E-0.04000 F2100.00000
G1 X143.337 Y113.584 F6000.000
G1 E0.80000 F2100.00000
G1 F2520
G1 X145.011 Y115.258 E0.07507
G1 F4800
G1 X143.718 Y113.965 E-0.76000
G1 E-0.04000 F2100.00000
