; generated by Slic3r 1.2.9 on 2016-11-27 at 22:41:56

; external perimeters extrusion width = 0.45mm
; perimeters extrusion width = 0.45mm
; infill extrusion width = 0.45mm
; solid infill extrusion width = 0.45mm
; top infill extrusion width = 0.45mm

M107
M115 U3.0.8 ; tell printer latest fw version
M83  ; extruder relative mode
M104 S210 ; set extruder temp
M140 S50 ; set bed temp
M190 S50 ; wait for bed temp
M109 S210 ; wait for extruder temp
G28 W ; home all without mesh bed level
G80 ; mesh bed leveling
G1 Y-3.0 F1000.0 ; go outside pritn area
G1 X60.0 E9.0  F1000.0 ; intro line
G1 X100.0 E12.5  F1000.0 ; intro line
G21 ; set units to millimeters
G90 ; use absolute coordinates
M83 ; use relative distances for extrusion
G1 E-0.80000 F2100.00000
G1 Z0.150 F6000.000
G1 Z0.200 F6000.000
G1 Z0.350 F6000.000
G1 X118.597 Y81.426 F6000.000
G1 Z0.200 F6000.000
G1 E0.80000 F2100.00000
G1 X119.310 Y80.594 E0.03710 F2100.000
G1 X119.623 Y80.268 E0.01528
G1 X119.992 Y79.954 E0.01639
G1 X123.334 Y77.647 E0.13747
G1 X123.759 Y77.413 E0.01639
G1 X124.685 Y77.040 E0.03382
G1 X125.204 Y76.865 E0.01855
G1 X125.677 Y76.759 E0.01639
G1 X129.709 Y76.269 E0.13747
G1 X130.193 Y76.259 E0.01639
G1 X131.182 Y76.359 E0.03366
G1 X131.729 Y76.446 E0.01873
G1 X132.196 Y76.571 E0.01637
G1 X135.993 Y78.011 E0.13747
G1 X136.427 Y78.228 E0.01639
G1 X137.256 Y78.776 E0.03367
G1 X137.699 Y79.106 E0.01871
G1 X138.055 Y79.434 E0.01638
G1 X140.748 Y82.474 E0.13747
G1 X141.031 Y82.867 E0.01638
G1 X141.304 Y83.343 E0.01855
G1 X141.750 Y84.237 E0.03382
G1 X141.913 Y84.693 E0.01639
G1 X142.885 Y88.636 E0.13747
G1 X142.953 Y89.116 E0.01639
G1 X142.971 Y89.567 E0.01528
G1 X142.953 Y90.663 E0.03710
G1 X142.885 Y91.142 E0.01638
G1 X141.913 Y95.085 E0.13747
G1 X141.750 Y95.541 E0.01639
G1 X141.557 Y95.949 E0.01528
G1 X123.728 Y129.622 E1.28970
G1 X123.538 Y129.925 E0.01209
G1 X122.950 Y130.662 E0.03191
G1 X122.171 Y131.260 E0.03327
G1 X117.517 Y133.501 E0.17481
G1 X116.564 Y133.737 E0.03325
G1 X115.620 Y133.737 E0.03194
G1 X114.667 Y133.501 E0.03325
G1 X110.014 Y131.260 E0.17481
G1 X109.234 Y130.662 E0.03327
G1 X109.011 Y130.399 E0.01166
G1 X108.646 Y129.925 E0.02026
G1 X108.237 Y129.031 E0.03327
G1 X107.088 Y123.996 E0.17481
G1 X107.069 Y123.014 E0.03324
G1 X107.201 Y122.385 E0.02177
G1 X116.137 Y86.309 E1.25804
G1 X116.262 Y85.875 E0.01529
G1 X116.443 Y85.426 E0.01638
G1 X118.330 Y81.829 E0.13747
G1 X118.564 Y81.476 E0.01435
G1 F4800
G1 X119.310 Y80.594 E-0.48030
G1 F4800
G1 X119.623 Y80.268 E-0.18759
G1 F4800
G1 X119.792 Y80.124 E-0.09211
G1 E-0.04000 F2100.00000
G1 Z0.350 F6000.000
G1 X117.954 Y125.666 F6000.000
G1 Z0.200 F6000.000
G1 E0.80000 F2100.00000
G1 X117.616 Y126.108 E0.01885 F1680.000
G1 X117.175 Y126.448 E0.01885
G1 X116.661 Y126.662 E0.01885
G1 X116.109 Y126.737 E0.01885
G1 X115.557 Y126.666 E0.01885
G1 X115.042 Y126.455 E0.01885
G1 X114.415 Y125.979 E0.02665
G1 X114.415 Y123.220 E0.09340
G1 X115.042 Y122.743 E0.02665
G1 X115.557 Y122.532 E0.01885
G1 X116.109 Y122.462 E0.01885
G1 X116.661 Y122.536 E0.01885
G1 X117.175 Y122.751 E0.01885
G1 X117.616 Y123.090 E0.01885
G1 X117.954 Y123.533 E0.01885
G1 X118.167 Y124.047 E0.01885
G1 X118.240 Y124.599 E0.01885
G1 X118.167 Y125.151 E0.01885
G1 X117.977 Y125.610 E0.01682
G1 X117.599 Y125.461 F6000.000
G1 X117.325 Y125.818 E0.01523 F1680.000
G1 X116.969 Y126.093 E0.01523
G1 X116.554 Y126.266 E0.01523
G1 X116.108 Y126.326 E0.01523
G1 X115.662 Y126.269 E0.01523
G1 X115.245 Y126.099 E0.01523
G1 X114.822 Y125.777 E0.01800
G1 X114.822 Y123.422 E0.07973
G1 X115.245 Y123.100 E0.01800
G1 X115.662 Y122.929 E0.01523
G1 X116.108 Y122.872 E0.01523
G1 X116.554 Y122.932 E0.01523
G1 X116.969 Y123.106 E0.01523
G1 X117.325 Y123.380 E0.01523
G1 X117.599 Y123.737 E0.01523
G1 X117.770 Y124.153 E0.01523
G1 X117.829 Y124.599 E0.01523
G1 X117.770 Y125.045 E0.01523
G1 X117.621 Y125.406 E0.01320
G1 X117.784 Y125.816 F6000.000
G1 F4800
G1 X117.325 Y125.818 E-0.21116
G1 F4800
G1 X116.969 Y126.093 E-0.18697
G1 F4800
G1 X116.554 Y126.266 E-0.18697
G1 F4800
G1 X116.137 Y126.322 E-0.17491
G1 E-0.04000 F2100.00000
G1 Z0.350 F6000.000
G1 X120.903 Y128.357 F6000.000
G1 Z0.200 F6000.000
G1 E0.80000 F2100.00000
G1 X120.835 Y128.442 E0.00370 F1680.000
G1 X120.555 Y128.427 E0.00950
G1 X120.131 Y128.338 E0.01465
G1 X119.841 Y128.230 E0.01050
G1 X119.608 Y128.092 E0.00915
G1 X118.949 Y127.250 E0.03621
G1 X118.738 Y127.045 E0.00994
G1 X118.438 Y126.886 E0.01150
G1 X118.105 Y126.818 E0.01150
G1 X117.766 Y126.845 E0.01150
G1 X117.502 Y126.946 E0.00958
G1 X116.826 Y127.290 E0.02568
G1 X116.579 Y127.552 E0.01218
G1 X116.426 Y127.855 E0.01150
G1 X116.363 Y128.189 E0.01150
G1 X116.391 Y128.481 E0.00994
G1 X116.635 Y129.487 E0.03502
G1 X116.637 Y129.567 E0.00272
G1 X116.603 Y129.785 E0.00746
G1 X116.505 Y130.085 E0.01068
G1 X116.310 Y130.471 E0.01465
G1 X116.147 Y130.700 E0.00950
G1 X116.038 Y130.700 E0.00370
G1 X115.875 Y130.471 E0.00950
G1 X115.680 Y130.085 E0.01465
G1 X115.556 Y129.651 E0.01528
G1 X115.552 Y129.475 E0.00596
G1 X115.793 Y128.481 E0.03459
G1 X115.822 Y128.189 E0.00994
G1 X115.759 Y127.855 E0.01150
G1 X115.605 Y127.552 E0.01150
G1 X115.373 Y127.305 E0.01150
G1 X115.129 Y127.161 E0.00958
G1 X114.438 Y126.847 E0.02568
G1 X114.080 Y126.818 E0.01218
G1 X113.747 Y126.886 E0.01150
G1 X113.447 Y127.045 E0.01150
G1 X113.238 Y127.248 E0.00984
G1 X112.550 Y128.113 E0.03741
G1 X112.349 Y128.228 E0.00787
G1 X112.053 Y128.338 E0.01068
G1 X111.630 Y128.427 E0.01465
G1 X111.342 Y128.442 E0.00976
G1 X111.278 Y128.366 E0.00337
G1 X111.358 Y128.087 E0.00983
G1 X111.539 Y127.693 E0.01465
G1 X111.801 Y127.326 E0.01529
G1 X111.937 Y127.213 E0.00596
G1 X112.863 Y126.782 E0.03459
G1 X113.110 Y126.622 E0.00994
G1 X113.331 Y126.365 E0.01150
G1 X113.472 Y126.056 E0.01150
G1 X113.521 Y125.720 E0.01150
G1 X113.481 Y125.440 E0.00958
G1 X113.296 Y124.704 E0.02568
G1 X113.095 Y124.405 E0.01218
G1 X112.834 Y124.188 E0.01150
G1 X112.523 Y124.052 E0.01150
G1 X112.235 Y124.016 E0.00984
G1 X111.129 Y124.017 E0.03741
G1 X110.913 Y123.931 E0.00787
G1 X110.643 Y123.769 E0.01068
G1 X110.310 Y123.493 E0.01465
G1 X110.118 Y123.278 E0.00976
G1 X110.138 Y123.180 E0.00337
G1 X110.407 Y123.069 E0.00983
G1 X110.827 Y122.965 E0.01465
G1 X111.278 Y122.941 E0.01529
G1 X111.450 Y122.976 E0.00596
G1 X112.365 Y123.432 E0.03459
G1 X112.643 Y123.525 E0.00994
G1 X112.983 Y123.538 E0.01150
G1 X113.312 Y123.455 E0.01150
G1 X113.605 Y123.284 E0.01150
G1 X113.800 Y123.078 E0.00958
G1 X114.260 Y122.475 E0.02568
G1 X114.368 Y122.132 E0.01218
G1 X114.375 Y121.792 E0.01150
G1 X114.287 Y121.464 E0.01150
G1 X114.134 Y121.213 E0.00994
G1 X113.478 Y120.413 E0.03502
G1 X113.442 Y120.341 E0.00272
G1 X113.378 Y120.130 E0.00746
G1 X113.336 Y119.818 E0.01068
G1 X113.344 Y119.385 E0.01465
G1 X113.393 Y119.099 E0.00983
G1 X113.484 Y119.057 E0.00337
G1 X113.736 Y119.196 E0.00976
G1 X114.080 Y119.460 E0.01465
G1 X114.294 Y119.683 E0.01050
G1 X114.444 Y119.908 E0.00915
G1 X114.673 Y120.954 E0.03621
G1 X114.774 Y121.229 E0.00994
G1 X114.976 Y121.503 E0.01150
G1 X115.246 Y121.709 E0.01150
G1 X115.581 Y121.838 E0.01218
G1 X116.340 Y121.855 E0.02568
G1 X116.622 Y121.831 E0.00958
G1 X116.939 Y121.709 E0.01150
G1 X117.209 Y121.503 E0.01150
G1 X117.410 Y121.229 E0.01150
G1 X117.511 Y120.954 E0.00994
G1 X117.728 Y119.942 E0.03502
G1 X117.761 Y119.869 E0.00272
G1 X117.886 Y119.687 E0.00746
G1 X118.105 Y119.460 E0.01068
G1 X118.447 Y119.197 E0.01461
G1 X118.695 Y119.061 E0.00956
G1 X118.793 Y119.108 E0.00366
G1 X118.840 Y119.385 E0.00950
G1 X118.848 Y119.818 E0.01465
G1 X118.807 Y120.125 E0.01050
G1 X118.724 Y120.382 E0.00915
G1 X118.050 Y121.213 E0.03621
G1 X117.898 Y121.464 E0.00994
G1 X117.809 Y121.792 E0.01150
G1 X117.817 Y122.132 E0.01150
G1 X117.925 Y122.475 E0.01218
G1 X118.385 Y123.078 E0.02568
G1 X118.579 Y123.284 E0.00958
G1 X118.872 Y123.455 E0.01150
G1 X119.202 Y123.538 E0.01150
G1 X119.541 Y123.525 E0.01150
G1 X119.820 Y123.432 E0.00994
G1 X120.746 Y122.971 E0.03502
G1 X120.824 Y122.951 E0.00272
G1 X121.044 Y122.936 E0.00746
G1 X121.358 Y122.965 E0.01068
G1 X121.778 Y123.069 E0.01465
G1 X122.037 Y123.177 E0.00950
G1 X122.061 Y123.283 E0.00370
G1 X121.875 Y123.493 E0.00950
G1 X121.541 Y123.769 E0.01465
G1 X121.276 Y123.929 E0.01050
G1 X121.023 Y124.024 E0.00915
G1 X119.953 Y124.015 E0.03621
G1 X119.662 Y124.052 E0.00994
G1 X119.350 Y124.188 E0.01150
G1 X119.089 Y124.405 E0.01150
G1 X118.888 Y124.704 E0.01218
G1 X118.703 Y125.440 E0.02568
G1 X118.664 Y125.720 E0.00958
G1 X118.712 Y126.056 E0.01150
G1 X118.853 Y126.365 E0.01150
G1 X119.075 Y126.622 E0.01150
G1 X119.321 Y126.782 E0.00994
G1 X120.260 Y127.219 E0.03502
G1 X120.323 Y127.268 E0.00272
G1 X120.473 Y127.430 E0.00746
G1 X120.646 Y127.693 E0.01068
G1 X120.826 Y128.087 E0.01465
G1 X120.887 Y128.299 E0.00747
G1 F4800
G1 X120.835 Y128.442 E-0.06329
G1 F4800
G1 X120.555 Y128.427 E-0.11667
G1 F4800
G1 X120.131 Y128.338 E-0.17983
G1 F4800
G1 X119.841 Y128.230 E-0.12892
G1 F4800
G1 X119.608 Y128.092 E-0.11231
G1 F4800
G1 X119.372 Y127.791 E-0.15898
G1 E-0.04000 F2100.00000
G1 Z0.350 F6000.000
G1 X115.269 Y121.215 F6000.000
G1 Z0.200 F6000.000
G1 E0.80000 F2100.00000
G1 X115.446 Y121.350 E0.00756 F1680.000
G1 X115.661 Y121.433 E0.00780
G1 X116.327 Y121.448 E0.02254
G1 X116.530 Y121.430 E0.00688
G1 X116.738 Y121.350 E0.00756
G1 X116.916 Y121.215 E0.00756
G1 X117.048 Y121.035 E0.00756
G1 X117.119 Y120.840 E0.00701
G1 X117.339 Y119.813 E0.03556
G1 X117.406 Y119.667 E0.00543
G1 X117.570 Y119.429 E0.00979
G1 X117.833 Y119.155 E0.01284
G1 X118.225 Y118.855 E0.01672
G1 X118.683 Y118.604 E0.01771
G1 X119.158 Y118.833 E0.01785
G1 X119.246 Y119.347 E0.01765
G1 X119.256 Y119.841 E0.01673
G1 X119.206 Y120.215 E0.01278
G1 X119.100 Y120.543 E0.01165
G1 X119.051 Y120.634 E0.00352
G1 X118.383 Y121.449 E0.03566
G1 X118.276 Y121.626 E0.00701
G1 X118.218 Y121.842 E0.00756
G1 X118.222 Y122.065 E0.00756
G1 X118.292 Y122.285 E0.00780
G1 X118.695 Y122.814 E0.02254
G1 X118.835 Y122.962 E0.00688
G1 X119.028 Y123.075 E0.00756
G1 X119.244 Y123.129 E0.00756
G1 X119.468 Y123.121 E0.00756
G1 X119.664 Y123.055 E0.00701
G1 X120.604 Y122.587 E0.03556
G1 X120.760 Y122.548 E0.00543
G1 X121.048 Y122.527 E0.00979
G1 X121.426 Y122.562 E0.01284
G1 X121.906 Y122.681 E0.01673
G1 X122.387 Y122.881 E0.01765
G1 X122.505 Y123.398 E0.01792
G1 X122.158 Y123.787 E0.01765
G1 X121.777 Y124.102 E0.01673
G1 X121.454 Y124.296 E0.01278
G1 X121.132 Y124.418 E0.01165
G1 X121.030 Y124.437 E0.00352
G1 X119.976 Y124.423 E0.03566
G1 X119.771 Y124.449 E0.00701
G1 X119.566 Y124.538 E0.00756
G1 X119.394 Y124.681 E0.00756
G1 X119.266 Y124.872 E0.00780
G1 X119.103 Y125.518 E0.02254
G1 X119.075 Y125.719 E0.00688
G1 X119.107 Y125.940 E0.00756
G1 X119.200 Y126.143 E0.00756
G1 X119.345 Y126.313 E0.00756
G1 X119.519 Y126.425 E0.00701
G1 X120.472 Y126.868 E0.03556
G1 X120.599 Y126.966 E0.00543
G1 X120.795 Y127.179 E0.00979
G1 X121.003 Y127.496 E0.01284
G1 X121.209 Y127.945 E0.01673
G1 X121.353 Y128.446 E0.01765
G1 X121.023 Y128.860 E0.01792
G1 X120.502 Y128.831 E0.01765
G1 X120.018 Y128.731 E0.01673
G1 X119.664 Y128.599 E0.01278
G1 X119.368 Y128.423 E0.01165
G1 X119.290 Y128.354 E0.00352
G1 X118.644 Y127.522 E0.03566
G1 X118.496 Y127.378 E0.00701
G1 X118.299 Y127.273 E0.00756
G1 X118.080 Y127.228 E0.00756
G1 X117.857 Y127.246 E0.00756
G1 X117.667 Y127.319 E0.00688
G1 X117.074 Y127.621 E0.02254
G1 X116.916 Y127.789 E0.00780
G1 X116.815 Y127.988 E0.00756
G1 X116.773 Y128.207 E0.00756
G1 X116.794 Y128.413 E0.00701
G1 X117.041 Y129.434 E0.03556
G1 X117.044 Y129.595 E0.00543
G1 X117.000 Y129.880 E0.00979
G1 X116.882 Y130.241 E0.01284
G1 X116.659 Y130.682 E0.01673
G1 X116.357 Y131.107 E0.01765
G1 X115.828 Y131.107 E0.01792
G1 X115.525 Y130.682 E0.01765
G1 X115.302 Y130.241 E0.01673
G1 X115.184 Y129.877 E0.01294
G1 X115.150 Y129.691 E0.00640
G1 X115.144 Y129.430 E0.00885
G1 X115.391 Y128.413 E0.03541
G1 X115.411 Y128.207 E0.00701
G1 X115.370 Y127.988 E0.00756
G1 X115.269 Y127.789 E0.00756
G1 X115.116 Y127.626 E0.00756
G1 X114.941 Y127.523 E0.00688
G1 X114.335 Y127.247 E0.02254
G1 X114.105 Y127.228 E0.00780
G1 X113.886 Y127.273 E0.00756
G1 X113.689 Y127.378 E0.00756
G1 X113.541 Y127.521 E0.00697
G1 X112.845 Y128.400 E0.03794
G1 X112.522 Y128.598 E0.01283
G1 X112.166 Y128.731 E0.01284
G1 X111.683 Y128.831 E0.01673
G1 X111.159 Y128.860 E0.01774
G1 X110.830 Y128.451 E0.01776
G1 X110.976 Y127.945 E0.01783
G1 X111.182 Y127.496 E0.01673
G1 X111.392 Y127.176 E0.01294
G1 X111.516 Y127.034 E0.00640
G1 X111.717 Y126.866 E0.00885
G1 X112.665 Y126.425 E0.03541
G1 X112.839 Y126.313 E0.00701
G1 X112.985 Y126.143 E0.00756
G1 X113.078 Y125.940 E0.00756
G1 X113.110 Y125.719 E0.00756
G1 X113.081 Y125.518 E0.00688
G1 X112.919 Y124.872 E0.02254
G1 X112.790 Y124.681 E0.00780
G1 X112.618 Y124.538 E0.00756
G1 X112.414 Y124.449 E0.00756
G1 X112.209 Y124.423 E0.00697
G1 X111.089 Y124.426 E0.03794
G1 X110.732 Y124.297 E0.01283
G1 X110.407 Y124.102 E0.01284
G1 X110.026 Y123.787 E0.01673
G1 X109.678 Y123.396 E0.01774
G1 X109.792 Y122.883 E0.01776
G1 X110.279 Y122.681 E0.01783
G1 X110.759 Y122.562 E0.01673
G1 X111.139 Y122.527 E0.01294
G1 X111.328 Y122.535 E0.00640
G1 X111.584 Y122.589 E0.00885
G1 X112.520 Y123.055 E0.03541
G1 X112.717 Y123.121 E0.00701
G1 X112.940 Y123.129 E0.00756
G1 X113.157 Y123.075 E0.00756
G1 X113.349 Y122.962 E0.00756
G1 X113.489 Y122.814 E0.00688
G1 X113.893 Y122.285 E0.02254
G1 X113.962 Y122.065 E0.00780
G1 X113.967 Y121.842 E0.00756
G1 X113.909 Y121.626 E0.00756
G1 X113.801 Y121.449 E0.00701
G1 X113.135 Y120.636 E0.03556
G1 X113.063 Y120.493 E0.00543
G1 X112.979 Y120.217 E0.00979
G1 X112.929 Y119.841 E0.01284
G1 X112.938 Y119.347 E0.01673
G1 X113.027 Y118.827 E0.01783
G1 X113.501 Y118.602 E0.01776
G1 X113.960 Y118.855 E0.01774
G1 X114.352 Y119.155 E0.01673
G1 X114.613 Y119.428 E0.01278
G1 X114.804 Y119.715 E0.01165
G1 X114.844 Y119.810 E0.00352
G1 X115.065 Y120.840 E0.03566
G1 X115.136 Y121.035 E0.00701
G1 X115.233 Y121.166 E0.00553
G1 X115.219 Y121.432 F6000.000
G1 F4800
G1 X115.446 Y121.350 E-0.11698
G1 F4800
G1 X115.661 Y121.433 E-0.09583
G1 F4800
G1 X116.327 Y121.448 E-0.27677
G1 F4800
G1 X116.530 Y121.430 E-0.08445
G1 F4800
G1 X116.738 Y121.350 E-0.09283
G1 F4800
G1 X116.916 Y121.215 E-0.09283
G1 F4800
G1 X116.916 Y121.214 E-0.00030
G1 E-0.04000 F2100.00000
G1 Z0.350 F6000.000
G1 X115.426 Y122.268 F6000.000
G1 Z0.200 F6000.000
G1 E0.80000 F2100.00000
G1 X115.218 Y122.060 E0.01715 F1680.000
G1 X114.776 Y122.611 E0.04126
G1 X114.573 Y122.408 E0.01676
G1 F4800
G1 X114.776 Y122.611 E-0.11928
G1 F4800
G1 X115.218 Y122.060 E-0.29363
G1 F4800
G1 X115.426 Y122.268 E-0.12203
G1 E-0.26506 F2100.00000
G1 Z0.350 F6000.000
G1 X114.114 Y123.557 F6000.000
G1 Z0.200 F6000.000
G1 E0.80000 F2100.00000
G1 X113.907 Y123.350 E0.01136 F1680.000
G1 X113.534 Y123.637 E0.01829
G1 X114.114 Y124.218 E0.03187
G1 X114.114 Y124.878 E0.02565
G1 X113.063 Y123.827 E0.05774
G1 F4800
G1 X114.114 Y124.878 E-0.61800
G1 F4800
G1 X114.114 Y124.537 E-0.14200
G1 E-0.04000 F2100.00000
G1 Z0.350 F6000.000
G1 X113.749 Y125.173 F6000.000
G1 Z0.200 F6000.000
G1 E0.80000 F2100.00000
G1 X114.114 Y125.539 E0.02006 F1680.000
G1 X113.790 Y125.876 E0.01814
G1 X114.114 Y126.199 E0.01777
G1 X113.832 Y126.578 E0.01833
G1 X113.627 Y126.373 E0.01124
G1 X114.526 Y126.502 F6000.000
G1 X114.879 Y126.713 E0.01393 F1680.000
G1 X115.248 Y126.875 E0.01362
G1 X115.417 Y126.842 F6000.000
G1 X115.207 Y126.786 E0.00735 F1680.000
G1 X115.100 Y126.811 E0.00372
G1 X115.152 Y126.873 E0.00275
G1 X115.437 Y127.093 E0.01219
G1 X116.179 Y127.699 F6000.000
G1 X115.960 Y127.481 E0.01215 F1680.000
G1 X116.170 Y127.021 E0.01988
G1 X116.451 Y127.302 E0.01563
G1 X116.754 Y127.086 F6000.000
G1 X117.036 Y126.874 E0.01197 F1680.000
G1 X117.228 Y126.646 E0.01005
G1 X116.802 Y126.837 F6000.000
G1 X116.979 Y126.789 E0.00621 F1680.000
G1 X117.085 Y126.816 E0.00370
G1 X117.313 Y126.710 E0.00852
G1 X117.678 Y126.503 E0.01418
G1 X118.197 Y126.515 F6000.000
G1 X117.954 Y126.272 E0.01392 F1680.000
G1 X118.194 Y125.824 E0.02055
G1 X118.390 Y126.020 E0.01123
G1 F4800
G1 X118.194 Y125.824 E-0.11540
