; generated by Slic3r 1.31.6-prusa3d on 2016-12-02 at 08:19:10

; external perimeters extrusion width = 0.60mm
; perimeters extrusion width = 0.43mm
; infill extrusion width = 0.70mm
; solid infill extrusion width = 0.70mm
; top infill extrusion width = 0.43mm

M107
M115 U3.0.9 ; tell printer latest fw version
M83  ; extruder relative mode
M104 S215 ; set extruder temp
M140 S55 ; set bed temp
M190 S55 ; wait for bed temp
M109 S215 ; wait for extruder temp
G28 W ; home all without mesh bed level
G80 ; mesh bed leveling
G1 Y-3.0 F1000.0 ; go outside pritn area
G1 X60.0 E9.0  F1000.0 ; intro line
G1 X100.0 E12.5  F1000.0 ; intro line
G21 ; set units to millimeters
G90 ; use absolute coordinates
M83 ; use relative distances for extrusion
G1 E-0.80000 F2100.00000
G1 Z0.200 F6000.000
G1 X116.882 Y99.283 F6000.000
G1 E0.80000 F2100.00000
M204 S1000
G1 F1278.137
G1 X120.920 Y96.063 E0.16193
G1 X122.061 Y95.487 E0.04008
G1 X123.034 Y95.265 E0.03129
G1 X124.312 Y95.289 E0.04006
G1 X129.347 Y96.439 E0.16193
G1 X130.509 Y96.971 E0.04008
G1 X131.288 Y97.593 E0.03126
G1 X132.067 Y98.608 E0.04008
G1 X134.307 Y103.261 E0.16193
G1 X134.615 Y104.501 E0.04007
G1 X134.627 Y104.873 E0.01167
G1 X134.615 Y105.499 E0.01963
G1 X134.307 Y106.739 E0.04007
G1 X132.067 Y111.392 E0.16193
G1 X131.288 Y112.407 E0.04008
G1 X130.509 Y113.029 E0.03127
G1 X129.347 Y113.561 E0.04008
G1 X124.312 Y114.711 E0.16193
G1 X123.033 Y114.735 E0.04008
G1 X122.061 Y114.513 E0.03127
G1 X120.920 Y113.937 E0.04008
G1 X116.882 Y110.717 E0.16193
G1 X116.067 Y109.732 E0.04008
G1 X115.785 Y109.174 E0.01962
G1 X115.634 Y108.833 E0.01168
G1 X115.373 Y107.582 E0.04006
G1 X115.373 Y102.418 E0.16193
G1 X115.634 Y101.166 E0.04008
G1 X115.785 Y100.826 E0.01166
G1 X116.067 Y100.268 E0.01962
G1 X116.844 Y99.330 E0.03820
G1 X117.117 Y99.578 F6000.000
G1 F1278.137
G1 X121.155 Y96.358 E0.16193
G1 X122.159 Y95.851 E0.03526
G1 X123.104 Y95.636 E0.03040
G1 X124.228 Y95.657 E0.03523
G1 X129.263 Y96.806 E0.16193
G1 X130.285 Y97.275 E0.03526
G1 X131.042 Y97.879 E0.03038
G1 X131.727 Y98.771 E0.03526
G1 X133.968 Y103.424 E0.16193
G1 X134.238 Y104.515 E0.03524
G1 X134.250 Y104.873 E0.01123
G1 X134.238 Y105.485 E0.01919
G1 X133.968 Y106.576 E0.03524
G1 X131.727 Y111.229 E0.16193
G1 X131.042 Y112.121 E0.03526
G1 X130.285 Y112.725 E0.03038
G1 X129.263 Y113.194 E0.03526
G1 X124.228 Y114.343 E0.16193
G1 X123.104 Y114.364 E0.03526
G1 X122.159 Y114.149 E0.03038
G1 X121.155 Y113.642 E0.03525
G1 X117.117 Y110.422 E0.16193
G1 X116.400 Y109.556 E0.03526
G1 X116.124 Y109.010 E0.01917
G1 X115.979 Y108.683 E0.01123
G1 X115.750 Y107.582 E0.03524
G1 X115.750 Y102.418 E0.16193
G1 X115.980 Y101.317 E0.03526
G1 X116.124 Y100.990 E0.01121
G1 X116.400 Y100.444 E0.01917
G1 X117.079 Y99.624 E0.03338
G1 X117.353 Y99.873 F6000.000
G1 F1278.137
G1 X121.390 Y96.653 E0.16193
G1 X122.257 Y96.216 E0.03043
G1 X123.174 Y96.006 E0.02951
G1 X124.144 Y96.025 E0.03041
G1 X129.179 Y97.174 E0.16193
G1 X130.061 Y97.578 E0.03043
G1 X130.796 Y98.165 E0.02949
G1 X131.387 Y98.935 E0.03043
G1 X133.628 Y103.588 E0.16193
G1 X133.862 Y104.529 E0.03042
G1 X133.873 Y104.873 E0.01078
G1 X133.862 Y105.471 E0.01874
G1 X133.628 Y106.412 E0.03042
G1 X131.387 Y111.065 E0.16193
G1 X130.796 Y111.835 E0.03043
G1 X130.061 Y112.422 E0.02949
G1 X129.179 Y112.826 E0.03043
G1 X124.144 Y113.975 E0.16193
G1 X123.174 Y113.994 E0.03043
G1 X122.257 Y113.784 E0.02949
G1 X121.390 Y113.347 E0.03043
G1 X117.353 Y110.127 E0.16193
G1 X116.733 Y109.380 E0.03043
G1 X116.464 Y108.846 E0.01873
G1 X116.325 Y108.532 E0.01078
G1 X116.127 Y107.582 E0.03041
G1 X116.127 Y102.418 E0.16193
G1 X116.325 Y101.468 E0.03043
G1 X116.464 Y101.154 E0.01077
G1 X116.733 Y100.620 E0.01873
G1 X117.314 Y99.919 E0.02855
G1 F4800
G1 X118.741 Y98.776 E-0.76000
G1 E-0.04000 F2100.00000
G1 X123.408 Y103.101 F6000.000
G1 E0.80000 F2100.00000
G1 F900.000
G1 X126.080 Y103.101 E0.08379
G1 X126.605 Y103.662 E0.02409
G1 X126.885 Y104.182 E0.01850
G1 X127.023 Y104.755 E0.01850
G1 X127.010 Y105.345 E0.01850
G1 X126.847 Y105.912 E0.01850
G1 X126.544 Y106.419 E0.01850
G1 X126.122 Y106.831 E0.01850
G1 X125.609 Y107.122 E0.01850
G1 X125.039 Y107.273 E0.01850
G1 X124.449 Y107.273 E0.01850
G1 X123.879 Y107.122 E0.01850
G1 X123.366 Y106.831 E0.01850
G1 X122.944 Y106.419 E0.01850
G1 X122.641 Y105.912 E0.01850
G1 X122.478 Y105.345 E0.01850
G1 X122.465 Y104.755 E0.01850
G1 X122.603 Y104.182 E0.01850
G1 X122.883 Y103.662 E0.01850
G1 X123.367 Y103.145 E0.02221
G1 X123.571 Y103.478 F6000.000
G1 F900.000
G1 X125.917 Y103.478 E0.07353
G1 X126.296 Y103.884 E0.01743
G1 X126.530 Y104.318 E0.01543
G1 X126.645 Y104.796 E0.01543
G1 X126.634 Y105.288 E0.01543
G1 X126.498 Y105.761 E0.01543
G1 X126.246 Y106.183 E0.01543
G1 X125.894 Y106.527 E0.01543
G1 X125.466 Y106.770 E0.01543
G1 X124.990 Y106.896 E0.01543
G1 X124.498 Y106.896 E0.01543
G1 X124.022 Y106.770 E0.01543
G1 X123.594 Y106.527 E0.01543
G1 X123.242 Y106.183 E0.01543
G1 X122.990 Y105.761 E0.01543
G1 X122.854 Y105.288 E0.01543
G1 X122.843 Y104.796 E0.01543
G1 X122.958 Y104.318 E0.01543
G1 X123.192 Y103.884 E0.01543
G1 X123.530 Y103.522 E0.01555
G1 X123.655 Y103.087 F6000.000
G1 F4800
G1 X125.359 Y103.489 E-0.76000
G1 E-0.04000 F2100.00000
G1 X119.232 Y102.259 F6000.000
G1 E0.80000 F2100.00000
G1 F1022.510
G1 X119.535 Y102.207 E0.00964
G1 X119.974 Y102.199 E0.01378
G1 X120.294 Y102.242 E0.01011
G1 X120.523 Y102.311 E0.00750
G1 X121.396 Y103.007 E0.03500
G1 X121.636 Y103.153 E0.00882
G1 X121.952 Y103.238 E0.01025
G1 X122.279 Y103.231 E0.01025
G1 X122.590 Y103.133 E0.01025
G1 X122.818 Y102.980 E0.00860
G1 X123.393 Y102.501 E0.02347
G1 X123.568 Y102.203 E0.01084
G1 X123.647 Y101.886 E0.01025
G1 X123.635 Y101.559 E0.01025
G1 X123.545 Y101.290 E0.00891
G1 X123.088 Y100.373 E0.03212
G1 X123.050 Y100.191 E0.00582
G1 X123.044 Y100.056 E0.00424
G1 X123.075 Y99.727 E0.01035
G1 X123.180 Y99.300 E0.01378
G1 X123.298 Y99.016 E0.00964
G1 X123.450 Y98.982 E0.00489
G1 X123.675 Y99.182 E0.00945
G1 X123.960 Y99.525 E0.01398
G1 X124.126 Y99.801 E0.01009
G1 X124.210 Y100.013 E0.00715
G1 X124.228 Y100.100 E0.00279
G1 X124.214 Y101.137 E0.03250
G1 X124.250 Y101.419 E0.00891
G1 X124.381 Y101.718 E0.01025
G1 X124.590 Y101.969 E0.01025
G1 X124.877 Y102.162 E0.01084
G1 X125.603 Y102.345 E0.02347
G1 X125.874 Y102.383 E0.00860
G1 X126.198 Y102.336 E0.01025
G1 X126.495 Y102.201 E0.01025
G1 X126.743 Y101.987 E0.01025
G1 X126.897 Y101.749 E0.00891
G1 X127.338 Y100.802 E0.03274
G1 X127.560 Y100.581 E0.00983
G1 X127.826 Y100.407 E0.00996
G1 X128.225 Y100.224 E0.01378
G1 X128.527 Y100.137 E0.00985
G1 X128.643 Y100.226 E0.00457
G1 X128.626 Y100.543 E0.00996
G1 X128.536 Y100.973 E0.01378
G1 X128.423 Y101.275 E0.01011
G1 X128.310 Y101.474 E0.00715
G1 X128.253 Y101.542 E0.00279
G1 X127.434 Y102.177 E0.03250
G1 X127.236 Y102.381 E0.00891
G1 X127.083 Y102.670 E0.01025
G1 X127.017 Y102.990 E0.01025
G1 X127.044 Y103.316 E0.01025
G1 X127.141 Y103.572 E0.00860
G1 X127.481 Y104.239 E0.02347
G1 X127.733 Y104.476 E0.01084
G1 X128.024 Y104.624 E0.01025
G1 X128.345 Y104.684 E0.01025
G1 X128.628 Y104.657 E0.00891
G1 X129.643 Y104.410 E0.03274
G1 X129.955 Y104.447 E0.00983
G1 X130.256 Y104.546 E0.00996
G1 X130.649 Y104.744 E0.01378
G1 X130.905 Y104.926 E0.00985
G1 X130.908 Y105.072 E0.00457
G1 X130.649 Y105.256 E0.00996
G1 X130.256 Y105.454 E0.01378
G1 X129.950 Y105.554 E0.01011
G1 X129.725 Y105.589 E0.00715
G1 X129.636 Y105.588 E0.00279
G1 X128.628 Y105.343 E0.03250
G1 X128.345 Y105.316 E0.00891
G1 X128.024 Y105.376 E0.01025
G1 X127.733 Y105.524 E0.01025
G1 X127.481 Y105.761 E0.01084
G1 X127.141 Y106.428 E0.02347
G1 X127.044 Y106.684 E0.00860
G1 X127.017 Y107.010 E0.01025
G1 X127.083 Y107.330 E0.01025
G1 X127.236 Y107.619 E0.01025
G1 X127.434 Y107.823 E0.00891
G1 X128.244 Y108.451 E0.03212
G1 X128.357 Y108.598 E0.00582
G1 X128.421 Y108.717 E0.00424
G1 X128.536 Y109.027 E0.01035
G1 X128.626 Y109.457 E0.01378
G1 X128.643 Y109.774 E0.00996
G1 X128.527 Y109.863 E0.00457
G1 X128.225 Y109.776 E0.00985
G1 X127.826 Y109.593 E0.01378
G1 X127.556 Y109.416 E0.01011
G1 X127.369 Y109.241 E0.00803
G1 X126.896 Y108.248 E0.03448
G1 X126.743 Y108.013 E0.00882
G1 X126.495 Y107.799 E0.01025
G1 X126.198 Y107.664 E0.01025
G1 X125.856 Y107.614 E0.01084
G1 X125.122 Y107.765 E0.02347
G1 X124.861 Y107.848 E0.00860
G1 X124.590 Y108.031 E0.01025
G1 X124.381 Y108.282 E0.01025
G1 X124.250 Y108.581 E0.01025
G1 X124.214 Y108.863 E0.00891
G1 X124.228 Y109.888 E0.03212
G1 X124.183 Y110.068 E0.00582
G1 X124.130 Y110.192 E0.00424
G1 X123.960 Y110.475 E0.01035
G1 X123.680 Y110.814 E0.01378
G1 X123.450 Y111.018 E0.00964
G1 X123.298 Y110.984 E0.00489
G1 X123.180 Y110.700 E0.00964
G1 X123.075 Y110.273 E0.01378
G1 X123.045 Y109.952 E0.01011
G1 X123.061 Y109.725 E0.00715
G1 X123.083 Y109.638 E0.00279
G1 X123.545 Y108.710 E0.03250
G1 X123.635 Y108.441 E0.00891
G1 X123.647 Y108.114 E0.01025
G1 X123.568 Y107.797 E0.01025
G1 X123.393 Y107.499 E0.01084
G1 X122.818 Y107.020 E0.02347
G1 X122.590 Y106.867 E0.00860
G1 X122.279 Y106.769 E0.01025
G1 X121.952 Y106.762 E0.01025
G1 X121.636 Y106.847 E0.01025
G1 X121.393 Y106.995 E0.00891
G1 X120.601 Y107.644 E0.03212
G1 X120.432 Y107.721 E0.00582
G1 X120.302 Y107.757 E0.00424
G1 X119.974 Y107.801 E0.01035
G1 X119.535 Y107.793 E0.01378
G1 X119.232 Y107.741 E0.00964
G1 X119.165 Y107.600 E0.00489
G1 X119.313 Y107.331 E0.00964
G1 X119.580 Y106.983 E0.01378
G1 X119.813 Y106.759 E0.01011
G1 X120.001 Y106.630 E0.00715
G1 X120.082 Y106.593 E0.00279
G1 X121.095 Y106.376 E0.03250
G1 X121.362 Y106.278 E0.00891
G1 X121.625 Y106.084 E0.01025
G1 X121.824 Y105.824 E0.01025
G1 X121.948 Y105.502 E0.01084
G1 X121.964 Y104.754 E0.02347
G1 X121.941 Y104.480 E0.00860
G1 X121.824 Y104.176 E0.01025
G1 X121.625 Y103.916 E0.01025
G1 X121.362 Y103.722 E0.01025
G1 X121.095 Y103.624 E0.00891
G1 X120.094 Y103.410 E0.03212
G1 X119.928 Y103.326 E0.00582
G1 X119.819 Y103.246 E0.00424
G1 X119.580 Y103.017 E0.01035
G1 X119.313 Y102.669 E0.01378
G1 X119.165 Y102.400 E0.00964
G1 X119.206 Y102.313 E0.00301
G1 X118.977 Y101.920 F6000.000
G1 F900.000
G1 X119.500 Y101.831 E0.01663
G1 X119.996 Y101.822 E0.01557
G1 X120.374 Y101.872 E0.01197
G1 X120.738 Y101.995 E0.01205
G1 X121.613 Y102.697 E0.03517
G1 X121.786 Y102.803 E0.00636
G1 X121.998 Y102.860 E0.00687
G1 X122.217 Y102.855 E0.00687
G1 X122.426 Y102.789 E0.00687
G1 X122.592 Y102.678 E0.00628
G1 X123.101 Y102.254 E0.02077
G1 X123.215 Y102.059 E0.00708
G1 X123.268 Y101.846 E0.00687
G1 X123.260 Y101.627 E0.00687
G1 X123.195 Y101.434 E0.00639
G1 X122.729 Y100.497 E0.03282
G1 X122.675 Y100.238 E0.00830
G1 X122.666 Y100.047 E0.00600
G1 X122.702 Y99.664 E0.01205
G1 X122.821 Y99.182 E0.01557
G1 X123.025 Y98.692 E0.01663
G1 X123.556 Y98.571 E0.01709
G1 X123.947 Y98.920 E0.01643
G1 X124.269 Y99.306 E0.01577
G1 X124.465 Y99.633 E0.01196
G1 X124.573 Y99.904 E0.00914
G1 X124.606 Y100.064 E0.00512
G1 X124.592 Y101.115 E0.03296
G1 X124.618 Y101.317 E0.00639
G1 X124.705 Y101.518 E0.00687
G1 X124.845 Y101.687 E0.00687
G1 X125.033 Y101.813 E0.00708
G1 X125.675 Y101.974 E0.02077
G1 X125.873 Y102.002 E0.00628
G1 X126.090 Y101.971 E0.00687
G1 X126.290 Y101.880 E0.00687
G1 X126.456 Y101.737 E0.00687
G1 X126.567 Y101.566 E0.00639
G1 X127.011 Y100.610 E0.03305
G1 X127.074 Y100.524 E0.00335
G1 X127.325 Y100.285 E0.01088
G1 X127.643 Y100.076 E0.01191
G1 X128.094 Y99.869 E0.01557
G1 X128.606 Y99.722 E0.01671
G1 X128.920 Y99.963 E0.01242
G1 X129.030 Y100.058 E0.00454
G1 X129.001 Y100.592 E0.01678
G1 X128.899 Y101.078 E0.01557
G1 X128.766 Y101.436 E0.01197
G1 X128.621 Y101.689 E0.00914
G1 X128.517 Y101.815 E0.00512
G1 X127.686 Y102.459 E0.03296
G1 X127.544 Y102.605 E0.00639
G1 X127.442 Y102.799 E0.00687
G1 X127.398 Y103.013 E0.00687
G1 X127.415 Y103.232 E0.00687
G1 X127.487 Y103.419 E0.00628
G1 X127.787 Y104.009 E0.02077
G1 X127.952 Y104.164 E0.00708
G1 X128.147 Y104.263 E0.00687
G1 X128.362 Y104.304 E0.00687
G1 X128.565 Y104.284 E0.00639
G1 X129.589 Y104.036 E0.03305
G1 X129.696 Y104.031 E0.00335
G1 X130.040 Y104.078 E0.01088
G1 X130.401 Y104.196 E0.01191
G1 X130.844 Y104.420 E0.01557
G1 X131.278 Y104.729 E0.01671
G1 X131.286 Y105.125 E0.01242
G1 X131.280 Y105.270 E0.00454
G1 X130.844 Y105.580 E0.01678
G1 X130.401 Y105.804 E0.01557
G1 X130.038 Y105.922 E0.01197
G1 X129.750 Y105.967 E0.00914
G1 X129.587 Y105.964 E0.00512
G1 X128.565 Y105.716 E0.03296
G1 X128.362 Y105.696 E0.00639
G1 X128.147 Y105.737 E0.00687
G1 X127.952 Y105.836 E0.00687
G1 X127.787 Y105.991 E0.00708
G1 X127.487 Y106.581 E0.02077
G1 X127.415 Y106.768 E0.00628
G1 X127.398 Y106.987 E0.00687
G1 X127.442 Y107.201 E0.00687
G1 X127.544 Y107.395 E0.00687
G1 X127.686 Y107.541 E0.00639
G1 X128.514 Y108.183 E0.03282
G1 X128.674 Y108.393 E0.00830
G1 X128.765 Y108.561 E0.00600
G1 X128.899 Y108.922 E0.01205
G1 X129.001 Y109.408 E0.01557
G1 X129.030 Y109.942 E0.01678
G1 X128.606 Y110.278 E0.01695
G1 X128.094 Y110.131 E0.01671
G1 X127.643 Y109.924 E0.01557
G1 X127.324 Y109.714 E0.01197
G1 X127.049 Y109.445 E0.01205
G1 X126.566 Y108.433 E0.03517
G1 X126.456 Y108.263 E0.00636
G1 X126.290 Y108.120 E0.00687
G1 X126.090 Y108.029 E0.00687
G1 X125.867 Y107.997 E0.00708
G1 X125.218 Y108.130 E0.02077
G1 X125.027 Y108.191 E0.00628
G1 X124.845 Y108.313 E0.00687
G1 X124.705 Y108.482 E0.00687
G1 X124.618 Y108.683 E0.00687
G1 X124.592 Y108.885 E0.00639
G1 X124.606 Y109.932 E0.03282
G1 X124.542 Y110.188 E0.00830
G1 X124.467 Y110.364 E0.00600
G1 X124.269 Y110.694 E0.01205
G1 X123.952 Y111.076 E0.01557
G1 X123.556 Y111.429 E0.01663
G1 X123.025 Y111.308 E0.01709
G1 X122.821 Y110.818 E0.01663
G1 X122.702 Y110.336 E0.01557
G1 X122.667 Y109.956 E0.01197
G1 X122.687 Y109.665 E0.00914
G1 X122.727 Y109.507 E0.00512
G1 X123.195 Y108.566 E0.03296
G1 X123.260 Y108.373 E0.00639
G1 X123.268 Y108.154 E0.00687
G1 X123.215 Y107.941 E0.00687
G1 X123.101 Y107.746 E0.00708
G1 X122.592 Y107.322 E0.02077
G1 X122.426 Y107.211 E0.00628
G1 X122.217 Y107.145 E0.00687
G1 X121.998 Y107.140 E0.00687
G1 X121.786 Y107.197 E0.00687
G1 X121.612 Y107.303 E0.00639
G1 X120.802 Y107.967 E0.03282
G1 X120.562 Y108.077 E0.00830
G1 X120.377 Y108.128 E0.00600
G1 X119.996 Y108.178 E0.01205
G1 X119.500 Y108.169 E0.01557
G1 X118.977 Y108.080 E0.01663
G1 X118.740 Y107.589 E0.01709
G1 X118.996 Y107.124 E0.01663
G1 X119.299 Y106.730 E0.01557
G1 X119.574 Y106.466 E0.01197
G1 X119.814 Y106.301 E0.00914
G1 X119.963 Y106.233 E0.00512
G1 X120.990 Y106.013 E0.03296
G1 X121.182 Y105.943 E0.00639
G1 X121.358 Y105.813 E0.00687
G1 X121.491 Y105.638 E0.00687
G1 X121.572 Y105.428 E0.00708
G1 X121.587 Y104.765 E0.02077
G1 X121.570 Y104.566 E0.00628
G1 X121.491 Y104.362 E0.00687
G1 X121.358 Y104.187 E0.00687
G1 X121.182 Y104.057 E0.00687
G1 X120.990 Y103.987 E0.00639
G1 X119.967 Y103.768 E0.03282
G1 X119.731 Y103.648 E0.00830
G1 X119.576 Y103.536 E0.00600
G1 X119.299 Y103.270 E0.01205
G1 X118.996 Y102.876 E0.01557
G1 X118.740 Y102.411 E0.01663
G1 X118.951 Y101.974 E0.01520
G1 X119.345 Y102.077 F6000.000
G1 F4800
G1 X119.500 Y101.831 E-0.23574
G1 F4800
G1 X119.996 Y101.822 E-0.20637
G1 F4800
G1 X120.374 Y101.872 E-0.15863
G1 F4800
G1 X120.657 Y101.958 E-0.12288
G1 F4800
G1 X120.737 Y101.994 E-0.03637
G1 E-0.04000 F2100.00000
G1 X120.338 Y103.346 F6000.000
G1 E0.80000 F2100.00000
G1 F1533.765
G1 X119.698 Y102.706 E0.03150
G1 X119.539 Y102.494 E0.00920
G1 X119.958 Y102.482 E0.01458
G1 X120.082 Y102.499 E0.00433
G1 X121.091 Y103.507 E0.04959
G1 X121.043 Y102.868 F6000.000
G1 F1533.765
G1 X122.086 Y103.912 E0.05130
G1 X122.118 Y103.869 E0.00188
G1 X122.352 Y104.052 E0.01031
G1 X122.515 Y103.749 E0.01194
G1 X122.279 Y103.514 E0.01158
G1 X122.734 Y103.377 E0.01650
G1 X122.869 Y103.512 E0.00664
G1 X122.962 Y103.197 F6000.000
G1 F1022.510
G1 X123.135 Y103.034 E0.00190
G1 F1022.510
G1 X123.340 Y102.860 E0.00079
G1 X123.461 Y102.717 E0.00055
G1 X124.222 Y102.988 F6000.000
G1 F1533.765
G1 X123.726 Y102.492 E0.02337
G1 X123.832 Y102.311 E0.00702
G1 X123.888 Y102.088 E0.00766
G1 X124.619 Y102.819 E0.03445
G1 X125.186 Y102.819 E0.01889
G1 X123.917 Y101.550 E0.05979
G1 X123.807 Y101.181 E0.01284
G1 X123.500 Y100.566 E0.02290
