; generated by Slic3r 1.31.6-prusa3d on 2016-12-02 at 00:51:24

; external perimeters extrusion width = 0.60mm
; perimeters extrusion width = 0.43mm
; infill extrusion width = 0.70mm
; solid infill extrusion width = 0.70mm
; top infill extrusion width = 0.43mm

M115 U3.0.9 ; tell printer latest fw version
M83  ; extruder relative mode
M104 S255 ; set extruder temp
M140 S100 ; set bed temp
M190 S100 ; wait for bed temp
M109 S255 ; wait for extruder temp
G28 W ; home all without mesh bed level
G80 ; mesh bed leveling
G1 Y-3.0 F1000.0 ; go outside pritn area
G1 X60.0 E9.0  F1000.0 ; intro line
G1 X100.0 E12.5  F1000.0 ; intro line
G21 ; set units to millimeters
G90 ; use absolute coordinates
M83 ; use relative distances for extrusion
G1 E-0.80000 F2100.00000
G1 Z0.200 F6000.000
G1 X119.283 Y96.882 F6000.000
G1 E0.80000 F2100.00000
M204 S1000
G1 F2100
G1 X120.268 Y96.067 E0.04008
G1 X120.597 Y95.895 E0.01166
G1 X121.167 Y95.633 E0.01966
G1 X122.418 Y95.373 E0.04005
G1 X127.582 Y95.373 E0.16193
G1 X128.834 Y95.634 E0.04008
G1 X129.174 Y95.785 E0.01166
G1 X129.732 Y96.067 E0.01962
G1 X130.717 Y96.882 E0.04008
G1 X133.937 Y100.920 E0.16193
G1 X134.513 Y102.061 E0.04008
G1 X134.735 Y103.033 E0.03126
G1 X134.711 Y104.312 E0.04008
G1 X133.561 Y109.347 E0.16193
G1 X133.029 Y110.509 E0.04008
G1 X132.407 Y111.288 E0.03127
G1 X131.392 Y112.067 E0.04008
G1 X126.739 Y114.307 E0.16193
G1 X125.499 Y114.615 E0.04007
G1 X125.127 Y114.627 E0.01167
G1 X124.501 Y114.615 E0.01964
G1 X123.261 Y114.307 E0.04007
G1 X118.608 Y112.067 E0.16193
G1 X117.593 Y111.288 E0.04008
G1 X116.971 Y110.509 E0.03127
G1 X116.439 Y109.347 E0.04008
G1 X115.289 Y104.312 E0.16193
G1 X115.265 Y103.034 E0.04008
G1 X115.487 Y102.061 E0.03128
G1 X116.063 Y100.920 E0.04007
G1 X119.246 Y96.929 E0.16005
G1 X119.578 Y97.117 F6000.000
G1 F2100
G1 X120.444 Y96.400 E0.03526
G1 X120.761 Y96.235 E0.01121
G1 X121.318 Y95.979 E0.01921
G1 X122.418 Y95.750 E0.03522
G1 X127.582 Y95.750 E0.16193
G1 X128.683 Y95.980 E0.03526
G1 X129.010 Y96.124 E0.01121
G1 X129.556 Y96.400 E0.01917
G1 X130.422 Y97.117 E0.03526
G1 X133.642 Y101.155 E0.16193
G1 X134.149 Y102.159 E0.03526
G1 X134.364 Y103.104 E0.03038
G1 X134.343 Y104.228 E0.03526
G1 X133.194 Y109.263 E0.16193
G1 X132.725 Y110.285 E0.03526
G1 X132.121 Y111.042 E0.03038
G1 X131.229 Y111.727 E0.03526
G1 X126.576 Y113.968 E0.16193
G1 X125.485 Y114.238 E0.03524
G1 X125.127 Y114.250 E0.01123
G1 X124.515 Y114.238 E0.01919
G1 X123.424 Y113.968 E0.03524
G1 X118.771 Y111.727 E0.16193
G1 X117.879 Y111.042 E0.03526
G1 X117.275 Y110.285 E0.03038
G1 X116.806 Y109.263 E0.03526
G1 X115.657 Y104.228 E0.16193
G1 X115.636 Y103.104 E0.03526
G1 X115.851 Y102.159 E0.03039
G1 X116.358 Y101.155 E0.03524
G1 X119.541 Y97.164 E0.16005
G1 X119.873 Y97.353 F6000.000
G1 F2100
G1 X120.620 Y96.733 E0.03043
G1 X120.925 Y96.574 E0.01077
G1 X121.468 Y96.325 E0.01876
G1 X122.418 Y96.127 E0.03040
G1 X127.582 Y96.127 E0.16193
G1 X128.532 Y96.325 E0.03043
G1 X128.846 Y96.464 E0.01077
G1 X129.380 Y96.733 E0.01873
G1 X130.127 Y97.353 E0.03043
G1 X133.347 Y101.390 E0.16193
G1 X133.784 Y102.257 E0.03043
G1 X133.994 Y103.174 E0.02949
G1 X133.975 Y104.144 E0.03043
G1 X132.826 Y109.179 E0.16193
G1 X132.422 Y110.061 E0.03043
G1 X131.835 Y110.796 E0.02949
G1 X131.065 Y111.387 E0.03043
G1 X126.412 Y113.628 E0.16193
G1 X125.471 Y113.862 E0.03042
G1 X125.127 Y113.873 E0.01078
G1 X124.529 Y113.862 E0.01874
G1 X123.588 Y113.628 E0.03042
G1 X118.935 Y111.387 E0.16193
G1 X118.165 Y110.796 E0.03043
G1 X117.578 Y110.061 E0.02949
G1 X117.174 Y109.179 E0.03043
G1 X116.025 Y104.144 E0.16193
G1 X116.006 Y103.174 E0.03043
G1 X116.216 Y102.256 E0.02950
G1 X116.653 Y101.390 E0.03042
G1 X119.836 Y97.399 E0.16005
G1 F4800
G1 X120.620 Y96.733 E-0.42782
G1 F4800
G1 X120.843 Y96.616 E-0.10450
G1 F4800
G1 X120.843 Y96.616 E-0.00006
G1 F4800
G1 X120.845 Y96.614 E-0.00106
G1 F4800
G1 X120.925 Y96.574 E-0.03711
G1 F4800
G1 X121.151 Y96.465 E-0.10450
G1 F4800
G1 X121.151 Y96.465 E-0.00012
G1 F4800
G1 X121.154 Y96.464 E-0.00106
G1 F4800
G1 X121.235 Y96.427 E-0.03706
G1 F4800
G1 X121.338 Y96.382 E-0.04673
G1 E-0.04000 F2100.00000
G1 X126.899 Y106.080 F6000.000
G1 E0.80000 F2100.00000
G1 F840
G1 X126.338 Y106.605 E0.02409
G1 X125.818 Y106.885 E0.01850
G1 X125.245 Y107.023 E0.01850
G1 X124.655 Y107.010 E0.01850
G1 X124.088 Y106.847 E0.01850
G1 X123.581 Y106.544 E0.01850
G1 X123.169 Y106.122 E0.01850
G1 X122.878 Y105.609 E0.01850
G1 X122.727 Y105.039 E0.01850
G1 X122.727 Y104.449 E0.01850
G1 X122.878 Y103.879 E0.01850
G1 X123.169 Y103.366 E0.01850
G1 X123.581 Y102.944 E0.01850
G1 X124.088 Y102.641 E0.01850
G1 X124.655 Y102.478 E0.01850
G1 X125.245 Y102.465 E0.01850
G1 X125.818 Y102.603 E0.01850
G1 X126.338 Y102.883 E0.01850
G1 X126.899 Y103.408 E0.02409
G1 X126.899 Y106.020 E0.08191
G1 X126.522 Y105.917 F6000.000
G1 F840
G1 X126.116 Y106.296 E0.01743
G1 X125.682 Y106.530 E0.01543
G1 X125.204 Y106.645 E0.01543
G1 X124.712 Y106.634 E0.01543
G1 X124.239 Y106.498 E0.01543
G1 X123.817 Y106.246 E0.01543
G1 X123.473 Y105.894 E0.01543
G1 X123.230 Y105.466 E0.01543
G1 X123.104 Y104.990 E0.01543
G1 X123.104 Y104.498 E0.01543
G1 X123.230 Y104.022 E0.01543
G1 X123.473 Y103.594 E0.01543
G1 X123.817 Y103.242 E0.01543
G1 X124.239 Y102.990 E0.01543
G1 X124.712 Y102.854 E0.01543
G1 X125.204 Y102.843 E0.01543
G1 X125.682 Y102.958 E0.01543
G1 X126.116 Y103.192 E0.01543
G1 X126.522 Y103.571 E0.01743
G1 X126.522 Y105.857 E0.07165
G1 X126.731 Y106.257 F6000.000
G1 F4800
G1 X126.116 Y106.296 E-0.24876
G1 F4800
G1 X125.682 Y106.530 E-0.20452
G1 F4800
G1 X125.204 Y106.645 E-0.20452
G1 F4800
G1 X124.958 Y106.639 E-0.10220
G1 E-0.04000 F2100.00000
G1 X129.861 Y108.521 F6000.000
G1 E0.80000 F2100.00000
G1 F1680
G1 X129.764 Y108.643 E0.00489
G1 X129.457 Y108.626 E0.00964
G1 X129.027 Y108.536 E0.01378
G1 X128.725 Y108.423 E0.01011
G1 X128.503 Y108.294 E0.00803
G1 X127.821 Y107.432 E0.03448
G1 X127.619 Y107.236 E0.00882
G1 X127.330 Y107.083 E0.01025
G1 X127.010 Y107.017 E0.01025
G1 X126.684 Y107.044 E0.01025
G1 X126.428 Y107.141 E0.00860
G1 X125.761 Y107.481 E0.02347
G1 X125.524 Y107.733 E0.01084
G1 X125.376 Y108.024 E0.01025
G1 X125.316 Y108.345 E0.01025
G1 X125.343 Y108.628 E0.00891
G1 X125.591 Y109.679 E0.03384
G1 X125.553 Y109.955 E0.00873
G1 X125.454 Y110.256 E0.00996
G1 X125.256 Y110.649 E0.01378
G1 X125.078 Y110.899 E0.00964
G1 X124.922 Y110.899 E0.00489
G1 X124.744 Y110.649 E0.00964
G1 X124.546 Y110.256 E0.01378
G1 X124.446 Y109.950 E0.01011
G1 X124.412 Y109.636 E0.00991
G1 X124.657 Y108.628 E0.03250
G1 X124.684 Y108.345 E0.00891
G1 X124.624 Y108.024 E0.01025
G1 X124.476 Y107.733 E0.01025
G1 X124.252 Y107.495 E0.01025
G1 X124.016 Y107.355 E0.00860
G1 X123.335 Y107.045 E0.02347
G1 X122.990 Y107.017 E0.01084
G1 X122.670 Y107.083 E0.01025
G1 X122.381 Y107.236 E0.01025
G1 X122.177 Y107.434 E0.00891
G1 X121.510 Y108.283 E0.03384
G1 X121.271 Y108.425 E0.00873
G1 X120.973 Y108.536 E0.00996
G1 X120.543 Y108.626 E0.01378
G1 X120.229 Y108.643 E0.00985
G1 X120.136 Y108.531 E0.00457
G1 X120.224 Y108.225 E0.00996
G1 X120.407 Y107.826 E0.01378
G1 X120.584 Y107.556 E0.01011
G1 X120.809 Y107.334 E0.00991
G1 X121.749 Y106.897 E0.03250
G1 X121.987 Y106.743 E0.00891
G1 X122.201 Y106.495 E0.01025
G1 X122.336 Y106.198 E0.01025
G1 X122.383 Y105.874 E0.01025
G1 X122.345 Y105.603 E0.00860
G1 X122.162 Y104.877 E0.02347
G1 X121.969 Y104.590 E0.01084
G1 X121.718 Y104.381 E0.01025
G1 X121.419 Y104.250 E0.01025
G1 X121.137 Y104.214 E0.00891
G1 X120.092 Y104.229 E0.03274
G1 X119.797 Y104.124 E0.00983
G1 X119.525 Y103.960 E0.00996
G1 X119.186 Y103.680 E0.01378
G1 X118.977 Y103.445 E0.00985
G1 X119.007 Y103.302 E0.00457
G1 X119.300 Y103.180 E0.00996
G1 X119.727 Y103.075 E0.01378
G1 X120.048 Y103.045 E0.01011
G1 X120.275 Y103.061 E0.00715
G1 X120.362 Y103.083 E0.00279
G1 X121.290 Y103.545 E0.03250
G1 X121.559 Y103.635 E0.00891
G1 X121.886 Y103.647 E0.01025
G1 X122.203 Y103.568 E0.01025
G1 X122.485 Y103.403 E0.01025
G1 X122.673 Y103.204 E0.00860
G1 X123.127 Y102.608 E0.02347
G1 X123.231 Y102.279 E0.01084
G1 X123.238 Y101.952 E0.01025
G1 X123.153 Y101.636 E0.01025
G1 X123.005 Y101.393 E0.00891
G1 X122.356 Y100.601 E0.03212
G1 X122.279 Y100.432 E0.00582
G1 X122.243 Y100.302 E0.00424
G1 X122.199 Y99.974 E0.01035
G1 X122.207 Y99.535 E0.01378
G1 X122.261 Y99.222 E0.00996
G1 X122.393 Y99.161 E0.00457
G1 X122.669 Y99.313 E0.00985
G1 X123.017 Y99.580 E0.01378
G1 X123.241 Y99.813 E0.01011
G1 X123.384 Y100.025 E0.00803
G1 X123.625 Y101.098 E0.03448
G1 X123.722 Y101.362 E0.00882
G1 X123.916 Y101.625 E0.01025
G1 X124.176 Y101.824 E0.01025
G1 X124.498 Y101.948 E0.01084
G1 X125.246 Y101.964 E0.02347
G1 X125.520 Y101.941 E0.00860
G1 X125.824 Y101.824 E0.01025
G1 X126.084 Y101.625 E0.01025
G1 X126.278 Y101.362 E0.01025
G1 X126.376 Y101.095 E0.00891
G1 X126.590 Y100.094 E0.03212
G1 X126.674 Y99.928 E0.00582
G1 X126.754 Y99.819 E0.00424
G1 X126.983 Y99.580 E0.01035
G1 X127.331 Y99.313 E0.01378
G1 X127.609 Y99.160 E0.00996
G1 X127.740 Y99.225 E0.00458
G1 X127.793 Y99.535 E0.00985
G1 X127.801 Y99.974 E0.01378
G1 X127.758 Y100.294 E0.01011
G1 X127.682 Y100.538 E0.00803
G1 X126.993 Y101.396 E0.03448
G1 X126.847 Y101.636 E0.00882
G1 X126.762 Y101.952 E0.01025
G1 X126.769 Y102.279 E0.01025
G1 X126.873 Y102.608 E0.01084
G1 X127.327 Y103.204 E0.02347
G1 X127.515 Y103.403 E0.00860
G1 X127.797 Y103.568 E0.01025
G1 X128.114 Y103.647 E0.01025
G1 X128.441 Y103.635 E0.01025
G1 X128.710 Y103.545 E0.00891
G1 X129.627 Y103.088 E0.03212
G1 X129.809 Y103.050 E0.00582
G1 X129.944 Y103.044 E0.00424
G1 X130.273 Y103.075 E0.01035
G1 X130.700 Y103.180 E0.01378
G1 X130.984 Y103.298 E0.00964
G1 X131.018 Y103.450 E0.00489
G1 X130.814 Y103.680 E0.00964
G1 X130.475 Y103.960 E0.01378
G1 X130.199 Y104.126 E0.01011
G1 X129.900 Y104.228 E0.00991
G1 X128.863 Y104.214 E0.03250
G1 X128.581 Y104.250 E0.00891
G1 X128.282 Y104.381 E0.01025
G1 X128.031 Y104.590 E0.01025
G1 X127.838 Y104.877 E0.01084
G1 X127.655 Y105.603 E0.02347
G1 X127.617 Y105.874 E0.00860
G1 X127.664 Y106.198 E0.01025
G1 X127.799 Y106.495 E0.01025
G1 X128.013 Y106.743 E0.01025
G1 X128.251 Y106.897 E0.00891
G1 X129.180 Y107.329 E0.03212
G1 X129.323 Y107.448 E0.00582
G1 X129.412 Y107.550 E0.00424
G1 X129.593 Y107.826 E0.01035
G1 X129.776 Y108.225 E0.01378
G1 X129.844 Y108.463 E0.00775
G1 X130.277 Y108.604 F6000.000
G1 F1260
G1 X129.937 Y109.030 E0.01709
G1 X129.408 Y109.001 E0.01663
G1 X128.922 Y108.899 E0.01557
G1 X128.564 Y108.766 E0.01197
G1 X128.237 Y108.565 E0.01205
G1 X127.540 Y107.686 E0.03517
G1 X127.395 Y107.544 E0.00636
G1 X127.201 Y107.442 E0.00687
G1 X126.987 Y107.398 E0.00687
G1 X126.768 Y107.415 E0.00687
G1 X126.581 Y107.487 E0.00628
G1 X125.991 Y107.787 E0.02077
G1 X125.836 Y107.952 E0.00708
G1 X125.737 Y108.147 E0.00687
G1 X125.696 Y108.362 E0.00687
G1 X125.716 Y108.565 E0.00639
G1 X125.964 Y109.589 E0.03305
G1 X125.969 Y109.696 E0.00335
G1 X125.922 Y110.040 E0.01088
G1 X125.804 Y110.401 E0.01191
G1 X125.580 Y110.844 E0.01557
G1 X125.272 Y111.276 E0.01663
G1 X124.728 Y111.276 E0.01709
G1 X124.420 Y110.844 E0.01663
G1 X124.196 Y110.401 E0.01557
G1 X124.078 Y110.038 E0.01197
G1 X124.033 Y109.750 E0.00914
G1 X124.036 Y109.587 E0.00512
G1 X124.284 Y108.565 E0.03296
G1 X124.304 Y108.362 E0.00639
G1 X124.263 Y108.147 E0.00687
G1 X124.164 Y107.952 E0.00687
G1 X124.014 Y107.792 E0.00687
G1 X123.842 Y107.690 E0.00628
G1 X123.238 Y107.416 E0.02077
G1 X123.013 Y107.398 E0.00708
G1 X122.799 Y107.442 E0.00687
G1 X122.605 Y107.544 E0.00687
G1 X122.459 Y107.686 E0.00639
G1 X121.813 Y108.519 E0.03305
G1 X121.733 Y108.589 E0.00335
G1 X121.434 Y108.767 E0.01088
G1 X121.078 Y108.899 E0.01191
G1 X120.592 Y109.001 E0.01557
G1 X120.060 Y109.030 E0.01671
G1 X119.722 Y108.609 E0.01695
G1 X119.869 Y108.094 E0.01678
G1 X120.076 Y107.643 E0.01557
G1 X120.286 Y107.324 E0.01197
G1 X120.483 Y107.109 E0.00914
G1 X120.613 Y107.010 E0.00512
G1 X121.566 Y106.567 E0.03296
G1 X121.737 Y106.456 E0.00639
G1 X121.880 Y106.290 E0.00687
G1 X121.971 Y106.090 E0.00687
G1 X122.002 Y105.873 E0.00687
G1 X121.974 Y105.675 E0.00628
G1 X121.813 Y105.033 E0.02077
G1 X121.687 Y104.845 E0.00708
G1 X121.518 Y104.705 E0.00687
G1 X121.317 Y104.618 E0.00687
G1 X121.115 Y104.592 E0.00639
G1 X120.061 Y104.606 E0.03305
G1 X119.956 Y104.587 E0.00335
G1 X119.632 Y104.464 E0.01088
G1 X119.306 Y104.269 E0.01191
G1 X118.924 Y103.952 E0.01557
G1 X118.569 Y103.554 E0.01671
G1 X118.688 Y103.027 E0.01695
G1 X119.182 Y102.821 E0.01678
G1 X119.664 Y102.702 E0.01557
G1 X120.044 Y102.667 E0.01197
G1 X120.335 Y102.687 E0.00914
G1 X120.493 Y102.727 E0.00512
G1 X121.434 Y103.195 E0.03296
G1 X121.627 Y103.260 E0.00639
G1 X121.846 Y103.268 E0.00687
G1 X122.059 Y103.215 E0.00687
G1 X122.248 Y103.104 E0.00687
G1 X122.385 Y102.959 E0.00628
G1 X122.787 Y102.432 E0.02077
G1 X122.855 Y102.217 E0.00708
G1 X122.860 Y101.998 E0.00687
G1 X122.803 Y101.786 E0.00687
G1 X122.697 Y101.612 E0.00639
G1 X122.033 Y100.802 E0.03282
G1 X121.923 Y100.562 E0.00830
G1 X121.872 Y100.377 E0.00600
G1 X121.822 Y99.996 E0.01205
G1 X121.831 Y99.500 E0.01557
G1 X121.921 Y98.972 E0.01678
G1 X122.049 Y98.904 E0.00454
G1 X122.409 Y98.739 E0.01242
G1 X122.876 Y98.996 E0.01671
G1 X123.270 Y99.299 E0.01557
G1 X123.534 Y99.574 E0.01197
G1 X123.742 Y99.897 E0.01205
G1 X123.988 Y100.991 E0.03517
G1 X124.057 Y101.182 E0.00636
G1 X124.187 Y101.358 E0.00687
G1 X124.362 Y101.491 E0.00687
G1 X124.572 Y101.572 E0.00708
G1 X125.235 Y101.587 E0.02077
G1 X125.434 Y101.570 E0.00628
G1 X125.638 Y101.491 E0.00687
G1 X125.813 Y101.358 E0.00687
G1 X125.943 Y101.182 E0.00687
G1 X126.013 Y100.990 E0.00639
G1 X126.232 Y99.967 E0.03282
G1 X126.352 Y99.731 E0.00830
G1 X126.464 Y99.576 E0.00600
G1 X126.730 Y99.299 E0.01205
G1 X127.124 Y98.996 E0.01557
G1 X127.593 Y98.738 E0.01678
G1 X127.723 Y98.795 E0.00446
G1 X128.079 Y98.974 E0.01250
G1 X128.169 Y99.500 E0.01670
G1 X128.178 Y99.996 E0.01557
G1 X128.128 Y100.374 E0.01197
G1 X128.005 Y100.738 E0.01205
G1 X127.303 Y101.613 E0.03517
G1 X127.197 Y101.786 E0.00636
G1 X127.140 Y101.998 E0.00687
G1 X127.145 Y102.217 E0.00687
G1 X127.213 Y102.432 E0.00708
G1 X127.615 Y102.959 E0.02077
G1 X127.752 Y103.104 E0.00628
G1 X127.941 Y103.215 E0.00687
G1 X128.154 Y103.268 E0.00687
G1 X128.373 Y103.260 E0.00687
G1 X128.566 Y103.195 E0.00639
G1 X129.503 Y102.729 E0.03282
G1 X129.762 Y102.675 E0.00830
G1 X129.953 Y102.666 E0.00600
G1 X130.336 Y102.702 E0.01205
G1 X130.818 Y102.821 E0.01557
G1 X131.308 Y103.025 E0.01663
G1 X131.429 Y103.556 E0.01709
G1 X131.076 Y103.952 E0.01663
G1 X130.694 Y104.269 E0.01557
G1 X130.367 Y104.465 E0.01197
G1 X130.096 Y104.573 E0.00914
G1 X129.936 Y104.606 E0.00512
G1 X128.885 Y104.592 E0.03296
G1 X128.683 Y104.618 E0.00639
G1 X128.482 Y104.705 E0.00687
G1 X128.313 Y104.845 E0.00687
G1 X128.187 Y105.033 E0.00708
G1 X128.026 Y105.675 E0.02077
G1 X127.998 Y105.873 E0.00628
G1 X128.029 Y106.090 E0.00687
G1 X128.120 Y106.290 E0.00687
G1 X128.263 Y106.456 E0.00687
G1 X128.434 Y106.567 E0.00639
G1 X129.383 Y107.008 E0.03282
G1 X129.587 Y107.177 E0.00830
G1 X129.713 Y107.321 E0.00600
G1 X129.924 Y107.643 E0.01205
G1 X130.131 Y108.094 E0.01557
G1 X130.260 Y108.546 E0.01475
G1 X129.884 Y108.680 F6000.000
G1 F4800
G1 X129.937 Y109.030 E-0.24179
G1 F4800
G1 X129.408 Y109.001 E-0.22041
G1 F4800
G1 X128.922 Y108.899 E-0.20637
G1 F4800
G1 X128.716 Y108.822 E-0.09143
G1 E-0.04000 F2100.00000
G1 X128.215 Y107.005 F6000.000
G1 E0.80000 F2100.00000
G1 F2520
G1 X129.491 Y108.281 E0.05862
G1 X129.517 Y108.346 E0.00226
G1 X129.105 Y108.264 E0.01362
G1 X128.795 Y108.138 E0.01088
G1 X127.015 Y106.358 E0.08175
G1 X127.181 Y106.203 E0.00739
G1 X127.181 Y105.972 E0.00750
G1 X127.373 Y106.164 E0.00880
G1 X127.331 Y105.875 E0.00948
G1 X127.369 Y105.607 E0.00878
G1 X127.181 Y105.419 E0.00861
G1 X127.181 Y104.867 E0.01795
G1 X127.475 Y105.160 E0.01347
G1 X127.596 Y104.729 E0.01455
G1 X127.181 Y104.315 E0.01905
G1 X127.181 Y103.762 E0.01795
G1 X127.818 Y104.399 E0.02926
G1 X128.120 Y104.148 E0.01274
G1 X127.842 Y103.871 E0.01274
G1 X128.085 Y103.931 E0.00811
G1 X128.442 Y103.918 E0.01162
