; generated by Slic3r 1.31.6-prusa3d on 2016-12-03 at 18:06:39

; external perimeters extrusion width = 0.60mm
; perimeters extrusion width = 0.43mm
; infill extrusion width = 0.70mm
; solid infill extrusion width = 0.70mm
; top infill extrusion width = 0.43mm

M107
M115 U3.0.9 ; tell printer latest fw version
M83  ; extruder relative mode
M104 S215 ; set extruder temp
M140 S55 ; set bed temp
M190 S55 ; wait for bed temp
M109 S215 ; wait for extruder temp
G28 W ; home all without mesh bed level
G80 ; mesh bed leveling
G1 Y-3.0 F1000.0 ; go outside pritn area
G1 X60.0 E9.0  F1000.0 ; intro line
G1 X100.0 E12.5  F1000.0 ; intro line
G21 ; set units to millimeters
G90 ; use absolute coordinates
M83 ; use relative distances for extrusion
G1 E-0.80000 F2100.00000
G1 Z0.200 F6000.000
G1 X120.258 Y101.318 F6000.000
G1 E0.80000 F2100.00000
M204 S1000
G1 F900.000
G1 X120.703 Y100.813 E0.02111
G1 X120.993 Y100.534 E0.01260
G1 X121.601 Y100.056 E0.02427
G1 X122.005 Y99.798 E0.01500
G1 X122.618 Y99.488 E0.02154
G1 X123.312 Y99.240 E0.02310
G1 X124.040 Y99.079 E0.02340
G1 X124.491 Y99.026 E0.01421
G1 X125.133 Y99.005 E0.02016
G1 X125.653 Y99.041 E0.01635
G1 X126.356 Y99.158 E0.02232
G1 X126.731 Y99.263 E0.01222
G1 X127.268 Y99.449 E0.01783
G1 X127.818 Y99.703 E0.01898
G1 X128.053 Y99.835 E0.00844
G1 X128.599 Y100.201 E0.02061
G1 X129.001 Y100.529 E0.01626
G1 X129.400 Y100.917 E0.01745
G1 X129.746 Y101.330 E0.01689
G1 X130.007 Y101.694 E0.01406
G1 X130.244 Y102.087 E0.01439
G1 X130.370 Y102.325 E0.00844
G1 X130.654 Y103.005 E0.02310
G1 X130.817 Y103.568 E0.01839
G1 X130.951 Y104.259 E0.02207
G1 X130.999 Y104.801 E0.01705
G1 X130.987 Y105.368 E0.01780
G1 X130.908 Y106.009 E0.02025
G1 X130.806 Y106.467 E0.01468
G1 X130.697 Y106.861 E0.01282
G1 X130.409 Y107.596 E0.02477
G1 X130.134 Y108.105 E0.01813
G1 X129.799 Y108.600 E0.01875
G1 X129.446 Y109.033 E0.01750
G1 X129.066 Y109.412 E0.01684
G1 X128.518 Y109.860 E0.02219
G1 X128.128 Y110.120 E0.01469
G1 X127.895 Y110.255 E0.00844
G1 X127.186 Y110.580 E0.02446
G1 X126.514 Y110.802 E0.02219
G1 X126.027 Y110.906 E0.01560
G1 X125.747 Y110.947 E0.00888
G1 X125.054 Y110.986 E0.02178
G1 X124.485 Y110.964 E0.01785
G1 X124.008 Y110.914 E0.01504
G1 X123.642 Y110.843 E0.01169
G1 X123.399 Y110.785 E0.00784
G1 X122.701 Y110.548 E0.02310
G1 X122.473 Y110.445 E0.00784
G1 X122.063 Y110.235 E0.01444
G1 X121.454 Y109.839 E0.02279
G1 X121.044 Y109.511 E0.01646
G1 X120.765 Y109.249 E0.01198
G1 X120.356 Y108.804 E0.01896
G1 X120.064 Y108.410 E0.01538
G1 X119.755 Y107.913 E0.01833
G1 X119.494 Y107.383 E0.01854
G1 X119.291 Y106.856 E0.01771
G1 X119.153 Y106.344 E0.01663
G1 X119.055 Y105.807 E0.01709
G1 X119.003 Y105.178 E0.01979
G1 X119.027 Y104.428 E0.02353
G1 X119.134 Y103.742 E0.02178
G1 X119.244 Y103.294 E0.01447
G1 X119.460 Y102.698 E0.01987
G1 X119.644 Y102.296 E0.01385
G1 X119.871 Y101.890 E0.01459
G1 X120.224 Y101.367 E0.01978
G1 X120.554 Y101.553 F6000.000
G1 F900.000
G1 X120.795 Y101.267 E0.01172
G1 X121.240 Y100.819 E0.01981
G1 X121.605 Y100.519 E0.01482
G1 X122.188 Y100.128 E0.02198
G1 X122.778 Y99.830 E0.02075
G1 X123.405 Y99.605 E0.02086
G1 X124.106 Y99.450 E0.02253
G1 X124.793 Y99.386 E0.02162
G1 X125.267 Y99.387 E0.01486
G1 X125.883 Y99.452 E0.01945
G1 X126.346 Y99.544 E0.01478
G1 X127.137 Y99.803 E0.02612
G1 X127.634 Y100.032 E0.01714
G1 X127.869 Y100.164 E0.00844
G1 X128.375 Y100.504 E0.01913
G1 X128.758 Y100.817 E0.01550
G1 X129.124 Y101.174 E0.01603
G1 X129.453 Y101.567 E0.01607
G1 X129.689 Y101.896 E0.01269
G1 X129.911 Y102.265 E0.01350
G1 X130.038 Y102.502 E0.00844
G1 X130.294 Y103.117 E0.02086
G1 X130.453 Y103.663 E0.01785
G1 X130.579 Y104.317 E0.02087
G1 X130.623 Y104.820 E0.01584
G1 X130.612 Y105.333 E0.01607
G1 X130.537 Y105.938 E0.01911
G1 X130.443 Y106.366 E0.01374
G1 X130.334 Y106.760 E0.01282
G1 X130.074 Y107.424 E0.02237
G1 X129.813 Y107.906 E0.01719
G1 X129.502 Y108.368 E0.01745
G1 X129.168 Y108.779 E0.01662
G1 X128.818 Y109.127 E0.01547
G1 X128.426 Y109.457 E0.01606
G1 X127.939 Y109.794 E0.01857
G1 X127.706 Y109.929 E0.00844
G1 X127.052 Y110.227 E0.02254
G1 X126.419 Y110.437 E0.02091
G1 X125.972 Y110.532 E0.01431
G1 X125.692 Y110.574 E0.00888
G1 X125.066 Y110.609 E0.01966
G1 X124.501 Y110.587 E0.01772
G1 X124.071 Y110.542 E0.01358
G1 X123.729 Y110.476 E0.01091
G1 X123.486 Y110.419 E0.00784
G1 X122.856 Y110.204 E0.02086
G1 X122.628 Y110.101 E0.00784
G1 X122.243 Y109.903 E0.01359
G1 X121.671 Y109.530 E0.02139
G1 X121.288 Y109.224 E0.01538
G1 X121.037 Y108.988 E0.01082
G1 X120.649 Y108.567 E0.01794
G1 X120.380 Y108.204 E0.01416
G1 X120.087 Y107.734 E0.01737
G1 X119.843 Y107.240 E0.01726
G1 X119.650 Y106.740 E0.01681
G1 X119.522 Y106.270 E0.01529
G1 X119.429 Y105.760 E0.01625
G1 X119.380 Y105.176 E0.01839
G1 X119.402 Y104.472 E0.02207
G1 X119.505 Y103.810 E0.02100
G1 X119.604 Y103.406 E0.01307
G1 X119.811 Y102.835 E0.01903
G1 X119.977 Y102.472 E0.01251
G1 X120.190 Y102.091 E0.01369
G1 X120.519 Y101.601 E0.01850
G1 X120.849 Y101.787 F6000.000
G1 F900.000
G1 X121.070 Y101.525 E0.01075
G1 X121.487 Y101.103 E0.01859
G1 X121.827 Y100.824 E0.01380
G1 X122.370 Y100.458 E0.02053
G1 X122.938 Y100.171 E0.01996
G1 X123.497 Y99.971 E0.01862
G1 X124.172 Y99.822 E0.02166
G1 X124.815 Y99.763 E0.02024
G1 X125.254 Y99.764 E0.01376
G1 X125.834 Y99.826 E0.01831
G1 X126.255 Y99.910 E0.01347
G1 X127.006 Y100.157 E0.02479
G1 X127.449 Y100.361 E0.01530
G1 X127.684 Y100.493 E0.00844
G1 X128.151 Y100.807 E0.01764
G1 X128.514 Y101.106 E0.01475
G1 X128.848 Y101.431 E0.01460
G1 X129.160 Y101.804 E0.01525
G1 X129.370 Y102.098 E0.01133
G1 X129.578 Y102.442 E0.01262
G1 X129.705 Y102.680 E0.00844
G1 X129.934 Y103.228 E0.01862
G1 X130.088 Y103.758 E0.01732
G1 X130.206 Y104.375 E0.01968
G1 X130.246 Y104.839 E0.01463
G1 X130.236 Y105.297 E0.01435
G1 X130.167 Y105.866 E0.01796
G1 X130.080 Y106.265 E0.01281
G1 X129.970 Y106.659 E0.01282
G1 X129.738 Y107.251 E0.01996
G1 X129.493 Y107.708 E0.01625
G1 X129.206 Y108.135 E0.01614
G1 X128.889 Y108.525 E0.01574
G1 X128.571 Y108.843 E0.01411
G1 X128.199 Y109.156 E0.01524
G1 X127.749 Y109.467 E0.01715
G1 X127.517 Y109.603 E0.00844
G1 X126.918 Y109.875 E0.02062
G1 X126.324 Y110.073 E0.01963
G1 X125.918 Y110.159 E0.01302
G1 X125.637 Y110.201 E0.00888
G1 X125.078 Y110.232 E0.01755
G1 X124.518 Y110.211 E0.01759
G1 X124.133 Y110.170 E0.01212
G1 X123.816 Y110.110 E0.01012
G1 X123.573 Y110.052 E0.00784
G1 X123.011 Y109.860 E0.01862
G1 X122.783 Y109.757 E0.00784
G1 X122.422 Y109.571 E0.01274
G1 X121.888 Y109.222 E0.02000
G1 X121.533 Y108.937 E0.01429
G1 X121.308 Y108.726 E0.00966
G1 X120.942 Y108.329 E0.01692
G1 X120.696 Y107.999 E0.01293
G1 X120.418 Y107.554 E0.01641
G1 X120.192 Y107.098 E0.01598
G1 X120.009 Y106.625 E0.01591
G1 X119.892 Y106.196 E0.01394
G1 X119.804 Y105.712 E0.01541
G1 X119.757 Y105.173 E0.01698
G1 X119.776 Y104.516 E0.02060
G1 X119.875 Y103.879 E0.02022
G1 X119.965 Y103.518 E0.01167
G1 X120.162 Y102.972 E0.01819
G1 X120.310 Y102.649 E0.01116
G1 X120.509 Y102.292 E0.01279
G1 X120.814 Y101.836 E0.01721
G1 X121.144 Y102.021 F6000.000
G1 F900.000
G1 X121.346 Y101.782 E0.00979
G1 X121.735 Y101.388 E0.01737
G1 X122.049 Y101.129 E0.01278
G1 X122.553 Y100.788 E0.01907
G1 X123.099 Y100.512 E0.01917
G1 X123.590 Y100.336 E0.01638
G1 X124.238 Y100.193 E0.02080
G1 X124.837 Y100.139 E0.01886
G1 X125.241 Y100.141 E0.01265
G1 X125.785 Y100.200 E0.01717
G1 X126.165 Y100.276 E0.01216
G1 X126.875 Y100.510 E0.02345
G1 X127.265 Y100.690 E0.01346
G1 X127.500 Y100.822 E0.00844
G1 X127.927 Y101.110 E0.01616
G1 X128.271 Y101.394 E0.01399
G1 X128.572 Y101.688 E0.01318
G1 X128.866 Y102.041 E0.01443
G1 X129.052 Y102.299 E0.00996
G1 X129.246 Y102.620 E0.01174
G1 X129.372 Y102.857 E0.00844
G1 X129.573 Y103.339 E0.01638
G1 X129.723 Y103.853 E0.01678
G1 X129.833 Y104.433 E0.01848
G1 X129.870 Y104.859 E0.01341
G1 X129.861 Y105.261 E0.01262
G1 X129.797 Y105.794 E0.01681
G1 X129.716 Y106.164 E0.01187
G1 X129.607 Y106.558 E0.01282
G1 X129.403 Y107.079 E0.01756
G1 X129.172 Y107.509 E0.01531
G1 X128.909 Y107.902 E0.01484
G1 X128.610 Y108.271 E0.01487
G1 X128.323 Y108.559 E0.01274
G1 X127.972 Y108.855 E0.01442
G1 X127.560 Y109.141 E0.01572
G1 X127.327 Y109.277 E0.00844
G1 X126.784 Y109.522 E0.01870
G1 X126.229 Y109.708 E0.01835
G1 X125.863 Y109.786 E0.01174
G1 X125.582 Y109.828 E0.00888
G1 X125.091 Y109.856 E0.01544
G1 X124.534 Y109.834 E0.01746
G1 X124.196 Y109.798 E0.01066
G1 X123.904 Y109.743 E0.00934
G1 X123.660 Y109.685 E0.00784
G1 X123.166 Y109.516 E0.01638
G1 X122.938 Y109.414 E0.00784
G1 X122.601 Y109.240 E0.01189
G1 X122.105 Y108.914 E0.01861
G1 X121.777 Y108.649 E0.01321
G1 X121.579 Y108.464 E0.00849
G1 X121.235 Y108.092 E0.01590
G1 X121.011 Y107.793 E0.01171
G1 X120.750 Y107.375 E0.01545
G1 X120.541 Y106.955 E0.01469
G1 X120.368 Y106.509 E0.01501
G1 X120.262 Y106.122 E0.01260
G1 X120.178 Y105.665 E0.01457
G1 X120.134 Y105.170 E0.01557
G1 X120.151 Y104.560 E0.01914
G1 X120.246 Y103.947 E0.01944
G1 X120.325 Y103.629 E0.01026
G1 X120.513 Y103.109 E0.01735
G1 X120.644 Y102.825 E0.00982
G1 X120.828 Y102.493 E0.01189
G1 X121.110 Y102.070 E0.01593
G1 X121.495 Y102.186 F6000.000
G1 F900.000
G1 X121.805 Y101.843 E0.01450
G1 X122.110 Y101.562 E0.01302
G1 X122.488 Y101.275 E0.01488
G1 X122.889 Y101.033 E0.01467
G1 X123.259 Y100.854 E0.01289
G1 X123.683 Y100.702 E0.01413
G1 X124.174 Y100.588 E0.01581
G1 X124.579 Y100.532 E0.01282
G1 X125.081 Y100.513 E0.01574
G1 X125.456 Y100.537 E0.01179
G1 X125.994 Y100.622 E0.01709
G1 X126.255 Y100.694 E0.00848
G1 X126.744 Y100.864 E0.01623
G1 X127.081 Y101.019 E0.01161
G1 X127.566 Y101.313 E0.01780
G1 X127.822 Y101.508 E0.01010
G1 X128.236 Y101.880 E0.01742
G1 X128.573 Y102.278 E0.01638
G1 X128.824 Y102.644 E0.01391
G1 X129.040 Y103.035 E0.01399
G1 X129.213 Y103.451 E0.01414
G1 X129.322 Y103.811 E0.01181
G1 X129.422 Y104.255 E0.01426
G1 X129.486 Y104.733 E0.01511
G1 X129.486 Y105.225 E0.01545
G1 X129.460 Y105.493 E0.00844
G1 X129.396 Y105.880 E0.01227
G1 X129.244 Y106.457 E0.01871
G1 X129.068 Y106.907 E0.01516
G1 X128.944 Y107.146 E0.00844
G1 X128.762 Y107.455 E0.01124
G1 X128.446 Y107.882 E0.01666
G1 X128.272 Y108.082 E0.00832
G1 X127.873 Y108.451 E0.01704
G1 X127.609 Y108.657 E0.01048
G1 X127.138 Y108.951 E0.01742
G1 X126.789 Y109.117 E0.01211
G1 X126.317 Y109.287 E0.01572
G1 X126.061 Y109.362 E0.00837
G1 X125.527 Y109.455 E0.01699
G1 X125.103 Y109.479 E0.01332
G1 X124.551 Y109.457 E0.01734
G1 X124.146 Y109.407 E0.01280
G1 X123.748 Y109.318 E0.01279
G1 X123.321 Y109.173 E0.01414
G1 X122.940 Y108.994 E0.01320
G1 X122.542 Y108.760 E0.01444
G1 X122.150 Y108.472 E0.01526
G1 X121.851 Y108.202 E0.01264
G1 X121.472 Y107.786 E0.01765
G1 X121.180 Y107.361 E0.01615
G1 X121.001 Y107.046 E0.01137
G1 X120.891 Y106.813 E0.00810
G1 X120.700 Y106.309 E0.01688
G1 X120.579 Y105.784 E0.01692
G1 X120.530 Y105.449 E0.01060
G1 X120.509 Y104.898 E0.01730
G1 X120.525 Y104.604 E0.00924
G1 X120.617 Y104.015 E0.01866
G1 X120.685 Y103.741 E0.00886
G1 X120.865 Y103.247 E0.01651
G1 X120.977 Y103.001 E0.00847
G1 X121.147 Y102.694 E0.01099
G1 X121.457 Y102.233 E0.01742
G1 F4800
G1 X121.621 Y102.040 E-0.10524
G1 F4800
G1 X121.805 Y101.843 E-0.11192
G1 F4800
G1 X121.982 Y101.673 E-0.10219
G1 F4800
G1 X122.110 Y101.562 E-0.07045
G1 F4800
G1 X122.271 Y101.434 E-0.08539
G1 F4800
G1 X122.488 Y101.275 E-0.11192
G1 F4800
G1 X122.735 Y101.118 E-0.12168
G1 F4800
G1 X122.843 Y101.059 E-0.05122
G1 E-0.04000 F2100.00000
G1 X124.050 Y103.805 F6000.000
G1 E0.80000 F2100.00000
G1 F900.000
G1 X124.193 Y103.701 E0.00556
G1 X124.468 Y103.563 E0.00964
G1 X124.792 Y103.490 E0.01042
G1 X125.108 Y103.482 E0.00990
G1 X125.363 Y103.522 E0.00810
G1 X125.677 Y103.630 E0.01042
G1 X125.817 Y103.709 E0.00505
G1 X126.134 Y103.976 E0.01299
G1 X126.239 Y104.105 E0.00520
G1 X126.398 Y104.385 E0.01010
G1 X126.485 Y104.682 E0.00970
G1 X126.531 Y104.987 E0.00968
G1 X126.513 Y105.167 E0.00568
G1 X126.401 Y105.611 E0.01434
G1 X126.262 Y105.862 E0.00901
G1 X126.097 Y106.065 E0.00819
G1 X125.841 Y106.276 E0.01041
G1 X125.699 Y106.359 E0.00515
G1 X125.321 Y106.489 E0.01251
G1 X125.149 Y106.514 E0.00546
G1 X124.728 Y106.498 E0.01321
G1 X124.491 Y106.447 E0.00760
G1 X124.220 Y106.314 E0.00947
G1 X123.958 Y106.115 E0.01032
G1 X123.790 Y105.934 E0.00774
G1 X123.620 Y105.654 E0.01026
G1 X123.531 Y105.424 E0.00774
G1 X123.475 Y105.097 E0.01042
G1 X123.474 Y104.912 E0.00580
G1 X123.542 Y104.544 E0.01172
G1 X123.675 Y104.245 E0.01025
G1 X123.812 Y104.040 E0.00774
G1 X124.007 Y103.847 E0.00860
G1 X124.340 Y103.205 F6000.000
G1 F900.000
G1 X124.745 Y103.114 E0.01303
G1 X125.132 Y103.104 E0.01213
G1 X125.454 Y103.155 E0.01023
G1 X125.832 Y103.285 E0.01253
G1 X126.033 Y103.398 E0.00723
G1 X126.405 Y103.711 E0.01525
G1 X126.551 Y103.892 E0.00728
G1 X126.748 Y104.236 E0.01244
G1 X126.853 Y104.596 E0.01175
G1 X126.909 Y104.995 E0.01265
G1 X126.886 Y105.232 E0.00745
G1 X126.756 Y105.745 E0.01660
G1 X126.570 Y106.081 E0.01205
G1 X126.366 Y106.332 E0.01013
G1 X126.057 Y106.587 E0.01256
G1 X125.856 Y106.703 E0.00726
G1 X125.411 Y106.857 E0.01476
G1 X125.170 Y106.892 E0.00766
G1 X124.681 Y106.873 E0.01534
G1 X124.367 Y106.806 E0.01006
G1 X124.022 Y106.637 E0.01206
G1 X123.703 Y106.396 E0.01252
G1 X123.488 Y106.162 E0.00997
G1 X123.281 Y105.822 E0.01250
G1 X123.166 Y105.525 E0.00997
G1 X123.098 Y105.130 E0.01256
G1 X123.113 Y104.746 E0.01207
G1 X123.182 Y104.427 E0.01021
G1 X123.343 Y104.063 E0.01249
G1 X123.519 Y103.799 E0.00996
G1 X123.805 Y103.517 E0.01257
G1 X123.996 Y103.378 E0.00741
G1 X124.286 Y103.232 E0.01018
G1 X124.639 Y103.470 F6000.000
G1 F4800
G1 X124.745 Y103.114 E-0.19695
G1 F4800
G1 X125.132 Y103.104 E-0.16083
G1 F4800
G1 X125.454 Y103.155 E-0.13559
G1 F4800
G1 X125.832 Y103.285 E-0.16604
G1 F4800
G1 X126.033 Y103.398 E-0.09582
G1 F4800
G1 X126.042 Y103.405 E-0.00476
G1 E-0.04000 F2100.00000
G1 X123.637 Y105.372 F6000.000
G1 E0.80000 F2100.00000
G1 F900.000
G1 X124.238 Y105.973 E0.02892
G1 X124.369 Y106.072 E0.00556
G1 X124.585 Y106.178 E0.00816
G1 X124.764 Y106.216 E0.00624
G1 X125.071 Y106.228 E0.01047
G1 X123.765 Y104.921 E0.06285
G1 X123.813 Y104.632 E0.00997
G1 X123.887 Y104.465 E0.00621
G1 X125.537 Y106.115 E0.07936
G1 X125.679 Y106.043 E0.00540
G1 X125.878 Y105.878 E0.00881
G1 X124.127 Y104.127 E0.08424
G1 X124.233 Y104.021 E0.00509
G1 X124.461 Y103.883 E0.00907
G1 X126.117 Y105.539 E0.07965
G1 X126.238 Y105.081 E0.01610
G1 X124.926 Y103.769 E0.06307
G1 X125.089 Y103.765 E0.00555
G1 X125.294 Y103.797 E0.00705
G1 X125.561 Y103.889 E0.00959
G1 X125.656 Y103.943 E0.00370
G1 X125.795 Y104.060 E0.00620
G1 X126.347 Y104.612 E0.02653
M106 S255
M104 S205 ; set temperature
G1 F4800
G1 X125.795 Y104.060 E-0.32424
G1 F4800
G1 X125.656 Y103.943 E-0.07581
G1 F4800
G1 X125.561 Y103.889 E-0.04524
G1 F4800
G1 X125.294 Y103.797 E-0.11727
G1 F4800
G1 X125.089 Y103.765 E-0.08616
G1 F4800
G1 X124.926 Y103.769 E-0.06785
G1 F4800
G1 X125.000 Y103.843 E-0.04342
G1 E-0.04000 F2100.00000
G1 Z0.550 F6000.000
G1 X126.900 Y105.000 F6000.000
G1 E0.80000 F2100.00000
M204 S800
G1 F900.000
G1 X126.720 Y105.821 E0.04337
G1 X126.479 Y106.210 E0.02362
G1 X126.340 Y106.362 E0.01065
G1 X125.972 Y106.640 E0.02382
G1 X125.517 Y106.812 E0.02514
G1 X125.332 Y106.857 E0.00983
G1 X124.510 Y106.829 E0.04245
G1 X124.397 Y106.810 E0.00593
G1 X123.946 Y106.591 E0.02587
G1 X123.583 Y106.281 E0.02467
G1 X123.453 Y106.121 E0.01066
G1 X123.215 Y105.682 E0.02574
G1 X123.152 Y105.486 E0.01064
G1 X123.092 Y105.007 E0.02492
G1 X123.148 Y104.528 E0.02492
G1 X123.208 Y104.337 E0.01036
G1 X123.444 Y103.891 E0.02604
G1 X123.569 Y103.734 E0.01036
G1 X123.935 Y103.417 E0.02502
G1 X124.333 Y103.211 E0.02315
G1 X124.816 Y103.116 E0.02542
G1 X125.262 Y103.128 E0.02301
G1 X125.498 Y103.182 E0.01252
G1 X125.951 Y103.348 E0.02490
G1 X126.326 Y103.625 E0.02411
G1 X126.467 Y103.775 E0.01063
G1 X126.711 Y104.162 E0.02362
G1 X126.812 Y104.548 E0.02060
G1 X126.888 Y104.941 E0.02071
M204 S1000
G1 X127.241 Y104.450 F6000.000
M204 S800
G1 F900.000
G1 X127.348 Y105.000 E0.04279
G1 X127.245 Y105.533 E0.04144
G1 X127.130 Y105.994 E0.03628
G1 X126.832 Y106.476 E0.04329
