; generated by Slic3r 1.31.6-prusa3d on 2016-12-03 at 00:24:30

; external perimeters extrusion width = 0.60mm
; perimeters extrusion width = 0.43mm
; infill extrusion width = 0.70mm
; solid infill extrusion width = 0.70mm
; top infill extrusion width = 0.43mm

M107
M115 U3.0.9 ; tell printer latest fw version
M83  ; extruder relative mode
M104 S215 ; set extruder temp
M140 S55 ; set bed temp
M190 S55 ; wait for bed temp
M109 S215 ; wait for extruder temp
G28 W ; home all without mesh bed level
G80 ; mesh bed leveling
G1 Y-3.0 F1000.0 ; go outside pritn area
G1 X60.0 E9.0  F1000.0 ; intro line
G1 X100.0 E12.5  F1000.0 ; intro line
G21 ; set units to millimeters
G90 ; use absolute coordinates
M83 ; use relative distances for extrusion
G1 E-0.80000 F2100.00000
G1 Z0.200 F6000.000
G1 X81.524 Y47.764 F6000.000
G1 E0.80000 F2100.00000
M204 S1000
G1 F2100
G1 X82.331 Y47.623 E0.02569
G1 X172.331 Y47.623 E2.82189
G1 X173.638 Y48.015 E0.04278
G1 X174.346 Y48.740 E0.03179
G1 X205.592 Y98.706 E1.84775
G1 X205.718 Y98.935 E0.00820
G1 X207.959 Y103.588 E0.16193
G1 X208.193 Y104.529 E0.03042
G1 X208.204 Y105.127 E0.01874
G1 X208.193 Y105.471 E0.01078
G1 X207.959 Y106.412 E0.03042
G1 X205.718 Y111.065 E0.16193
G1 X205.592 Y111.294 E0.00820
G1 X174.346 Y161.260 E1.84775
G1 X173.321 Y162.161 E0.04278
G1 X172.331 Y162.377 E0.03179
G1 X82.331 Y162.377 E2.82189
G1 X81.024 Y161.985 E0.04278
G1 X80.427 Y161.424 E0.02569
G1 X44.481 Y113.365 E1.88173
G1 X44.280 Y113.046 E0.01183
G1 X42.392 Y109.449 E0.12734
G1 X42.214 Y109.006 E0.01500
G1 X42.064 Y108.480 E0.01714
G1 X41.844 Y107.506 E0.03131
G1 X41.796 Y107.031 E0.01498
G1 X41.796 Y102.969 E0.12734
G1 X41.844 Y102.494 E0.01498
G1 X41.957 Y101.954 E0.01728
G1 X42.214 Y100.994 E0.03118
G1 X42.392 Y100.551 E0.01498
G1 X44.280 Y96.954 E0.12734
G1 X44.481 Y96.635 E0.01183
G1 X80.427 Y48.576 E1.88173
G1 X81.476 Y47.800 E0.04090
G1 F4800
G1 X82.331 Y47.623 E-0.36302
G1 F4800
G1 X83.286 Y47.623 E-0.39698
G1 E-0.04000 F2100.00000
G1 X197.721 Y103.234 F6000.000
G1 E0.80000 F2100.00000
G1 F840
G1 X200.429 Y103.234 E0.08490
G1 X200.913 Y103.806 E0.02351
G1 X201.153 Y104.303 E0.01731
G1 X201.261 Y104.845 E0.01731
G1 X201.231 Y105.396 E0.01731
G1 X201.063 Y105.922 E0.01731
G1 X200.770 Y106.390 E0.01731
G1 X200.369 Y106.769 E0.01731
G1 X199.886 Y107.036 E0.01731
G1 X199.351 Y107.174 E0.01731
G1 X198.799 Y107.174 E0.01731
G1 X198.264 Y107.036 E0.01731
G1 X197.781 Y106.769 E0.01731
G1 X197.380 Y106.390 E0.01731
G1 X197.087 Y105.922 E0.01731
G1 X196.919 Y105.396 E0.01731
G1 X196.889 Y104.845 E0.01731
G1 X196.997 Y104.303 E0.01731
G1 X197.237 Y103.806 E0.01731
G1 X197.682 Y103.280 E0.02163
G1 X197.896 Y103.611 F6000.000
G1 F840
G1 X200.254 Y103.611 E0.07393
G1 X200.594 Y104.013 E0.01653
G1 X200.793 Y104.424 E0.01431
G1 X200.882 Y104.872 E0.01431
G1 X200.857 Y105.327 E0.01431
G1 X200.718 Y105.762 E0.01431
G1 X200.476 Y106.149 E0.01431
G1 X200.144 Y106.462 E0.01431
G1 X199.745 Y106.683 E0.01431
G1 X199.303 Y106.797 E0.01431
G1 X198.847 Y106.797 E0.01431
G1 X198.405 Y106.683 E0.01431
G1 X198.005 Y106.462 E0.01431
G1 X197.674 Y106.149 E0.01431
G1 X197.431 Y105.762 E0.01431
G1 X197.293 Y105.327 E0.01431
G1 X197.268 Y104.872 E0.01431
G1 X197.357 Y104.424 E0.01431
G1 X197.555 Y104.013 E0.01431
G1 X197.857 Y103.657 E0.01464
G1 X197.973 Y103.218 F6000.000
G1 F4800
G1 X199.685 Y103.622 E-0.76000
G1 E-0.04000 F2100.00000
G1 X193.563 Y102.259 F6000.000
G1 E0.80000 F2100.00000
G1 F1680
G1 X193.866 Y102.207 E0.00964
G1 X194.305 Y102.199 E0.01378
G1 X194.625 Y102.242 E0.01011
G1 X194.854 Y102.311 E0.00750
G1 X195.727 Y103.007 E0.03500
G1 X195.967 Y103.153 E0.00882
G1 X196.283 Y103.238 E0.01025
G1 X196.609 Y103.231 E0.01025
G1 X196.921 Y103.133 E0.01025
G1 X197.149 Y102.980 E0.00860
G1 X197.724 Y102.501 E0.02347
G1 X197.899 Y102.203 E0.01084
G1 X197.978 Y101.886 E0.01025
G1 X197.966 Y101.559 E0.01025
G1 X197.876 Y101.290 E0.00891
G1 X197.419 Y100.373 E0.03212
G1 X197.381 Y100.191 E0.00582
G1 X197.375 Y100.056 E0.00424
G1 X197.405 Y99.727 E0.01035
G1 X197.511 Y99.300 E0.01378
G1 X197.629 Y99.016 E0.00964
G1 X197.781 Y98.982 E0.00489
G1 X198.006 Y99.182 E0.00945
G1 X198.291 Y99.525 E0.01398
G1 X198.457 Y99.801 E0.01009
G1 X198.541 Y100.013 E0.00715
G1 X198.559 Y100.100 E0.00279
G1 X198.545 Y101.137 E0.03250
G1 X198.581 Y101.419 E0.00891
G1 X198.712 Y101.718 E0.01025
G1 X198.921 Y101.969 E0.01025
G1 X199.208 Y102.162 E0.01084
G1 X199.934 Y102.345 E0.02347
G1 X200.205 Y102.383 E0.00860
G1 X200.529 Y102.336 E0.01025
G1 X200.826 Y102.201 E0.01025
G1 X201.073 Y101.987 E0.01025
G1 X201.228 Y101.749 E0.00891
G1 X201.669 Y100.802 E0.03274
G1 X201.891 Y100.581 E0.00983
G1 X202.157 Y100.407 E0.00996
G1 X202.556 Y100.224 E0.01378
G1 X202.858 Y100.137 E0.00985
G1 X202.974 Y100.226 E0.00457
G1 X202.957 Y100.543 E0.00996
G1 X202.867 Y100.973 E0.01378
G1 X202.754 Y101.275 E0.01011
G1 X202.641 Y101.474 E0.00715
G1 X202.584 Y101.542 E0.00279
G1 X201.765 Y102.177 E0.03250
G1 X201.567 Y102.381 E0.00891
G1 X201.414 Y102.670 E0.01025
G1 X201.348 Y102.990 E0.01025
G1 X201.375 Y103.316 E0.01025
G1 X201.472 Y103.572 E0.00860
G1 X201.812 Y104.239 E0.02347
G1 X202.064 Y104.476 E0.01084
G1 X202.355 Y104.624 E0.01025
G1 X202.676 Y104.684 E0.01025
G1 X202.959 Y104.657 E0.00891
G1 X203.974 Y104.410 E0.03274
G1 X204.285 Y104.447 E0.00983
G1 X204.587 Y104.546 E0.00996
G1 X204.980 Y104.744 E0.01378
G1 X205.236 Y104.926 E0.00985
G1 X205.238 Y105.072 E0.00457
G1 X204.980 Y105.256 E0.00996
G1 X204.587 Y105.454 E0.01378
G1 X204.281 Y105.554 E0.01011
G1 X204.056 Y105.589 E0.00715
G1 X203.966 Y105.588 E0.00279
G1 X202.959 Y105.343 E0.03250
G1 X202.676 Y105.316 E0.00891
G1 X202.355 Y105.376 E0.01025
G1 X202.064 Y105.524 E0.01025
G1 X201.812 Y105.761 E0.01084
G1 X201.472 Y106.428 E0.02347
G1 X201.375 Y106.684 E0.00860
G1 X201.348 Y107.010 E0.01025
G1 X201.414 Y107.330 E0.01025
G1 X201.567 Y107.619 E0.01025
G1 X201.765 Y107.823 E0.00891
G1 X202.575 Y108.451 E0.03212
G1 X202.687 Y108.598 E0.00582
G1 X202.752 Y108.717 E0.00424
G1 X202.867 Y109.027 E0.01035
G1 X202.957 Y109.457 E0.01378
G1 X202.974 Y109.774 E0.00996
G1 X202.858 Y109.863 E0.00457
G1 X202.556 Y109.776 E0.00985
G1 X202.157 Y109.593 E0.01378
G1 X201.887 Y109.416 E0.01011
G1 X201.700 Y109.241 E0.00803
G1 X201.227 Y108.248 E0.03448
G1 X201.073 Y108.013 E0.00882
G1 X200.826 Y107.799 E0.01025
G1 X200.529 Y107.664 E0.01025
G1 X200.186 Y107.614 E0.01084
G1 X199.453 Y107.765 E0.02347
G1 X199.192 Y107.848 E0.00860
G1 X198.921 Y108.031 E0.01025
G1 X198.712 Y108.282 E0.01025
G1 X198.581 Y108.581 E0.01025
G1 X198.545 Y108.863 E0.00891
G1 X198.559 Y109.888 E0.03212
G1 X198.514 Y110.068 E0.00582
G1 X198.461 Y110.192 E0.00424
G1 X198.291 Y110.475 E0.01035
G1 X198.011 Y110.814 E0.01378
G1 X197.781 Y111.018 E0.00964
G1 X197.629 Y110.984 E0.00489
G1 X197.511 Y110.700 E0.00964
G1 X197.405 Y110.273 E0.01378
G1 X197.376 Y109.952 E0.01011
G1 X197.392 Y109.725 E0.00715
G1 X197.414 Y109.638 E0.00279
G1 X197.876 Y108.710 E0.03250
G1 X197.966 Y108.441 E0.00891
G1 X197.978 Y108.114 E0.01025
G1 X197.899 Y107.797 E0.01025
G1 X197.724 Y107.499 E0.01084
G1 X197.149 Y107.020 E0.02347
G1 X196.921 Y106.867 E0.00860
G1 X196.609 Y106.769 E0.01025
G1 X196.283 Y106.762 E0.01025
G1 X195.967 Y106.847 E0.01025
G1 X195.724 Y106.995 E0.00891
G1 X194.932 Y107.644 E0.03212
G1 X194.763 Y107.721 E0.00582
G1 X194.633 Y107.757 E0.00424
G1 X194.305 Y107.801 E0.01035
G1 X193.866 Y107.793 E0.01378
G1 X193.563 Y107.741 E0.00964
G1 X193.495 Y107.600 E0.00489
G1 X193.644 Y107.331 E0.00964
G1 X193.911 Y106.983 E0.01378
G1 X194.144 Y106.759 E0.01011
G1 X194.332 Y106.630 E0.00715
G1 X194.413 Y106.593 E0.00279
G1 X195.426 Y106.376 E0.03250
G1 X195.693 Y106.278 E0.00891
G1 X195.956 Y106.084 E0.01025
G1 X196.154 Y105.824 E0.01025
G1 X196.279 Y105.502 E0.01084
G1 X196.295 Y104.754 E0.02347
G1 X196.272 Y104.480 E0.00860
G1 X196.154 Y104.176 E0.01025
G1 X195.956 Y103.916 E0.01025
G1 X195.693 Y103.722 E0.01025
G1 X195.426 Y103.624 E0.00891
G1 X194.424 Y103.410 E0.03212
G1 X194.259 Y103.326 E0.00582
G1 X194.149 Y103.246 E0.00424
G1 X193.911 Y103.017 E0.01035
G1 X193.644 Y102.669 E0.01378
G1 X193.495 Y102.400 E0.00964
G1 X193.537 Y102.313 E0.00301
G1 X193.308 Y101.920 F6000.000
G1 F1260
G1 X193.830 Y101.831 E0.01663
G1 X194.327 Y101.822 E0.01557
G1 X194.705 Y101.872 E0.01197
G1 X195.069 Y101.995 E0.01205
G1 X195.944 Y102.697 E0.03517
G1 X196.117 Y102.803 E0.00636
G1 X196.329 Y102.860 E0.00687
G1 X196.548 Y102.855 E0.00687
G1 X196.757 Y102.789 E0.00687
G1 X196.923 Y102.678 E0.00628
G1 X197.432 Y102.254 E0.02077
G1 X197.546 Y102.059 E0.00708
G1 X197.599 Y101.846 E0.00687
G1 X197.591 Y101.627 E0.00687
G1 X197.526 Y101.434 E0.00639
G1 X197.060 Y100.497 E0.03282
G1 X197.006 Y100.238 E0.00830
G1 X196.997 Y100.047 E0.00600
G1 X197.033 Y99.664 E0.01205
G1 X197.152 Y99.182 E0.01557
G1 X197.356 Y98.692 E0.01663
G1 X197.887 Y98.571 E0.01709
G1 X198.278 Y98.920 E0.01643
G1 X198.600 Y99.306 E0.01577
G1 X198.796 Y99.633 E0.01196
G1 X198.904 Y99.904 E0.00914
G1 X198.937 Y100.064 E0.00512
G1 X198.923 Y101.115 E0.03296
G1 X198.949 Y101.317 E0.00639
G1 X199.036 Y101.518 E0.00687
G1 X199.176 Y101.687 E0.00687
G1 X199.364 Y101.813 E0.00708
G1 X200.006 Y101.974 E0.02077
G1 X200.204 Y102.002 E0.00628
G1 X200.421 Y101.971 E0.00687
G1 X200.621 Y101.880 E0.00687
G1 X200.786 Y101.737 E0.00687
G1 X200.897 Y101.566 E0.00639
G1 X201.342 Y100.610 E0.03305
G1 X201.404 Y100.524 E0.00335
G1 X201.656 Y100.285 E0.01088
G1 X201.974 Y100.076 E0.01191
G1 X202.425 Y99.869 E0.01557
G1 X202.937 Y99.722 E0.01671
G1 X203.251 Y99.963 E0.01242
G1 X203.361 Y100.058 E0.00454
G1 X203.332 Y100.592 E0.01678
G1 X203.230 Y101.078 E0.01557
G1 X203.097 Y101.436 E0.01197
G1 X202.952 Y101.689 E0.00914
G1 X202.848 Y101.815 E0.00512
G1 X202.017 Y102.459 E0.03296
G1 X201.875 Y102.605 E0.00639
G1 X201.773 Y102.799 E0.00687
G1 X201.729 Y103.013 E0.00687
G1 X201.746 Y103.232 E0.00687
G1 X201.818 Y103.419 E0.00628
G1 X202.118 Y104.009 E0.02077
G1 X202.283 Y104.164 E0.00708
G1 X202.478 Y104.263 E0.00687
G1 X202.693 Y104.304 E0.00687
G1 X202.896 Y104.284 E0.00639
G1 X203.920 Y104.036 E0.03305
G1 X204.027 Y104.031 E0.00335
G1 X204.371 Y104.078 E0.01088
G1 X204.732 Y104.196 E0.01191
G1 X205.175 Y104.420 E0.01557
G1 X205.609 Y104.729 E0.01671
G1 X205.617 Y105.125 E0.01242
G1 X205.611 Y105.270 E0.00454
G1 X205.175 Y105.580 E0.01678
G1 X204.732 Y105.804 E0.01557
G1 X204.369 Y105.922 E0.01197
G1 X204.081 Y105.967 E0.00914
G1 X203.918 Y105.964 E0.00512
G1 X202.896 Y105.716 E0.03296
G1 X202.693 Y105.696 E0.00639
G1 X202.478 Y105.737 E0.00687
G1 X202.283 Y105.836 E0.00687
G1 X202.118 Y105.991 E0.00708
G1 X201.818 Y106.581 E0.02077
G1 X201.746 Y106.768 E0.00628
G1 X201.729 Y106.987 E0.00687
G1 X201.773 Y107.201 E0.00687
G1 X201.875 Y107.395 E0.00687
G1 X202.017 Y107.541 E0.00639
G1 X202.844 Y108.183 E0.03282
G1 X203.005 Y108.393 E0.00830
G1 X203.096 Y108.561 E0.00600
G1 X203.230 Y108.922 E0.01205
G1 X203.332 Y109.408 E0.01557
G1 X203.361 Y109.942 E0.01678
G1 X202.937 Y110.278 E0.01695
G1 X202.425 Y110.131 E0.01671
G1 X201.974 Y109.924 E0.01557
G1 X201.655 Y109.714 E0.01197
G1 X201.380 Y109.445 E0.01205
G1 X200.897 Y108.433 E0.03517
G1 X200.786 Y108.263 E0.00636
G1 X200.621 Y108.120 E0.00687
G1 X200.421 Y108.029 E0.00687
G1 X200.198 Y107.997 E0.00708
G1 X199.549 Y108.130 E0.02077
G1 X199.358 Y108.191 E0.00628
G1 X199.176 Y108.313 E0.00687
G1 X199.036 Y108.482 E0.00687
G1 X198.949 Y108.683 E0.00687
G1 X198.923 Y108.885 E0.00639
G1 X198.937 Y109.932 E0.03282
G1 X198.873 Y110.188 E0.00830
G1 X198.797 Y110.364 E0.00600
G1 X198.600 Y110.694 E0.01205
G1 X198.283 Y111.076 E0.01557
G1 X197.887 Y111.429 E0.01663
G1 X197.356 Y111.308 E0.01709
G1 X197.152 Y110.818 E0.01663
G1 X197.033 Y110.336 E0.01557
G1 X196.998 Y109.956 E0.01197
G1 X197.018 Y109.665 E0.00914
G1 X197.058 Y109.507 E0.00512
G1 X197.526 Y108.566 E0.03296
G1 X197.591 Y108.373 E0.00639
G1 X197.599 Y108.154 E0.00687
G1 X197.546 Y107.941 E0.00687
G1 X197.432 Y107.746 E0.00708
G1 X196.923 Y107.322 E0.02077
G1 X196.757 Y107.211 E0.00628
G1 X196.548 Y107.145 E0.00687
G1 X196.329 Y107.140 E0.00687
G1 X196.117 Y107.197 E0.00687
G1 X195.943 Y107.303 E0.00639
G1 X195.133 Y107.967 E0.03282
G1 X194.892 Y108.077 E0.00830
G1 X194.708 Y108.128 E0.00600
G1 X194.327 Y108.178 E0.01205
G1 X193.830 Y108.169 E0.01557
G1 X193.308 Y108.080 E0.01663
G1 X193.071 Y107.589 E0.01709
G1 X193.327 Y107.124 E0.01663
G1 X193.630 Y106.730 E0.01557
G1 X193.905 Y106.466 E0.01197
G1 X194.145 Y106.301 E0.00914
G1 X194.294 Y106.233 E0.00512
G1 X195.321 Y106.013 E0.03296
G1 X195.513 Y105.943 E0.00639
G1 X195.689 Y105.813 E0.00687
G1 X195.822 Y105.638 E0.00687
G1 X195.903 Y105.428 E0.00708
G1 X195.918 Y104.765 E0.02077
G1 X195.901 Y104.566 E0.00628
G1 X195.822 Y104.362 E0.00687
G1 X195.689 Y104.187 E0.00687
G1 X195.513 Y104.057 E0.00687
G1 X195.321 Y103.987 E0.00639
G1 X194.298 Y103.768 E0.03282
G1 X194.062 Y103.648 E0.00830
G1 X193.907 Y103.536 E0.00600
G1 X193.630 Y103.270 E0.01205
G1 X193.327 Y102.876 E0.01557
G1 X193.071 Y102.411 E0.01663
G1 X193.282 Y101.974 E0.01520
G1 X193.676 Y102.077 F6000.000
G1 F4800
G1 X193.830 Y101.831 E-0.23574
G1 F4800
G1 X194.327 Y101.822 E-0.20637
G1 F4800
G1 X194.705 Y101.872 E-0.15863
G1 F4800
G1 X194.988 Y101.958 E-0.12288
G1 F4800
G1 X195.068 Y101.994 E-0.03637
G1 E-0.04000 F2100.00000
G1 X194.645 Y103.341 F6000.000
G1 E0.80000 F2100.00000
G1 F2520
G1 X194.091 Y102.787 E0.02552
G1 X193.870 Y102.494 E0.01194
G1 X194.347 Y102.490 E0.01553
G1 X195.350 Y103.492 E0.04612
G1 F4800
G1 X194.347 Y102.490 E-0.58899
G1 F4800
G1 X193.936 Y102.493 E-0.17101
G1 E-0.04000 F2100.00000
G1 X196.808 Y104.397 F6000.000
G1 E0.80000 F2100.00000
G1 F2520
G1 X195.783 Y103.372 E0.04721
G1 X195.855 Y103.416 E0.00275
G1 X196.248 Y103.521 E0.01326
G1 X196.481 Y103.516 E0.00757
G1 X196.873 Y103.909 E0.01806
G1 X196.998 Y103.651 E0.00932
G1 X197.076 Y103.558 E0.00395
G1 X196.941 Y103.423 E0.00623
G1 X197.045 Y103.390 E0.00354
G1 X197.295 Y103.223 E0.00978
G1 X197.450 Y103.379 E0.00716
G1 X197.780 Y102.602 F6000.000
G1 F2520
G1 X198.129 Y102.951 E0.01608
G1 X198.683 Y102.951 E0.01801
G1 X198.119 Y102.387 E0.02597
G1 X198.163 Y102.311 E0.00287
G1 X198.250 Y101.965 E0.01161
G1 X199.236 Y102.951 E0.04540
G1 X199.790 Y102.951 E0.01801
G1 X199.321 Y102.483 E0.02156
G1 X199.879 Y102.623 E0.01872
G1 X200.037 Y102.645 E0.00519
G1 X200.343 Y102.951 E0.01408
G1 X200.560 Y102.951 E0.00705
G1 X200.853 Y103.297 E0.01476
G1 X201.079 Y103.164 E0.00853
G1 X201.076 Y103.130 E0.00110
G1 X200.563 Y102.617 E0.02362
G1 X200.953 Y102.454 E0.01376
G1 X201.133 Y102.634 E0.00829
G1 X201.145 Y102.573 E0.00201
G1 X201.312 Y102.259 E0.01157
G1 X201.256 Y102.203 E0.00257
G1 X201.481 Y101.875 E0.01295
G1 X201.574 Y101.968 E0.00427
G1 X201.886 Y101.726 E0.01284
G1 X201.657 Y101.497 E0.01052
G1 X201.833 Y101.120 E0.01356
G1 X202.197 Y101.484 E0.01678
G1 X202.408 Y101.312 E0.00886
G1 X202.470 Y101.203 E0.00407
G1 X202.070 Y100.802 E0.01842
G1 X202.294 Y100.655 E0.00872
G1 X202.418 Y100.598 E0.00444
G1 X202.759 Y100.939 E0.01566
G1 F4800
G1 X202.418 Y100.598 E-0.20006
G1 F4800
G1 X202.294 Y100.655 E-0.05676
G1 F4800
G1 X202.070 Y100.802 E-0.11134
G1 F4800
G1 X202.470 Y101.203 E-0.23528
G1 F4800
G1 X202.408 Y101.312 E-0.05195
G1 F4800
G1 X202.213 Y101.471 E-0.10461
G1 E-0.04000 F2100.00000
G1 X198.441 Y100.495 F6000.000
G1 E0.80000 F2100.00000
G1 F2520
G1 X197.692 Y99.746 E0.03447
G1 X197.659 Y100.062 E0.01034
G1 X197.688 Y100.279 E0.00712
G1 X198.266 Y100.874 E0.02698
G1 X198.262 Y101.153 E0.00908
G1 X198.302 Y101.463 E0.01018
G1 X197.877 Y101.038 E0.01957
G1 F4800
G1 X198.302 Y101.463 E-0.24995
G1 F4800
G1 X198.262 Y101.153 E-0.13006
G1 F4800
G1 X198.266 Y100.874 E-0.11593
G1 F4800
G1 X197.823 Y100.418 E-0.26405
G1 E-0.04000 F2100.00000
G1 X201.083 Y103.490 F6000.000
G1 E0.80000 F2100.00000
G1 F1680
G1 X201.441 Y104.191 E0.01378
G1 X201.506 Y104.372 E0.00337
G1 X201.355 Y105.194 F6000.000
G1 F2520
G1 X201.668 Y105.508 E0.01395
G1 X201.900 Y105.290 E0.00998
G1 X201.958 Y105.261 E0.00204
G1 X201.544 Y104.848 E0.01840
