; generated by Slic3r 1.31.6-prusa3d on 2016-12-04 at 15:38:44

; external perimeters extrusion width = 0.60mm
; perimeters extrusion width = 0.43mm
; infill extrusion width = 0.70mm
; solid infill extrusion width = 0.70mm
; top infill extrusion width = 0.43mm

M115 U3.0.9 ; tell printer latest fw version
M83  ; extruder relative mode
M104 S255 ; set extruder temp
M140 S100 ; set bed temp
M190 S100 ; wait for bed temp
M109 S255 ; wait for extruder temp
G28 W ; home all without mesh bed level
G80 ; mesh bed leveling
G1 Y-3.0 F1000.0 ; go outside pritn area
G1 X60.0 E9.0  F1000.0 ; intro line
G1 X100.0 E12.5  F1000.0 ; intro line
G21 ; set units to millimeters
G90 ; use absolute coordinates
M83 ; use relative distances for extrusion
G1 E-0.80000 F2100.00000
G1 Z0.200 F6000.000
G1 X105.196 Y88.199 F6000.000
G1 E0.80000 F2100.00000
M204 S1000
G1 F2100
G1 X105.766 Y87.550 E0.02708
G1 X106.315 Y86.962 E0.02523
G1 X106.917 Y86.359 E0.02671
G1 X107.571 Y85.747 E0.02809
G1 X108.780 Y84.717 E0.04981
G1 X109.619 Y84.074 E0.03313
G1 X110.181 Y83.672 E0.02166
G1 X110.984 Y83.136 E0.03027
G1 X111.581 Y82.765 E0.02203
G1 X112.966 Y81.986 E0.04981
G1 X114.087 Y81.433 E0.03919
G1 X115.611 Y80.786 E0.05193
G1 X117.381 Y80.173 E0.05874
G1 X118.902 Y79.756 E0.04944
G1 X120.602 Y79.406 E0.05442
G1 X122.480 Y79.153 E0.05940
G1 X124.053 Y79.048 E0.04944
G1 X125.755 Y79.041 E0.05336
G1 X127.570 Y79.158 E0.05702
G1 X129.220 Y79.376 E0.05220
G1 X130.705 Y79.665 E0.04742
G1 X132.462 Y80.126 E0.05697
G1 X133.898 Y80.602 E0.04742
G1 X135.443 Y81.222 E0.05220
G1 X135.982 Y81.466 E0.01856
G1 X137.460 Y82.213 E0.05193
G1 X138.487 Y82.806 E0.03717
G1 X139.819 Y83.672 E0.04981
G1 X140.442 Y84.119 E0.02405
G1 X141.157 Y84.667 E0.02826
G1 X141.800 Y85.195 E0.02607
G1 X142.429 Y85.747 E0.02624
G1 X143.028 Y86.306 E0.02570
G1 X143.685 Y86.962 E0.02910
G1 X144.753 Y88.138 E0.04981
G1 X145.402 Y88.931 E0.03212
G1 X145.842 Y89.505 E0.02267
G1 X146.385 Y90.264 E0.02926
G1 X146.793 Y90.875 E0.02304
G1 X147.617 Y92.234 E0.04981
G1 X148.190 Y93.308 E0.03818
G1 X148.424 Y93.784 E0.01662
G1 X148.941 Y94.935 E0.03959
G1 X149.507 Y96.407 E0.04944
G1 X150.027 Y98.063 E0.05442
G1 X150.466 Y99.906 E0.05940
G1 X150.728 Y101.461 E0.04944
G1 X150.907 Y103.187 E0.05442
G1 X150.970 Y105.077 E0.05929
G1 X150.922 Y106.589 E0.04742
G1 X150.767 Y108.246 E0.05220
G1 X150.477 Y110.040 E0.05697
G1 X150.140 Y111.515 E0.04742
G1 X149.671 Y113.112 E0.05220
G1 X149.044 Y114.817 E0.05697
G1 X148.390 Y116.290 E0.05052
G1 X147.617 Y117.768 E0.05230
G1 X146.793 Y119.127 E0.04981
G1 X146.385 Y119.738 E0.02304
G1 X145.794 Y120.561 E0.03175
G1 X144.804 Y121.803 E0.04981
G1 X144.234 Y122.452 E0.02708
G1 X143.685 Y123.039 E0.02523
G1 X143.083 Y123.643 E0.02671
G1 X142.429 Y124.255 E0.02809
G1 X141.219 Y125.285 E0.04981
G1 X140.381 Y125.928 E0.03313
G1 X139.819 Y126.329 E0.02166
G1 X139.016 Y126.866 E0.03027
G1 X138.419 Y127.237 E0.02203
G1 X137.034 Y128.016 E0.04981
G1 X135.913 Y128.568 E0.03919
G1 X134.389 Y129.215 E0.05193
G1 X132.618 Y129.829 E0.05874
G1 X131.098 Y130.245 E0.04944
G1 X129.398 Y130.596 E0.05442
G1 X127.520 Y130.849 E0.05940
G1 X125.947 Y130.954 E0.04944
G1 X124.245 Y130.960 E0.05336
G1 X122.430 Y130.844 E0.05702
G1 X120.930 Y130.651 E0.04742
G1 X119.295 Y130.337 E0.05220
G1 X117.538 Y129.876 E0.05697
G1 X115.959 Y129.347 E0.05220
G1 X114.557 Y128.779 E0.04742
G1 X114.018 Y128.536 E0.01856
G1 X112.540 Y127.788 E0.05193
G1 X111.513 Y127.196 E0.03717
G1 X110.181 Y126.329 E0.04981
G1 X109.558 Y125.883 E0.02405
G1 X108.843 Y125.334 E0.02826
G1 X108.258 Y124.856 E0.02368
G1 X107.512 Y124.202 E0.03112
G1 X106.917 Y123.643 E0.02560
G1 X106.315 Y123.039 E0.02671
G1 X105.247 Y121.863 E0.04981
G1 X104.598 Y121.071 E0.03213
G1 X104.158 Y120.497 E0.02267
G1 X103.615 Y119.738 E0.02926
G1 X103.207 Y119.127 E0.02304
G1 X102.383 Y117.768 E0.04981
G1 X101.810 Y116.694 E0.03818
G1 X101.576 Y116.218 E0.01662
G1 X101.059 Y115.066 E0.03959
G1 X100.493 Y113.595 E0.04944
G1 X99.973 Y111.939 E0.05442
G1 X99.534 Y110.096 E0.05940
G1 X99.272 Y108.541 E0.04944
G1 X99.093 Y106.815 E0.05442
G1 X99.030 Y104.925 E0.05929
G1 X99.078 Y103.413 E0.04742
G1 X99.233 Y101.755 E0.05220
G1 X99.523 Y99.962 E0.05697
G1 X99.860 Y98.487 E0.04742
G1 X100.329 Y96.890 E0.05220
G1 X100.956 Y95.184 E0.05697
G1 X101.610 Y93.712 E0.05052
G1 X102.383 Y92.234 E0.05230
G1 X103.207 Y90.875 E0.04981
G1 X103.615 Y90.264 E0.02304
G1 X104.206 Y89.441 E0.03175
G1 X105.158 Y88.245 E0.04793
G1 F4800
G1 X105.247 Y88.138 E-0.05795
G1 F4800
G1 X105.714 Y87.606 E-0.29429
G1 F4800
G1 X105.766 Y87.550 E-0.03167
G1 F4800
G1 X106.315 Y86.962 E-0.33442
G1 F4800
G1 X106.371 Y86.905 E-0.03302
G1 F4800
G1 X106.385 Y86.890 E-0.00865
G1 E-0.04000 F2100.00000
G1 X134.975 Y115.439 F6000.000
G1 E0.80000 F2100.00000
G1 F840
G1 X135.334 Y115.056 E0.01644
G1 X135.777 Y114.775 E0.01644
G1 X136.275 Y114.613 E0.01644
G1 X136.789 Y114.581 E0.01613
G1 X137.312 Y114.678 E0.01669
G1 X137.788 Y114.902 E0.01649
G1 X138.192 Y115.236 E0.01644
G1 X138.500 Y115.660 E0.01644
G1 X138.693 Y116.148 E0.01644
G1 X138.759 Y116.670 E0.01649
G1 X138.690 Y117.198 E0.01669
G1 X138.500 Y117.676 E0.01613
G1 X138.192 Y118.100 E0.01644
G1 X137.788 Y118.434 E0.01644
G1 X137.314 Y118.657 E0.01644
G1 X136.797 Y118.756 E0.01649
G1 X136.266 Y118.720 E0.01669
G1 X135.777 Y118.561 E0.01613
G1 X135.334 Y118.280 E0.01644
G1 X134.975 Y117.898 E0.01644
G1 X134.722 Y117.438 E0.01644
G1 X134.592 Y116.930 E0.01644
G1 X134.592 Y116.406 E0.01644
G1 X134.722 Y115.898 E0.01644
G1 X134.946 Y115.491 E0.01456
G1 X135.282 Y115.662 F6000.000
G1 F840
G1 X135.576 Y115.349 E0.01345
G1 X135.938 Y115.119 E0.01345
G1 X136.347 Y114.987 E0.01345
G1 X136.766 Y114.960 E0.01317
G1 X137.196 Y115.040 E0.01371
G1 X137.584 Y115.223 E0.01347
G1 X137.915 Y115.496 E0.01345
G1 X138.167 Y115.844 E0.01345
G1 X138.325 Y116.242 E0.01345
G1 X138.379 Y116.669 E0.01347
G1 X138.322 Y117.102 E0.01371
G1 X138.167 Y117.493 E0.01317
G1 X137.915 Y117.840 E0.01345
G1 X137.584 Y118.113 E0.01345
G1 X137.196 Y118.296 E0.01345
G1 X136.774 Y118.377 E0.01347
G1 X136.338 Y118.347 E0.01371
G1 X135.938 Y118.217 E0.01317
G1 X135.576 Y117.987 E0.01345
G1 X135.282 Y117.674 E0.01345
G1 X135.076 Y117.298 E0.01345
G1 X134.969 Y116.883 E0.01345
G1 X134.969 Y116.454 E0.01345
G1 X135.076 Y116.038 E0.01345
G1 X135.254 Y115.715 E0.01157
G1 X135.120 Y115.297 F6000.000
G1 F4800
G1 X135.576 Y115.349 E-0.20258
G1 F4800
G1 X135.938 Y115.119 E-0.17833
G1 F4800
G1 X136.347 Y114.987 E-0.17833
G1 F4800
G1 X136.766 Y114.960 E-0.17461
G1 F4800
G1 X136.828 Y114.972 E-0.02616
G1 E-0.04000 F2100.00000
G1 X127.983 Y107.802 F6000.000
G1 E0.80000 F2100.00000
G1 F840
G1 X127.192 Y108.456 E0.03216
G1 X126.264 Y108.892 E0.03216
G1 X125.257 Y109.085 E0.03216
G1 X124.233 Y109.020 E0.03216
G1 X123.258 Y108.703 E0.03216
G1 X122.391 Y108.153 E0.03219
G1 X121.683 Y107.394 E0.03254
G1 X121.196 Y106.507 E0.03173
G1 X120.941 Y105.514 E0.03216
G1 X120.941 Y104.488 E0.03216
G1 X121.196 Y103.495 E0.03216
G1 X121.690 Y102.596 E0.03216
G1 X122.392 Y101.848 E0.03216
G1 X123.259 Y101.298 E0.03219
G1 X124.247 Y100.981 E0.03254
G1 X125.257 Y100.917 E0.03173
G1 X126.264 Y101.109 E0.03216
G1 X127.192 Y101.546 E0.03216
G1 X127.983 Y102.200 E0.03216
G1 X128.586 Y103.030 E0.03216
G1 X128.963 Y103.983 E0.03216
G1 X129.092 Y105.001 E0.03216
G1 X128.963 Y106.018 E0.03216
G1 X128.586 Y106.972 E0.03216
G1 X128.018 Y107.753 E0.03028
G1 X127.706 Y107.542 F6000.000
G1 F840
G1 X126.989 Y108.135 E0.02917
G1 X126.147 Y108.531 E0.02917
G1 X125.233 Y108.705 E0.02917
G1 X124.305 Y108.647 E0.02917
G1 X123.420 Y108.359 E0.02917
G1 X122.634 Y107.861 E0.02918
G1 X121.991 Y107.171 E0.02955
G1 X121.549 Y106.367 E0.02877
G1 X121.318 Y105.466 E0.02917
G1 X121.318 Y104.536 E0.02917
G1 X121.549 Y103.634 E0.02917
G1 X121.997 Y102.819 E0.02917
G1 X122.634 Y102.141 E0.02917
G1 X123.420 Y101.642 E0.02918
G1 X124.317 Y101.354 E0.02955
G1 X125.233 Y101.297 E0.02877
G1 X126.147 Y101.471 E0.02917
G1 X126.989 Y101.867 E0.02917
G1 X127.706 Y102.460 E0.02917
G1 X128.253 Y103.213 E0.02917
G1 X128.595 Y104.078 E0.02917
G1 X128.712 Y105.001 E0.02917
G1 X128.595 Y105.924 E0.02917
G1 X128.253 Y106.789 E0.02917
G1 X127.741 Y107.493 E0.02729
G1 X127.821 Y107.925 F6000.000
G1 F4800
G1 X126.989 Y108.135 E-0.41090
G1 F4800
G1 X126.229 Y108.492 E-0.34910
G1 E-0.04000 F2100.00000
G1 X114.857 Y94.767 F6000.000
G1 E0.80000 F2100.00000
G1 F840
G1 X114.445 Y95.104 E0.01669
G1 X113.979 Y95.323 E0.01613
G1 X113.464 Y95.421 E0.01644
G1 X112.941 Y95.388 E0.01644
G1 X112.442 Y95.226 E0.01644
G1 X111.999 Y94.945 E0.01644
G1 X111.640 Y94.563 E0.01644
G1 X111.388 Y94.104 E0.01644
G1 X111.257 Y93.596 E0.01644
G1 X111.257 Y93.071 E0.01644
G1 X111.388 Y92.564 E0.01644
G1 X111.640 Y92.104 E0.01644
G1 X111.999 Y91.722 E0.01644
G1 X112.442 Y91.441 E0.01644
G1 X112.941 Y91.279 E0.01644
G1 X113.454 Y91.247 E0.01613
G1 X113.978 Y91.344 E0.01669
G1 X114.454 Y91.567 E0.01649
G1 X114.858 Y91.902 E0.01644
G1 X115.166 Y92.326 E0.01644
G1 X115.359 Y92.813 E0.01644
G1 X115.425 Y93.335 E0.01649
G1 X115.355 Y93.863 E0.01669
G1 X115.166 Y94.341 E0.01613
G1 X114.892 Y94.718 E0.01461
G1 X114.580 Y94.506 F6000.000
G1 F840
G1 X114.242 Y94.783 E0.01371
G1 X113.862 Y94.961 E0.01317
G1 X113.440 Y95.042 E0.01345
G1 X113.012 Y95.015 E0.01345
G1 X112.604 Y94.882 E0.01345
G1 X112.242 Y94.652 E0.01345
G1 X111.948 Y94.340 E0.01345
G1 X111.741 Y93.964 E0.01345
G1 X111.635 Y93.548 E0.01345
G1 X111.635 Y93.119 E0.01345
G1 X111.741 Y92.703 E0.01345
G1 X111.948 Y92.327 E0.01345
G1 X112.242 Y92.015 E0.01345
G1 X112.604 Y91.785 E0.01345
G1 X113.012 Y91.652 E0.01345
G1 X113.431 Y91.626 E0.01317
G1 X113.861 Y91.705 E0.01371
G1 X114.250 Y91.888 E0.01347
G1 X114.580 Y92.162 E0.01345
G1 X114.833 Y92.509 E0.01345
G1 X114.991 Y92.908 E0.01345
G1 X115.044 Y93.334 E0.01347
G1 X114.987 Y93.768 E0.01371
G1 X114.833 Y94.158 E0.01317
G1 X114.615 Y94.457 E0.01159
G1 X114.694 Y94.889 F6000.000
G1 F4800
G1 X114.242 Y94.783 E-0.20591
G1 F4800
G1 X113.862 Y94.961 E-0.17461
G1 F4800
G1 X113.440 Y95.042 E-0.17833
G1 F4800
G1 X113.012 Y95.015 E-0.17833
G1 F4800
G1 X112.960 Y94.998 E-0.02282
G1 E-0.04000 F2100.00000
G1 X134.592 Y93.596 F6000.000
G1 E0.80000 F2100.00000
G1 F840
G1 X134.592 Y93.071 E0.01644
G1 X134.722 Y92.564 E0.01644
G1 X134.975 Y92.104 E0.01644
G1 X135.334 Y91.722 E0.01644
G1 X135.777 Y91.441 E0.01644
G1 X136.275 Y91.279 E0.01644
G1 X136.789 Y91.247 E0.01613
G1 X137.312 Y91.344 E0.01669
G1 X137.788 Y91.567 E0.01649
G1 X138.192 Y91.902 E0.01644
G1 X138.500 Y92.326 E0.01644
G1 X138.693 Y92.813 E0.01644
G1 X138.759 Y93.334 E0.01644
G1 X138.693 Y93.854 E0.01644
G1 X138.500 Y94.341 E0.01644
G1 X138.192 Y94.765 E0.01644
G1 X137.788 Y95.100 E0.01644
G1 X137.314 Y95.323 E0.01644
G1 X136.797 Y95.422 E0.01649
G1 X136.266 Y95.385 E0.01669
G1 X135.777 Y95.226 E0.01613
G1 X135.334 Y94.945 E0.01644
G1 X134.975 Y94.563 E0.01644
G1 X134.722 Y94.104 E0.01644
G1 X134.607 Y93.654 E0.01456
G1 X134.969 Y93.548 F6000.000
G1 F840
G1 X134.969 Y93.119 E0.01345
G1 X135.076 Y92.703 E0.01345
G1 X135.282 Y92.327 E0.01345
G1 X135.576 Y92.015 E0.01345
G1 X135.938 Y91.785 E0.01345
G1 X136.347 Y91.652 E0.01345
G1 X136.766 Y91.626 E0.01317
G1 X137.196 Y91.705 E0.01371
G1 X137.584 Y91.888 E0.01347
G1 X137.915 Y92.162 E0.01345
G1 X138.167 Y92.509 E0.01345
G1 X138.325 Y92.908 E0.01345
G1 X138.379 Y93.334 E0.01345
G1 X138.325 Y93.759 E0.01345
G1 X138.167 Y94.158 E0.01345
G1 X137.915 Y94.505 E0.01345
G1 X137.584 Y94.779 E0.01345
G1 X137.196 Y94.961 E0.01345
G1 X136.774 Y95.042 E0.01347
G1 X136.338 Y95.012 E0.01371
G1 X135.938 Y94.882 E0.01317
G1 X135.576 Y94.652 E0.01345
G1 X135.282 Y94.340 E0.01345
G1 X135.076 Y93.964 E0.01345
G1 X134.984 Y93.606 E0.01157
G1 X134.600 Y93.393 F6000.000
G1 F4800
G1 X134.969 Y93.119 E-0.20258
G1 F4800
G1 X135.076 Y92.703 E-0.17833
G1 F4800
G1 X135.282 Y92.327 E-0.17833
G1 F4800
G1 X135.576 Y92.015 E-0.17833
G1 F4800
G1 X135.622 Y91.986 E-0.02244
G1 E-0.04000 F2100.00000
G1 X114.859 Y115.237 F6000.000
G1 E0.80000 F2100.00000
G1 F840
G1 X115.169 Y115.670 E0.01669
G1 X115.359 Y116.148 E0.01613
G1 X115.424 Y116.668 E0.01644
G1 X115.359 Y117.188 E0.01644
G1 X115.166 Y117.676 E0.01644
G1 X114.858 Y118.100 E0.01644
G1 X114.454 Y118.434 E0.01644
G1 X113.979 Y118.657 E0.01644
G1 X113.464 Y118.756 E0.01644
G1 X112.941 Y118.723 E0.01644
G1 X112.442 Y118.561 E0.01644
G1 X111.999 Y118.280 E0.01644
G1 X111.640 Y117.898 E0.01644
G1 X111.388 Y117.438 E0.01644
G1 X111.257 Y116.930 E0.01644
G1 X111.257 Y116.406 E0.01644
G1 X111.388 Y115.898 E0.01644
G1 X111.640 Y115.439 E0.01644
G1 X111.999 Y115.056 E0.01644
G1 X112.442 Y114.775 E0.01644
G1 X112.941 Y114.613 E0.01644
G1 X113.454 Y114.581 E0.01613
G1 X113.978 Y114.678 E0.01669
G1 X114.454 Y114.902 E0.01649
G1 X114.813 Y115.199 E0.01461
G1 X114.581 Y115.497 F6000.000
G1 F840
G1 X114.836 Y115.852 E0.01371
G1 X114.991 Y116.242 E0.01317
G1 X115.044 Y116.668 E0.01345
G1 X114.991 Y117.094 E0.01345
G1 X114.833 Y117.493 E0.01345
G1 X114.580 Y117.840 E0.01345
G1 X114.250 Y118.113 E0.01345
G1 X113.862 Y118.296 E0.01345
G1 X113.440 Y118.376 E0.01345
G1 X113.012 Y118.349 E0.01345
G1 X112.604 Y118.217 E0.01345
G1 X112.242 Y117.987 E0.01345
G1 X111.948 Y117.674 E0.01345
G1 X111.741 Y117.298 E0.01345
G1 X111.635 Y116.883 E0.01345
G1 X111.635 Y116.454 E0.01345
G1 X111.741 Y116.038 E0.01345
G1 X111.948 Y115.662 E0.01345
G1 X112.242 Y115.349 E0.01345
G1 X112.604 Y115.119 E0.01345
G1 X113.012 Y114.987 E0.01345
G1 X113.431 Y114.960 E0.01317
G1 X113.861 Y115.040 E0.01371
G1 X114.250 Y115.223 E0.01347
G1 X114.535 Y115.459 E0.01159
G1 X114.971 Y115.407 F6000.000
G1 F4800
G1 X114.836 Y115.852 E-0.20591
G1 F4800
G1 X114.991 Y116.242 E-0.17462
G1 F4800
G1 X115.044 Y116.668 E-0.17833
G1 F4800
G1 X114.991 Y117.094 E-0.17833
G1 F4800
G1 X114.970 Y117.145 E-0.02282
G1 E-0.04000 F2100.00000
G1 X107.481 Y119.915 F6000.000
G1 E0.80000 F2100.00000
G1 F1680
G1 X106.560 Y118.759 E0.04636
G1 X106.031 Y118.020 E0.02849
G1 X105.721 Y117.557 E0.01746
G1 X104.953 Y116.291 E0.04642
G1 X104.270 Y114.981 E0.04632
G1 X103.819 Y113.985 E0.03428
G1 X103.266 Y112.548 E0.04830
G1 X102.810 Y111.079 E0.04821
G1 X102.454 Y109.584 E0.04821
G1 X102.198 Y108.067 E0.04821
G1 X102.044 Y106.538 E0.04821
G1 X101.993 Y105.000 E0.04822
G1 X102.040 Y103.527 E0.04623
G1 X102.182 Y102.059 E0.04624
G1 X102.417 Y100.603 E0.04624
G1 X102.745 Y99.165 E0.04624
G1 X103.165 Y97.751 E0.04624
G1 X103.674 Y96.367 E0.04624
G1 X104.274 Y95.012 E0.04645
G1 X104.464 Y94.628 E0.01345
G1 X104.952 Y93.713 E0.03250
G1 X105.718 Y92.450 E0.04633
G1 X106.565 Y91.236 E0.04641
G1 X106.943 Y90.743 E0.01947
G1 X107.479 Y90.090 E0.02649
G1 X108.473 Y88.995 E0.04637
G1 X109.535 Y87.966 E0.04637
G1 X110.147 Y87.431 E0.02548
G1 X110.651 Y87.016 E0.02047
G1 X111.837 Y86.131 E0.04641
G1 X113.076 Y85.325 E0.04634
G1 X113.946 Y84.823 E0.03150
G1 X114.353 Y84.605 E0.01445
G1 X115.689 Y83.962 E0.04651
G1 X116.729 Y83.532 E0.03527
G1 X118.184 Y83.027 E0.04829
G1 X119.666 Y82.620 E0.04821
G1 X121.173 Y82.314 E0.04821
G1 X122.697 Y82.109 E0.04821
G1 X124.231 Y82.007 E0.04822
G1 X125.738 Y82.006 E0.04723
G1 X127.209 Y82.100 E0.04624
G1 X128.672 Y82.289 E0.04624
G1 X130.120 Y82.571 E0.04624
G1 X131.546 Y82.945 E0.04624
G1 X132.946 Y83.409 E0.04624
G1 X134.313 Y83.963 E0.04624
G1 X135.642 Y84.603 E0.04624
G1 X136.932 Y85.329 E0.04643
G1 X137.378 Y85.607 E0.01646
G1 X138.160 Y86.129 E0.02949
G1 X139.345 Y87.013 E0.04635
G1 X140.471 Y87.972 E0.04639
G1 X140.994 Y88.462 E0.02248
G1 X141.524 Y88.992 E0.02348
G1 X142.519 Y90.087 E0.04639
G1 X143.440 Y91.243 E0.04636
G1 X143.969 Y91.982 E0.02849
G1 X144.279 Y92.445 E0.01746
G1 X145.047 Y93.711 E0.04642
G1 X145.730 Y95.021 E0.04632
G1 X146.181 Y96.016 E0.03428
G1 X146.734 Y97.454 E0.04830
G1 X147.190 Y98.922 E0.04821
G1 X147.546 Y100.418 E0.04821
G1 X147.802 Y101.934 E0.04821
G1 X147.956 Y103.464 E0.04821
G1 X148.007 Y105.001 E0.04822
G1 X147.960 Y106.475 E0.04623
G1 X147.818 Y107.943 E0.04624
G1 X147.619 Y109.175 E0.03914
G1 X147.583 Y109.399 E0.00710
G1 X147.255 Y110.837 E0.04624
