; generated by Slic3r 1.31.6-prusa3d on 2016-12-03 at 23:09:45

; external perimeters extrusion width = 0.45mm
; perimeters extrusion width = 0.45mm
; infill extrusion width = 0.45mm
; solid infill extrusion width = 0.45mm
; top infill extrusion width = 0.40mm

M107
M115 U3.0.9 ; tell printer latest fw version
M83  ; extruder relative mode
M104 S215 ; set extruder temp
M140 S55 ; set bed temp
M190 S55 ; wait for bed temp
M109 S215 ; wait for extruder temp
G28 W ; home all without mesh bed level
G80 ; mesh bed leveling
G1 Y-3.0 F1000.0 ; go outside pritn area
G1 X60.0 E9.0  F1000.0 ; intro line
G1 X100.0 E12.5  F1000.0 ; intro line
G21 ; set units to millimeters
G90 ; use absolute coordinates
M83 ; use relative distances for extrusion
G1 E-0.80000 F2100.00000
G1 Z0.200 F7200.000
G1 X115.525 Y98.536 F7200.000
G1 E0.80000 F2100.00000
M204 S1000
G1 F1162.039
G1 X116.189 Y97.653 E0.03465
G1 X116.999 Y96.777 E0.03741
G1 X117.763 Y96.103 E0.03194
G1 X118.660 Y95.443 E0.03492
G1 X119.679 Y94.838 E0.03716
G1 X120.682 Y94.371 E0.03469
G1 X121.816 Y93.978 E0.03763
G1 X122.800 Y93.744 E0.03170
G1 X123.899 Y93.584 E0.03484
G1 X125.070 Y93.533 E0.03674
G1 X126.101 Y93.584 E0.03237
G1 X127.393 Y93.783 E0.04100
G1 X128.443 Y94.057 E0.03399
G1 X129.551 Y94.469 E0.03708
G1 X130.493 Y94.933 E0.03293
G1 X131.452 Y95.519 E0.03523
G1 X132.389 Y96.228 E0.03685
G1 X133.192 Y96.968 E0.03424
G1 X133.975 Y97.854 E0.03709
G1 X134.583 Y98.701 E0.03268
G1 X135.153 Y99.667 E0.03516
G1 X135.647 Y100.736 E0.03693
G1 X136.009 Y101.775 E0.03451
G1 X136.283 Y102.925 E0.03706
G1 X136.414 Y103.899 E0.03083
G1 X136.463 Y105.075 E0.03690
G1 X136.404 Y106.225 E0.03610
G1 X136.231 Y107.340 E0.03537
G1 X135.931 Y108.484 E0.03711
G1 X135.571 Y109.446 E0.03218
G1 X135.090 Y110.453 E0.03500
G1 X134.475 Y111.464 E0.03709
G1 X133.811 Y112.347 E0.03465
G1 X133.001 Y113.223 E0.03741
G1 X132.237 Y113.897 E0.03194
G1 X131.340 Y114.557 E0.03492
G1 X130.321 Y115.162 E0.03716
G1 X129.318 Y115.629 E0.03469
G1 X128.184 Y116.022 E0.03763
G1 X127.200 Y116.256 E0.03170
G1 X126.101 Y116.416 E0.03484
G1 X125.070 Y116.467 E0.03237
G1 X123.899 Y116.416 E0.03674
G1 X122.800 Y116.256 E0.03484
G1 X121.816 Y116.022 E0.03170
G1 X120.682 Y115.629 E0.03763
G1 X119.679 Y115.162 E0.03469
G1 X118.660 Y114.557 E0.03716
G1 X117.763 Y113.897 E0.03492
G1 X116.999 Y113.223 E0.03194
G1 X116.189 Y112.347 E0.03741
G1 X115.525 Y111.464 E0.03465
G1 X114.910 Y110.453 E0.03709
G1 X114.353 Y109.264 E0.04117
G1 X113.991 Y108.225 E0.03451
G1 X113.717 Y107.075 E0.03706
G1 X113.580 Y106.050 E0.03243
G1 X113.531 Y104.932 E0.03508
G1 X113.598 Y103.754 E0.03701
G1 X113.769 Y102.660 E0.03470
G1 X114.069 Y101.516 E0.03711
G1 X114.428 Y100.554 E0.03218
G1 X114.910 Y99.547 E0.03500
G1 X115.492 Y98.586 E0.03521
G1 X115.840 Y98.743 F7200.000
G1 F1162.039
G1 X116.469 Y97.905 E0.03285
G1 X117.253 Y97.057 E0.03621
G1 X118.002 Y96.395 E0.03135
G1 X118.864 Y95.760 E0.03357
G1 X119.861 Y95.169 E0.03635
G1 X120.812 Y94.726 E0.03288
G1 X121.908 Y94.344 E0.03639
G1 X122.874 Y94.114 E0.03114
G1 X123.931 Y93.960 E0.03349
G1 X125.070 Y93.910 E0.03574
G1 X126.069 Y93.960 E0.03137
G1 X127.319 Y94.153 E0.03966
G1 X128.316 Y94.412 E0.03228
G1 X129.390 Y94.810 E0.03593
G1 X130.311 Y95.264 E0.03220
G1 X131.233 Y95.825 E0.03383
G1 X132.150 Y96.520 E0.03608
G1 X132.912 Y97.222 E0.03249
G1 X133.673 Y98.079 E0.03593
G1 X134.268 Y98.908 E0.03199
G1 X134.816 Y99.835 E0.03377
G1 X135.300 Y100.881 E0.03615
G1 X135.643 Y101.867 E0.03272
G1 X135.910 Y102.980 E0.03590
G1 X136.028 Y103.807 E0.02618
G1 X136.086 Y105.065 E0.03949
G1 X136.028 Y106.193 E0.03543
G1 X135.865 Y107.248 E0.03346
G1 X135.576 Y108.357 E0.03595
G1 X135.224 Y109.301 E0.03156
G1 X134.761 Y110.268 E0.03363
G1 X134.160 Y111.257 E0.03628
G1 X133.531 Y112.095 E0.03285
G1 X132.747 Y112.943 E0.03621
G1 X131.998 Y113.605 E0.03135
G1 X131.136 Y114.240 E0.03357
G1 X130.139 Y114.831 E0.03635
G1 X129.188 Y115.274 E0.03288
G1 X128.092 Y115.656 E0.03639
G1 X127.126 Y115.886 E0.03114
G1 X126.069 Y116.040 E0.03350
G1 X125.070 Y116.090 E0.03137
G1 X123.931 Y116.040 E0.03574
G1 X122.874 Y115.886 E0.03350
G1 X121.908 Y115.656 E0.03114
G1 X120.812 Y115.274 E0.03639
G1 X119.861 Y114.831 E0.03288
G1 X118.864 Y114.240 E0.03635
G1 X118.002 Y113.605 E0.03357
G1 X117.253 Y112.943 E0.03135
G1 X116.469 Y112.095 E0.03621
G1 X115.840 Y111.257 E0.03285
G1 X115.239 Y110.268 E0.03628
G1 X114.700 Y109.119 E0.03980
G1 X114.357 Y108.133 E0.03272
G1 X114.090 Y107.020 E0.03590
G1 X113.955 Y106.016 E0.03177
G1 X113.908 Y104.942 E0.03370
G1 X113.973 Y103.788 E0.03622
G1 X114.135 Y102.752 E0.03289
G1 X114.424 Y101.643 E0.03595
G1 X114.776 Y100.699 E0.03156
G1 X115.239 Y99.732 E0.03364
G1 X115.807 Y98.793 E0.03440
G1 F5760
G1 X115.919 Y98.629 E-0.06883
G1 F5760
G1 X116.327 Y98.079 E-0.23721
G1 F5760
G1 X116.469 Y97.905 E-0.07769
G1 F5760
G1 X116.622 Y97.736 E-0.07892
G1 F5760
G1 X116.628 Y97.729 E-0.00311
G1 F5760
G1 X117.088 Y97.222 E-0.23721
G1 F5760
G1 X117.204 Y97.105 E-0.05703
G1 E-0.04000 F2100.00000
G1 X118.457 Y100.246 F7200.000
G1 E0.80000 F2100.00000
G1 F929.631
G1 X118.990 Y99.588 E0.02654
G1 X119.588 Y98.990 E0.02654
G1 X120.246 Y98.457 E0.02654
G1 X120.956 Y97.996 E0.02654
G1 X121.710 Y97.611 E0.02654
G1 X122.501 Y97.308 E0.02654
G1 X123.318 Y97.089 E0.02654
G1 X124.155 Y96.956 E0.02654
G1 X124.989 Y96.913 E0.02620
G1 X125.845 Y96.956 E0.02687
G1 X126.682 Y97.089 E0.02656
G1 X127.499 Y97.308 E0.02654
G1 X128.290 Y97.611 E0.02654
G1 X129.044 Y97.996 E0.02654
G1 X129.754 Y98.457 E0.02654
G1 X130.412 Y98.990 E0.02654
G1 X131.010 Y99.588 E0.02654
G1 X131.543 Y100.246 E0.02654
G1 X132.004 Y100.956 E0.02654
G1 X132.389 Y101.710 E0.02654
G1 X132.692 Y102.501 E0.02654
G1 X132.911 Y103.318 E0.02654
G1 X133.044 Y104.155 E0.02654
G1 X133.088 Y105.000 E0.02654
G1 X133.044 Y105.845 E0.02654
G1 X132.911 Y106.682 E0.02654
G1 X132.692 Y107.499 E0.02654
G1 X132.389 Y108.290 E0.02654
G1 X132.004 Y109.044 E0.02654
G1 X131.543 Y109.754 E0.02654
G1 X131.010 Y110.412 E0.02654
G1 X130.412 Y111.011 E0.02656
G1 X129.745 Y111.549 E0.02687
G1 X129.044 Y112.004 E0.02620
G1 X128.290 Y112.389 E0.02654
G1 X127.499 Y112.692 E0.02654
G1 X126.682 Y112.911 E0.02654
G1 X125.845 Y113.044 E0.02654
G1 X125.000 Y113.088 E0.02654
G1 X124.155 Y113.044 E0.02654
G1 X123.318 Y112.911 E0.02654
G1 X122.501 Y112.692 E0.02654
G1 X121.710 Y112.389 E0.02654
G1 X120.956 Y112.004 E0.02654
G1 X120.246 Y111.543 E0.02654
G1 X119.588 Y111.010 E0.02654
G1 X118.990 Y110.412 E0.02654
G1 X118.457 Y109.754 E0.02654
G1 X117.995 Y109.044 E0.02656
G1 X117.607 Y108.279 E0.02687
G1 X117.308 Y107.499 E0.02620
G1 X117.089 Y106.682 E0.02654
G1 X116.956 Y105.845 E0.02654
G1 X116.912 Y105.000 E0.02654
G1 X116.956 Y104.155 E0.02654
G1 X117.089 Y103.318 E0.02654
G1 X117.308 Y102.501 E0.02654
G1 X117.611 Y101.710 E0.02654
G1 X117.996 Y100.956 E0.02654
G1 X118.424 Y100.296 E0.02466
G1 X118.762 Y100.468 F7200.000
G1 F900.000
G1 X119.270 Y99.841 E0.02530
G1 X119.841 Y99.270 E0.02530
G1 X120.468 Y98.762 E0.02530
G1 X121.145 Y98.323 E0.02530
G1 X121.864 Y97.956 E0.02530
G1 X122.617 Y97.667 E0.02530
G1 X123.397 Y97.458 E0.02530
G1 X124.194 Y97.332 E0.02530
G1 X124.989 Y97.290 E0.02497
G1 X125.806 Y97.332 E0.02563
G1 X126.603 Y97.458 E0.02531
G1 X127.383 Y97.667 E0.02530
G1 X128.136 Y97.956 E0.02530
G1 X128.855 Y98.323 E0.02530
G1 X129.532 Y98.762 E0.02530
G1 X130.159 Y99.270 E0.02530
G1 X130.730 Y99.841 E0.02530
G1 X131.238 Y100.468 E0.02530
G1 X131.677 Y101.145 E0.02530
G1 X132.044 Y101.864 E0.02530
G1 X132.333 Y102.617 E0.02530
G1 X132.542 Y103.397 E0.02530
G1 X132.668 Y104.194 E0.02530
G1 X132.710 Y105.000 E0.02530
G1 X132.668 Y105.806 E0.02530
G1 X132.542 Y106.603 E0.02530
G1 X132.333 Y107.383 E0.02530
G1 X132.044 Y108.136 E0.02530
G1 X131.677 Y108.855 E0.02530
G1 X131.238 Y109.532 E0.02530
G1 X130.730 Y110.159 E0.02530
G1 X130.159 Y110.730 E0.02531
G1 X129.523 Y111.244 E0.02563
G1 X128.855 Y111.677 E0.02497
G1 X128.136 Y112.044 E0.02530
G1 X127.383 Y112.333 E0.02530
G1 X126.603 Y112.542 E0.02530
G1 X125.806 Y112.668 E0.02530
G1 X125.000 Y112.710 E0.02530
G1 X124.194 Y112.668 E0.02530
G1 X123.397 Y112.542 E0.02530
G1 X122.617 Y112.333 E0.02530
G1 X121.864 Y112.044 E0.02530
G1 X121.145 Y111.677 E0.02530
G1 X120.468 Y111.238 E0.02530
G1 X119.841 Y110.730 E0.02530
G1 X119.270 Y110.159 E0.02530
G1 X118.762 Y109.532 E0.02530
G1 X118.323 Y108.855 E0.02531
G1 X117.952 Y108.126 E0.02563
G1 X117.667 Y107.383 E0.02497
G1 X117.458 Y106.603 E0.02530
G1 X117.332 Y105.806 E0.02530
G1 X117.290 Y105.000 E0.02530
G1 X117.332 Y104.194 E0.02530
G1 X117.458 Y103.397 E0.02530
G1 X117.667 Y102.617 E0.02530
G1 X117.956 Y101.864 E0.02530
G1 X118.323 Y101.145 E0.02530
G1 X118.730 Y100.518 E0.02342
G1 X118.600 Y100.103 F7200.000
G1 X118.691 Y99.868 F7200.000
G1 F929.631
G1 X119.263 Y99.236 E0.02671
G1 X119.879 Y98.690 E0.02581
G1 X120.476 Y98.248 E0.02328
G1 X121.283 Y97.770 E0.02941
G1 X121.852 Y97.501 E0.01973
G1 X122.653 Y97.213 E0.02671
G1 X123.454 Y97.021 E0.02581
G1 X124.191 Y96.913 E0.02335
G1 X124.933 Y96.875 E0.02331
G1 X125.757 Y96.909 E0.02585
G1 X126.547 Y97.022 E0.02503
G1 X127.347 Y97.213 E0.02577
G1 X128.148 Y97.501 E0.02671
G1 X128.717 Y97.770 E0.01973
G1 X129.524 Y98.248 E0.02941
G1 X130.121 Y98.690 E0.02328
G1 X130.737 Y99.236 E0.02581
G1 X131.309 Y99.868 E0.02671
G1 X131.684 Y100.373 E0.01973
G1 X132.171 Y101.175 E0.02941
G1 X132.489 Y101.845 E0.02328
G1 X132.776 Y102.617 E0.02582
G1 X132.982 Y103.443 E0.02670
G1 X133.075 Y104.064 E0.01968
G1 X133.122 Y105.000 E0.02937
G1 X133.075 Y105.936 E0.02937
G1 X132.982 Y106.557 E0.01968
G1 X132.776 Y107.383 E0.02670
G1 X132.489 Y108.155 E0.02582
G1 X132.171 Y108.825 E0.02328
G1 X131.684 Y109.627 E0.02941
G1 X131.309 Y110.132 E0.01973
G1 X130.737 Y110.764 E0.02671
G1 X130.121 Y111.310 E0.02581
G1 X129.524 Y111.752 E0.02328
G1 X128.717 Y112.230 E0.02941
G1 X128.148 Y112.499 E0.01973
G1 X127.347 Y112.787 E0.02671
G1 X126.546 Y112.978 E0.02581
G1 X125.809 Y113.087 E0.02335
G1 X125.068 Y113.125 E0.02328
G1 X124.189 Y113.087 E0.02759
G1 X123.454 Y112.978 E0.02328
G1 X122.653 Y112.787 E0.02581
G1 X121.852 Y112.499 E0.02671
G1 X121.283 Y112.230 E0.01973
G1 X120.476 Y111.752 E0.02941
G1 X119.879 Y111.310 E0.02328
G1 X119.263 Y110.764 E0.02581
G1 X118.691 Y110.132 E0.02671
G1 X118.316 Y109.627 E0.01973
G1 X117.829 Y108.825 E0.02941
G1 X117.511 Y108.155 E0.02328
G1 X117.224 Y107.383 E0.02582
G1 X117.018 Y106.560 E0.02659
G1 X116.908 Y105.744 E0.02582
G1 X116.873 Y105.003 E0.02328
G1 X116.925 Y104.066 E0.02941
G1 X117.018 Y103.443 E0.01973
G1 X117.224 Y102.617 E0.02670
G1 X117.511 Y101.845 E0.02582
G1 X117.829 Y101.175 E0.02328
G1 X118.316 Y100.373 E0.02941
G1 X118.656 Y99.916 E0.01785
G1 F5760
G1 X119.263 Y99.236 E-0.31570
G1 F5760
G1 X119.879 Y98.690 E-0.28514
G1 F5760
G1 X120.248 Y98.417 E-0.15915
G1 E-0.04000 F2100.00000
G1 X118.997 Y98.968 F7200.000
G1 E0.80000 F2100.00000
G1 F900.000
G1 X119.641 Y98.397 E0.02699
G1 X120.267 Y97.934 E0.02441
G1 X121.106 Y97.437 E0.03056
G1 X121.707 Y97.153 E0.02085
G1 X122.545 Y96.851 E0.02794
G1 X123.383 Y96.651 E0.02699
G1 X124.154 Y96.537 E0.02443
G1 X124.931 Y96.497 E0.02442
G1 X125.791 Y96.533 E0.02699
G1 X126.618 Y96.651 E0.02618
G1 X127.455 Y96.851 E0.02697
G1 X128.293 Y97.153 E0.02794
G1 X128.894 Y97.437 E0.02085
G1 X129.733 Y97.934 E0.03056
G1 X130.359 Y98.397 E0.02441
G1 X131.003 Y98.968 E0.02699
G1 X131.601 Y99.628 E0.02793
G1 X131.997 Y100.162 E0.02085
G1 X132.503 Y100.995 E0.03056
G1 X132.837 Y101.699 E0.02441
G1 X133.137 Y102.506 E0.02699
G1 X133.353 Y103.370 E0.02793
G1 X133.450 Y104.027 E0.02083
G1 X133.500 Y105.000 E0.03055
G1 X133.450 Y105.973 E0.03055
G1 X133.353 Y106.630 E0.02083
G1 X133.137 Y107.494 E0.02793
G1 X132.837 Y108.301 E0.02699
G1 X132.503 Y109.005 E0.02441
G1 X131.997 Y109.838 E0.03056
G1 X131.601 Y110.372 E0.02085
G1 X131.003 Y111.032 E0.02793
G1 X130.359 Y111.603 E0.02699
G1 X129.733 Y112.066 E0.02441
G1 X128.894 Y112.563 E0.03056
G1 X128.293 Y112.847 E0.02085
G1 X127.455 Y113.149 E0.02794
G1 X126.617 Y113.349 E0.02699
G1 X125.846 Y113.463 E0.02443
G1 X125.069 Y113.503 E0.02441
G1 X124.153 Y113.463 E0.02876
G1 X123.383 Y113.349 E0.02441
G1 X122.545 Y113.149 E0.02699
G1 X121.707 Y112.847 E0.02794
G1 X121.106 Y112.563 E0.02085
G1 X120.267 Y112.066 E0.03056
G1 X119.641 Y111.603 E0.02441
G1 X118.997 Y111.032 E0.02699
G1 X118.399 Y110.372 E0.02793
G1 X118.003 Y109.838 E0.02085
G1 X117.497 Y109.005 E0.03056
G1 X117.163 Y108.301 E0.02441
G1 X116.863 Y107.494 E0.02699
G1 X116.648 Y106.631 E0.02789
G1 X116.532 Y105.779 E0.02699
G1 X116.495 Y105.001 E0.02441
G1 X116.550 Y104.028 E0.03057
G1 X116.647 Y103.370 E0.02085
G1 X116.863 Y102.506 E0.02793
G1 X117.163 Y101.699 E0.02699
G1 X117.497 Y100.995 E0.02441
G1 X118.003 Y100.162 E0.03056
G1 X118.399 Y99.628 E0.02085
G1 X118.957 Y99.012 E0.02605
G1 X119.382 Y99.075 F7200.000
M106 S255
M104 S205 ; set temperature
G1 F5760
G1 X119.641 Y98.397 E-0.31878
G1 F5760
G1 X120.267 Y97.934 E-0.26965
G1 F5760
G1 X120.693 Y97.681 E-0.17157
G1 E-0.04000 F2100.00000
G1 Z0.400 F7200.000
G1 X118.956 Y99.558 F7200.000
G1 E0.80000 F2100.00000
M204 S800
G1 F900.000
G1 X119.558 Y98.956 E0.02882
G1 X120.220 Y98.420 E0.02882
G1 X120.934 Y97.957 E0.02882
G1 X121.692 Y97.570 E0.02882
G1 X122.487 Y97.265 E0.02882
G1 X123.309 Y97.045 E0.02882
G1 X124.150 Y96.912 E0.02882
G1 X124.967 Y96.869 E0.02770
G1 X125.849 Y96.911 E0.02988
G1 X126.691 Y97.045 E0.02886
G1 X127.513 Y97.265 E0.02882
G1 X128.308 Y97.570 E0.02882
G1 X129.066 Y97.957 E0.02882
G1 X129.780 Y98.420 E0.02882
G1 X130.442 Y98.956 E0.02882
G1 X131.044 Y99.558 E0.02882
G1 X131.580 Y100.220 E0.02882
G1 X132.043 Y100.934 E0.02882
G1 X132.430 Y101.692 E0.02882
G1 X132.735 Y102.487 E0.02882
G1 X132.955 Y103.309 E0.02882
G1 X133.088 Y104.150 E0.02882
G1 X133.133 Y105.000 E0.02882
G1 X133.088 Y105.850 E0.02882
G1 X132.955 Y106.691 E0.02882
G1 X132.735 Y107.513 E0.02882
G1 X132.430 Y108.308 E0.02882
G1 X132.043 Y109.066 E0.02882
G1 X131.580 Y109.780 E0.02882
G1 X131.044 Y110.442 E0.02882
G1 X130.441 Y111.045 E0.02886
G1 X129.753 Y111.598 E0.02988
G1 X129.066 Y112.043 E0.02770
G1 X128.308 Y112.430 E0.02882
G1 X127.513 Y112.735 E0.02882
G1 X126.691 Y112.955 E0.02882
G1 X125.850 Y113.088 E0.02882
G1 X125.000 Y113.133 E0.02882
G1 X124.150 Y113.088 E0.02882
G1 X123.309 Y112.955 E0.02882
G1 X122.487 Y112.735 E0.02882
G1 X121.692 Y112.430 E0.02882
G1 X120.934 Y112.043 E0.02882
G1 X120.220 Y111.580 E0.02882
G1 X119.558 Y111.044 E0.02882
G1 X118.956 Y110.442 E0.02882
G1 X118.420 Y109.780 E0.02882
G1 X117.957 Y109.066 E0.02882
G1 X117.570 Y108.308 E0.02882
G1 X117.265 Y107.513 E0.02882
G1 X117.045 Y106.691 E0.02882
G1 X116.912 Y105.850 E0.02882
G1 X116.867 Y105.000 E0.02882
G1 X116.912 Y104.150 E0.02882
G1 X117.045 Y103.309 E0.02882
G1 X117.265 Y102.487 E0.02882
G1 X117.570 Y101.692 E0.02882
G1 X117.957 Y100.934 E0.02882
G1 X118.420 Y100.220 E0.02882
G1 X118.918 Y99.605 E0.02678
M204 S1000
G1 X119.259 Y99.831 F7200.000
M204 S800
G1 F900.000
G1 X119.831 Y99.259 E0.02737
G1 X120.459 Y98.750 E0.02737
G1 X121.137 Y98.310 E0.02737
G1 X121.858 Y97.943 E0.02737
G1 X122.613 Y97.653 E0.02737
G1 X123.394 Y97.444 E0.02737
G1 X124.192 Y97.317 E0.02737
G1 X124.968 Y97.276 E0.02629
G1 X125.807 Y97.317 E0.02843
G1 X126.606 Y97.444 E0.02739
G1 X127.387 Y97.653 E0.02737
G1 X128.142 Y97.943 E0.02737
G1 X128.863 Y98.310 E0.02737
G1 X129.541 Y98.750 E0.02737
G1 X130.169 Y99.259 E0.02737
G1 X130.741 Y99.831 E0.02737
G1 X131.250 Y100.459 E0.02737
G1 X131.690 Y101.137 E0.02737
G1 X132.057 Y101.858 E0.02737
G1 X132.347 Y102.613 E0.02737
G1 X132.556 Y103.394 E0.02737
G1 X132.683 Y104.192 E0.02737
G1 X132.725 Y105.000 E0.02737
G1 X132.683 Y105.808 E0.02737
G1 X132.556 Y106.606 E0.02737
G1 X132.347 Y107.387 E0.02737
G1 X132.057 Y108.142 E0.02737
G1 X131.690 Y108.863 E0.02737
G1 X131.250 Y109.541 E0.02737
G1 X130.741 Y110.169 E0.02737
G1 X130.169 Y110.741 E0.02739
G1 X129.514 Y111.267 E0.02843
G1 X128.863 Y111.690 E0.02629
G1 X128.142 Y112.057 E0.02737
G1 X127.387 Y112.347 E0.02737
G1 X126.606 Y112.556 E0.02737
