; generated by Slic3r 1.2.9 on 2016-11-25 at 20:40:15

; external perimeters extrusion width = 0.70mm
; perimeters extrusion width = 0.70mm
; infill extrusion width = 0.70mm
; solid infill extrusion width = 0.70mm
; top infill extrusion width = 0.74mm

M107
M115 U3.0.8 ; tell printer latest fw version
M83  ; extruder relative mode
M104 S210 ; set extruder temp
M140 S55 ; set bed temp
M190 S55 ; wait for bed temp
M109 S210 ; wait for extruder temp
G28 W ; home all without mesh bed level
G80 ; mesh bed leveling
G1 Y-3.0 F1000.0 ; go outside pritn area
G1 X60.0 E9.0  F1000.0 ; intro line
G1 X100.0 E12.5  F1000.0 ; intro line
G21 ; set units to millimeters
G90 ; use absolute coordinates
M83 ; use relative distances for extrusion
G1 E-0.80000 F2100.00000
G1 Z0.150 F6000.000
G1 Z0.300 F6000.000
G1 X102.004 Y48.690 F6000.000
G1 Z0.150 F6000.000
G1 E0.80000 F2100.00000
M204 S1000
G1 X103.050 Y47.809 E0.03307 F1800.000
G1 X104.000 Y47.612 E0.02346
G1 X146.000 Y47.612 E1.01577
G1 X147.310 Y48.004 E0.03307
G1 X148.191 Y49.050 E0.03307
G1 X148.388 Y50.000 E0.02346
G1 X148.388 Y160.000 E2.66034
G1 X147.996 Y161.310 E0.03307
G1 X146.950 Y162.191 E0.03307
G1 X146.000 Y162.388 E0.02346
G1 X104.000 Y162.388 E1.01577
G1 X102.690 Y161.996 E0.03307
G1 X101.809 Y160.950 E0.03307
G1 X101.612 Y160.000 E0.02346
G1 X101.612 Y50.000 E2.66034
G1 X101.987 Y48.747 E0.03162
G1 F4800
G1 X103.050 Y47.809 E-0.58940
G1 F4800
G1 X103.452 Y47.726 E-0.17060
G1 E-0.04000 F2100.00000
G1 Z0.300 F6000.000
G1 X142.392 Y151.747 F6000.000
G1 Z0.150 F6000.000
G1 E0.80000 F2100.00000
G1 X142.671 Y152.084 E0.01058 F720.000
G1 X142.870 Y152.493 E0.01101
G1 X142.970 Y152.943 E0.01114
G1 X142.956 Y153.439 E0.01200
G1 X142.832 Y153.889 E0.01130
G1 X142.606 Y154.303 E0.01140
G1 X142.266 Y154.682 E0.01232
G1 X141.820 Y154.935 E0.01241
G1 X141.352 Y155.072 E0.01179
G1 X140.865 Y155.098 E0.01179
G1 X140.631 Y155.055 E0.00576
G1 X140.327 Y154.968 E0.00765
G1 X139.912 Y154.735 E0.01150
G1 X139.585 Y154.438 E0.01069
G1 X139.343 Y154.099 E0.01008
G1 X139.157 Y153.655 E0.01163
G1 X139.099 Y153.314 E0.00837
G1 X139.088 Y153.112 E0.00489
G1 X139.140 Y152.686 E0.01039
G1 X139.294 Y152.275 E0.01061
G1 X139.525 Y151.929 E0.01005
G1 X139.804 Y151.647 E0.00958
G1 X140.130 Y151.427 E0.00952
G1 X140.508 Y151.274 E0.00986
G1 X140.836 Y151.217 E0.00805
G1 X141.299 Y151.222 E0.01121
G1 X141.693 Y151.323 E0.00983
G1 X142.058 Y151.492 E0.00973
G1 X142.344 Y151.710 E0.00872
G1 X142.122 Y152.028 F6000.000
G1 X142.342 Y152.295 E0.00838 F720.000
G1 X142.502 Y152.622 E0.00878
G1 X142.581 Y152.980 E0.00887
G1 X142.570 Y153.381 E0.00970
G1 X142.470 Y153.742 E0.00907
G1 X142.287 Y154.077 E0.00923
G1 X142.019 Y154.376 E0.00970
G1 X141.667 Y154.576 E0.00979
G1 X141.286 Y154.687 E0.00960
G1 X140.890 Y154.708 E0.00960
G1 X140.719 Y154.677 E0.00420
G1 X140.477 Y154.607 E0.00609
G1 X140.140 Y154.418 E0.00935
G1 X139.876 Y154.179 E0.00861
G1 X139.684 Y153.909 E0.00802
G1 X139.532 Y153.546 E0.00951
G1 X139.485 Y153.271 E0.00676
G1 X139.477 Y153.125 E0.00353
G1 X139.519 Y152.778 E0.00844
G1 X139.641 Y152.453 E0.00840
G1 X139.827 Y152.176 E0.00807
G1 X140.053 Y151.947 E0.00777
G1 X140.313 Y151.771 E0.00760
G1 X140.615 Y151.649 E0.00788
G1 X140.867 Y151.605 E0.00620
G1 X141.248 Y151.609 E0.00921
G1 X141.562 Y151.690 E0.00783
G1 X141.856 Y151.826 E0.00785
G1 X142.074 Y151.992 E0.00662
G1 X142.458 Y151.945 F6000.000
G1 F4800
G1 X142.342 Y152.295 E-0.16841
G1 F4800
G1 X142.502 Y152.622 E-0.15093
G1 F4800
G1 X142.581 Y152.980 E-0.15243
G1 F4800
G1 X142.570 Y153.381 E-0.16674
G1 F4800
G1 X142.492 Y153.663 E-0.12149
G1 E-0.04000 F2100.00000
G1 Z0.300 F6000.000
G1 X142.598 Y143.561 F6000.000
G1 Z0.150 F6000.000
G1 E0.80000 F2100.00000
G1 X138.402 Y143.561 E0.10147 F1440.000
G1 X138.402 Y122.366 E0.51261
G1 X142.598 Y122.366 E0.10147
G1 X142.598 Y143.501 E0.51116
G1 X142.210 Y143.174 F6000.000
G1 X138.790 Y143.174 E0.08271 F1080.000
G1 X138.790 Y122.754 E0.49386
G1 X142.210 Y122.754 E0.08271
G1 X142.210 Y143.114 E0.49240
G1 X142.210 Y143.574 F6000.000
G1 F4800
G1 X140.382 Y143.146 E-0.76000
G1 E-0.04000 F2100.00000
G1 Z0.300 F6000.000
G1 X140.847 Y65.099 F6000.000
G1 Z0.150 F6000.000
G1 E0.80000 F2100.00000
G1 X140.337 Y64.973 E0.01270 F720.000
G1 X139.912 Y64.735 E0.01179
G1 X139.585 Y64.438 E0.01069
G1 X139.346 Y64.103 E0.00996
G1 X139.202 Y63.776 E0.00863
G1 X139.124 Y63.497 E0.00699
G1 X139.086 Y63.126 E0.00903
G1 X139.140 Y62.686 E0.01073
G1 X139.293 Y62.276 E0.01057
G1 X139.509 Y61.951 E0.00945
G1 X139.714 Y61.728 E0.00732
G1 X139.950 Y61.537 E0.00734
G1 X140.311 Y61.342 E0.00991
G1 X140.609 Y61.250 E0.00756
G1 X140.910 Y61.208 E0.00735
G1 X141.308 Y61.224 E0.00964
G1 X141.693 Y61.323 E0.00960
G1 X142.058 Y61.492 E0.00973
G1 X142.392 Y61.747 E0.01017
G1 X142.671 Y62.084 E0.01058
G1 X142.870 Y62.493 E0.01101
G1 X142.966 Y62.924 E0.01067
G1 X142.975 Y63.192 E0.00648
G1 X142.951 Y63.457 E0.00644
G1 X142.832 Y63.889 E0.01083
G1 X142.606 Y64.303 E0.01140
G1 X142.266 Y64.682 E0.01232
G1 X141.820 Y64.935 E0.01241
G1 X141.352 Y65.072 E0.01179
G1 X140.907 Y65.095 E0.01078
G1 X140.884 Y64.708 F6000.000
G1 X140.481 Y64.609 E0.01004 F720.000
G1 X140.140 Y64.418 E0.00945
G1 X139.876 Y64.179 E0.00861
G1 X139.685 Y63.910 E0.00798
G1 X139.568 Y63.645 E0.00700
G1 X139.507 Y63.425 E0.00553
G1 X139.477 Y63.130 E0.00717
G1 X139.519 Y62.778 E0.00856
G1 X139.641 Y62.453 E0.00839
G1 X139.815 Y62.191 E0.00763
G1 X139.980 Y62.011 E0.00590
G1 X140.166 Y61.861 E0.00577
G1 X140.461 Y61.702 E0.00812
G1 X140.694 Y61.630 E0.00589
G1 X140.929 Y61.597 E0.00574
G1 X141.251 Y61.610 E0.00780
G1 X141.562 Y61.690 E0.00775
G1 X141.856 Y61.826 E0.00785
G1 X142.122 Y62.028 E0.00807
G1 X142.342 Y62.295 E0.00838
G1 X142.502 Y62.622 E0.00878
G1 X142.579 Y62.973 E0.00871
G1 X142.587 Y63.181 E0.00503
G1 X142.568 Y63.387 E0.00501
G1 X142.470 Y63.742 E0.00891
G1 X142.287 Y64.077 E0.00923
G1 X142.019 Y64.376 E0.00970
G1 X141.667 Y64.576 E0.00979
G1 X141.286 Y64.687 E0.00960
G1 X140.944 Y64.705 E0.00830
G1 X140.636 Y65.023 F6000.000
G1 F4800
G1 X140.481 Y64.609 E-0.19651
G1 F4800
G1 X140.140 Y64.418 E-0.16237
G1 F4800
G1 X139.876 Y64.179 E-0.14800
G1 F4800
G1 X139.685 Y63.910 E-0.13712
G1 F4800
G1 X139.573 Y63.655 E-0.11599
G1 E-0.04000 F2100.00000
G1 Z0.300 F6000.000
G1 X141.584 Y73.402 F6000.000
G1 Z0.150 F6000.000
G1 E0.80000 F2100.00000
G1 X134.753 Y73.402 E0.16520 F1440.000
G1 X134.753 Y50.598 E0.55152
G1 X145.402 Y50.598 E0.25755
G1 X145.402 Y159.402 E2.63142
G1 X122.606 Y159.402 E0.55133
G1 X122.606 Y153.598 E0.14038
G1 X124.509 Y153.598 E0.04605
G1 X124.509 Y122.402 E0.75446
G1 X122.606 Y122.402 E0.04605
G1 X122.606 Y116.598 E0.14038
G1 X144.546 Y116.598 E0.53063
G1 X144.546 Y100.402 E0.39169
G1 X141.657 Y100.402 E0.06986
G1 X141.657 Y90.402 E0.24185
G1 X141.584 Y90.402 E0.00177
G1 X141.584 Y73.462 E0.40969
G1 X141.196 Y73.790 F6000.000
G1 X134.365 Y73.790 E0.16520 F1080.000
G1 X134.365 Y50.210 E0.57028
G1 X145.790 Y50.210 E0.27630
G1 X145.790 Y159.790 E2.65018
G1 X122.218 Y159.790 E0.57009
G1 X122.218 Y153.210 E0.15914
G1 X124.122 Y153.210 E0.04605
G1 X124.122 Y122.790 E0.73570
G1 X122.218 Y122.790 E0.04605
G1 X122.218 Y116.210 E0.15914
G1 X144.158 Y116.210 E0.53063
G1 X144.158 Y100.790 E0.37293
G1 X141.270 Y100.790 E0.06986
G1 X141.270 Y90.790 E0.24185
G1 X141.196 Y90.790 E0.00177
G1 X141.196 Y73.850 E0.40969
G1 X141.196 Y73.390 F6000.000
G1 X141.870 Y73.840 F6000.000
G1 X145.117 Y77.087 E0.11202 F2160.000
G1 X145.117 Y77.640 E0.01349
G1 X141.870 Y74.393 E0.11202
G1 X141.870 Y74.946 E0.01349
G1 X145.117 Y78.193 E0.11202
G1 X145.117 Y78.746 E0.01349
G1 X141.870 Y75.499 E0.11202
G1 X141.870 Y76.052 E0.01349
G1 X145.117 Y79.300 E0.11202
G1 X145.117 Y79.853 E0.01349
G1 X141.870 Y76.606 E0.11202
G1 X141.870 Y77.159 E0.01349
G1 X145.117 Y80.406 E0.11202
G1 X145.117 Y80.959 E0.01349
G1 X141.870 Y77.712 E0.11202
G1 X141.870 Y78.265 E0.01349
G1 X145.117 Y81.512 E0.11202
G1 X145.117 Y82.065 E0.01349
G1 X141.870 Y78.818 E0.11202
G1 X141.870 Y79.371 E0.01349
G1 X145.117 Y82.619 E0.11202
G1 X145.117 Y83.172 E0.01349
G1 X141.870 Y79.925 E0.11202
G1 X141.870 Y80.478 E0.01349
G1 X145.117 Y83.725 E0.11202
G1 X145.117 Y84.278 E0.01349
G1 X141.870 Y81.031 E0.11202
G1 X141.870 Y81.584 E0.01349
G1 X145.117 Y84.831 E0.11202
G1 X145.117 Y85.385 E0.01349
G1 X141.870 Y82.137 E0.11202
G1 X141.870 Y82.691 E0.01349
G1 X145.117 Y85.938 E0.11202
G1 X145.117 Y86.491 E0.01349
G1 X141.870 Y83.244 E0.11202
G1 X141.870 Y83.797 E0.01349
G1 X145.117 Y87.044 E0.11202
G1 X145.117 Y87.597 E0.01349
G1 X141.870 Y84.350 E0.11202
G1 X141.870 Y84.903 E0.01349
G1 X145.117 Y88.150 E0.11202
G1 X145.117 Y88.704 E0.01349
G1 X141.870 Y85.456 E0.11202
G1 X141.870 Y86.010 E0.01349
G1 X145.117 Y89.257 E0.11202
G1 X145.117 Y89.810 E0.01349
G1 X141.870 Y86.563 E0.11202
G1 X141.870 Y87.116 E0.01349
G1 X145.117 Y90.363 E0.11202
G1 X145.117 Y90.916 E0.01349
G1 X141.870 Y87.669 E0.11202
G1 X141.870 Y88.222 E0.01349
G1 X145.117 Y91.469 E0.11202
G1 X145.117 Y92.023 E0.01349
G1 X141.870 Y88.775 E0.11202
G1 X141.870 Y89.329 E0.01349
G1 X145.117 Y92.576 E0.11202
G1 X145.117 Y93.129 E0.01349
G1 X141.870 Y89.882 E0.11202
G1 X142.104 Y90.117 E0.00810
G1 X141.943 Y90.508 E0.01033
G1 X145.117 Y93.682 E0.10949
G1 X145.117 Y94.235 E0.01349
G1 X141.943 Y91.061 E0.10949
G1 X141.943 Y91.615 E0.01349
G1 X145.117 Y94.788 E0.10949
G1 X145.117 Y95.342 E0.01349
G1 X141.943 Y92.168 E0.10949
G1 X141.943 Y92.721 E0.01349
G1 X145.117 Y95.895 E0.10949
G1 X145.117 Y96.448 E0.01349
G1 X141.943 Y93.274 E0.10949
G1 X141.943 Y93.827 E0.01349
G1 X145.117 Y97.001 E0.10949
G1 X145.117 Y97.554 E0.01349
G1 X141.943 Y94.381 E0.10949
G1 X141.943 Y94.934 E0.01349
G1 X145.117 Y98.107 E0.10949
G1 X145.117 Y98.661 E0.01349
G1 X141.943 Y95.487 E0.10949
G1 X141.943 Y96.040 E0.01349
G1 X145.117 Y99.214 E0.10949
G1 X145.117 Y99.767 E0.01349
G1 X141.943 Y96.593 E0.10949
G1 X141.943 Y97.146 E0.01349
G1 X144.719 Y99.923 E0.09578
G1 X144.269 Y100.025 E0.01127
G1 X141.943 Y97.700 E0.08023
G1 X141.943 Y98.253 E0.01349
G1 X143.807 Y100.117 E0.06430
G1 X143.254 Y100.117 E0.01349
G1 X141.943 Y98.806 E0.04522
G1 X141.943 Y99.359 E0.01349
G1 X142.701 Y100.117 E0.02614
G1 X142.147 Y100.117 E0.01349
G1 X141.943 Y99.912 E0.00705
G1 F4800
G1 X142.147 Y100.117 E-0.12016
G1 F4800
G1 X142.701 Y100.117 E-0.22991
G1 F4800
G1 X142.003 Y99.419 E-0.40992
G1 E-0.04000 F2100.00000
G1 Z0.300 F6000.000
G1 X135.615 Y73.117 F6000.000
G1 Z0.150 F6000.000
G1 E0.80000 F2100.00000
G1 X135.039 Y72.541 E0.01987 F2160.000
G1 X135.039 Y71.987 E0.01349
G1 X136.168 Y73.117 E0.03895
G1 X136.721 Y73.117 E0.01349
G1 X135.039 Y71.434 E0.05804
G1 X135.039 Y70.881 E0.01349
G1 X137.274 Y73.117 E0.07712
G1 X137.827 Y73.117 E0.01349
G1 X135.039 Y70.328 E0.09620
G1 X135.039 Y69.775 E0.01349
G1 X138.381 Y73.117 E0.11529
G1 X138.934 Y73.117 E0.01349
G1 X135.039 Y69.222 E0.13437
G1 X135.039 Y68.668 E0.01349
G1 X139.487 Y73.117 E0.15345
G1 X140.040 Y73.117 E0.01349
G1 X135.039 Y68.115 E0.17253
G1 X135.039 Y67.562 E0.01349
G1 X140.593 Y73.117 E0.19162
G1 X141.146 Y73.117 E0.01349
G1 X135.039 Y67.009 E0.21070
G1 X135.039 Y66.456 E0.01349
G1 X145.117 Y76.534 E0.34766
G1 X145.117 Y75.981 E0.01349
G1 X135.039 Y65.903 E0.34766
G1 X135.039 Y65.349 E0.01349
G1 X145.117 Y75.427 E0.34766
G1 X145.117 Y74.874 E0.01349
G1 X135.039 Y64.796 E0.34766
G1 X135.039 Y64.243 E0.01349
G1 X145.117 Y74.321 E0.34766
G1 X145.117 Y73.768 E0.01349
G1 X135.039 Y63.690 E0.34766
G1 X135.039 Y63.137 E0.01349
G1 X145.117 Y73.215 E0.34766
G1 X145.117 Y72.662 E0.01349
G1 X135.039 Y62.584 E0.34766
G1 X135.039 Y62.030 E0.01349
G1 X145.117 Y72.108 E0.34766
G1 X145.117 Y71.555 E0.01349
G1 X135.039 Y61.477 E0.34766
G1 F4800
G1 X136.332 Y62.770 E-0.76000
G1 E-0.04000 F2100.00000
G1 Z0.300 F6000.000
G1 X138.841 Y63.620 F6000.000
G1 Z0.150 F6000.000
G1 E0.80000 F2100.00000
G1 X135.039 Y59.818 E0.13116 F2160.000
G1 X135.039 Y59.265 E0.01349
G1 X138.818 Y63.044 E0.13038
G1 X138.902 Y62.575 E0.01163
G1 X135.039 Y58.711 E0.13327
G1 X135.039 Y58.158 E0.01349
G1 X139.056 Y62.175 E0.13858
G1 X139.276 Y61.843 E0.00974
G1 X135.039 Y57.605 E0.14618
G1 X135.039 Y57.052 E0.01349
G1 X139.536 Y61.550 E0.15516
G1 X139.843 Y61.303 E0.00960
G1 X135.039 Y56.499 E0.16573
G1 X135.039 Y55.946 E0.01349
G1 X140.203 Y61.109 E0.17814
G1 X140.618 Y60.971 E0.01067
G1 X135.039 Y55.392 E0.19246
G1 X135.039 Y54.839 E0.01349
G1 X141.127 Y60.927 E0.21002
G1 X141.779 Y61.026 E0.01609
G1 X135.039 Y54.286 E0.23252
G1 F4800
G1 X136.332 Y55.579 E-0.76000
G1 E-0.04000 F2100.00000
G1 Z0.300 F6000.000
G1 X145.117 Y51.088 F6000.000
G1 Z0.150 F6000.000
G1 E0.80000 F2100.00000
G1 X144.912 Y50.883 E0.00706 F2160.000
G1 X144.359 Y50.883 E0.01349
G1 X145.117 Y51.641 E0.02614
G1 X145.117 Y52.194 E0.01349
G1 X143.806 Y50.883 E0.04522
G1 X143.253 Y50.883 E0.01349
G1 X145.117 Y52.747 E0.06430
G1 X145.117 Y53.301 E0.01349
G1 X142.699 Y50.883 E0.08339
G1 X142.146 Y50.883 E0.01349
G1 X145.117 Y53.854 E0.10247
G1 X145.117 Y54.407 E0.01349
G1 X141.593 Y50.883 E0.12155
G1 X141.040 Y50.883 E0.01349
G1 X145.117 Y54.960 E0.14064
G1 X145.117 Y55.513 E0.01349
G1 X140.487 Y50.883 E0.15972
G1 X139.934 Y50.883 E0.01349
G1 X145.117 Y56.066 E0.17880
G1 X145.117 Y56.620 E0.01349
G1 X139.380 Y50.883 E0.19789
G1 X138.827 Y50.883 E0.01349
G1 X145.117 Y57.173 E0.21697
G1 X145.117 Y57.726 E0.01349
G1 X138.274 Y50.883 E0.23605
G1 X137.721 Y50.883 E0.01349
G1 X145.117 Y58.279 E0.25513
G1 X145.117 Y58.832 E0.01349
G1 X137.168 Y50.883 E0.27422
G1 X136.615 Y50.883 E0.01349
G1 X145.117 Y59.385 E0.29330
G1 X145.117 Y59.939 E0.01349
G1 X136.061 Y50.883 E0.31238
G1 X135.508 Y50.883 E0.01349
G1 X145.117 Y60.492 E0.33147
G1 X145.117 Y61.045 E0.01349
G1 X135.039 Y50.967 E0.34766
G1 X135.039 Y51.520 E0.01349
G1 X145.117 Y61.598 E0.34766
G1 X145.117 Y62.151 E0.01349
G1 X135.039 Y52.073 E0.34766
G1 X135.039 Y52.626 E0.01349
G1 X145.117 Y62.704 E0.34766
G1 X145.117 Y63.258 E0.01349
G1 X135.039 Y53.180 E0.34766
G1 X135.039 Y53.733 E0.01349
G1 X145.117 Y63.811 E0.34766
G1 X145.117 Y64.364 E0.01349
G1 X143.165 Y62.412 E0.06732
G1 X143.259 Y63.060 E0.01596
G1 X145.117 Y64.917 E0.06408
G1 X145.117 Y65.470 E0.01349
G1 X143.201 Y63.554 E0.06609
G1 X143.074 Y63.981 E0.01085
G1 X145.117 Y66.023 E0.07048
G1 X145.117 Y66.577 E0.01349
G1 X142.878 Y64.338 E0.07722
G1 X142.634 Y64.648 E0.00961
G1 X145.117 Y67.130 E0.08563
G1 X145.117 Y67.683 E0.01349
G1 X142.357 Y64.924 E0.09519
G1 X142.005 Y65.124 E0.00990
G1 X145.117 Y68.236 E0.10735
G1 X145.117 Y68.789 E0.01349
G1 X141.603 Y65.276 E0.12121
G1 X141.139 Y65.365 E0.01152
G1 X145.117 Y69.343 E0.13721
G1 X145.117 Y69.896 E0.01349
G1 X140.568 Y65.347 E0.15693
G1 F4800
G1 X141.861 Y66.640 E-0.76000
G1 E-0.04000 F2100.00000
G1 Z0.300 F6000.000
G1 X139.630 Y64.962 F6000.000
G1 Z0.150 F6000.000
G1 E0.80000 F2100.00000
G1 X145.117 Y70.449 E0.18927 F2160.000
G1 X145.117 Y71.002 E0.01349
G1 X135.039 Y60.924 E0.34766
G1 X135.039 Y60.371 E0.01349
G1 X139.283 Y64.615 E0.14641
G1 F4800
G1 X137.990 Y63.322 E-0.76000
G1 E-0.04000 F2100.00000
G1 Z0.300 F6000.000
G1 X144.974 Y100.208 F6000.000
G1 Z0.150 F6000.000
G1 E0.80000 F2100.00000
G1 X144.974 Y116.792 E0.83542 F1440.000
G1 X145.117 Y117.282 F6000.000
G1 X144.912 Y117.077 E0.00702 F2160.000
G1 X144.362 Y117.077 E0.01336
G1 X145.117 Y117.832 E0.02592
G1 X145.117 Y118.383 E0.01336
G1 X143.617 Y116.883 E0.05147
G1 X143.067 Y116.883 E0.01336
G1 X145.117 Y118.933 E0.07037
G1 X145.117 Y119.484 E0.01336
G1 X142.516 Y116.883 E0.08927
G1 X141.966 Y116.883 E0.01336
G1 X145.117 Y120.034 E0.10817
G1 X145.117 Y120.585 E0.01336
G1 X141.415 Y116.883 E0.12707
G1 X140.865 Y116.883 E0.01336
G1 X145.117 Y121.135 E0.14596
G1 X145.117 Y121.686 E0.01336
G1 X140.314 Y116.883 E0.16486
G1 X139.764 Y116.883 E0.01336
G1 X145.117 Y122.236 E0.18376
G1 X145.117 Y122.787 E0.01336
G1 X139.213 Y116.883 E0.20266
G1 X138.663 Y116.883 E0.01336
G1 X145.117 Y123.337 E0.22155
G1 X145.117 Y123.888 E0.01336
G1 X138.112 Y116.883 E0.24045
G1 X137.562 Y116.883 E0.01336
G1 X145.117 Y124.438 E0.25935
G1 X145.117 Y124.989 E0.01336
G1 X142.883 Y122.755 E0.07667
