; generated by Slic3r 1.31.6-prusa3d on 2016-12-03 at 00:20:39

; external perimeters extrusion width = 0.60mm
; perimeters extrusion width = 0.43mm
; infill extrusion width = 0.70mm
; solid infill extrusion width = 0.70mm
; top infill extrusion width = 0.43mm

M107
M115 U3.0.9 ; tell printer latest fw version
M83  ; extruder relative mode
M104 S215 ; set extruder temp
M140 S55 ; set bed temp
M190 S55 ; wait for bed temp
M109 S215 ; wait for extruder temp
G28 W ; home all without mesh bed level
G80 ; mesh bed leveling
G1 Y-3.0 F1000.0 ; go outside pritn area
G1 X60.0 E9.0  F1000.0 ; intro line
G1 X100.0 E12.5  F1000.0 ; intro line
G21 ; set units to millimeters
G90 ; use absolute coordinates
M83 ; use relative distances for extrusion
G1 E-0.80000 F2100.00000
G1 Z0.200 F6000.000
G1 X78.015 Y48.693 F6000.000
G1 E0.80000 F2100.00000
M204 S1000
G1 F2100
G1 X79.060 Y47.817 E0.04278
G1 X80.000 Y47.623 E0.03008
G1 X170.000 Y47.623 E2.82189
G1 X171.307 Y48.015 E0.04278
G1 X172.183 Y49.060 E0.04278
G1 X172.377 Y50.000 E0.03008
G1 X172.377 Y160.000 E3.44897
G1 X171.985 Y161.307 E0.04278
G1 X170.940 Y162.183 E0.04278
G1 X170.000 Y162.377 E0.03008
G1 X80.000 Y162.377 E2.82189
G1 X78.693 Y161.985 E0.04278
G1 X77.817 Y160.940 E0.04278
G1 X77.623 Y160.000 E0.03008
G1 X77.623 Y50.000 E3.44897
G1 X77.997 Y48.750 E0.04090
G1 F4800
G1 X79.060 Y47.817 E-0.58808
G1 F4800
G1 X79.465 Y47.733 E-0.17192
G1 E-0.04000 F2100.00000
G1 X162.413 Y122.377 F6000.000
G1 E0.80000 F2100.00000
G1 F1680
G1 X166.587 Y122.377 E0.13088
G1 X166.587 Y143.551 E0.66390
G1 X162.413 Y143.551 E0.13088
G1 X162.413 Y122.437 E0.66202
G1 X162.790 Y122.754 F6000.000
G1 F1260
G1 X166.210 Y122.754 E0.10723
G1 X166.210 Y143.174 E0.64025
G1 X162.790 Y143.174 E0.10723
G1 X162.790 Y122.814 E0.63837
G1 X162.768 Y122.354 F6000.000
G1 F4800
G1 X164.618 Y122.782 E-0.76000
G1 E-0.04000 F2100.00000
G1 X131.413 Y122.377 F6000.000
G1 E0.80000 F2100.00000
G1 F1680
G1 X135.587 Y122.377 E0.13088
G1 X135.587 Y143.551 E0.66390
G1 X131.413 Y143.551 E0.13088
G1 X131.413 Y122.437 E0.66202
G1 X131.790 Y122.754 F6000.000
G1 F1260
G1 X135.210 Y122.754 E0.10723
G1 X135.210 Y143.174 E0.64025
G1 X131.790 Y143.174 E0.10723
G1 X131.790 Y122.814 E0.63837
G1 X131.768 Y122.354 F6000.000
G1 F4800
G1 X133.618 Y122.782 E-0.76000
G1 E-0.04000 F2100.00000
G1 X128.587 Y159.413 F6000.000
G1 E0.80000 F2100.00000
G1 F1680
G1 X128.587 Y50.587 E3.41216
G1 X169.413 Y50.587 E1.28007
G1 X169.413 Y159.413 E3.41216
G1 X128.647 Y159.413 E1.27818
G1 X128.210 Y159.790 F6000.000
G1 F1260
G1 X128.210 Y50.210 E3.43580
G1 X169.790 Y50.210 E1.30371
G1 X169.790 Y159.790 E3.43580
G1 X128.270 Y159.790 E1.30183
G1 X128.258 Y159.393 F6000.000
G1 F4800
G1 X128.269 Y157.961 E-0.76000
G1 E-0.04000 F2100.00000
G1 X129.465 Y159.300 F6000.000
G1 E0.80000 F2100.00000
G1 F2520
G1 X128.870 Y158.704 E0.02649
G1 X128.870 Y158.169 E0.01683
G1 X129.831 Y159.130 E0.04274
G1 X130.366 Y159.130 E0.01683
G1 X128.870 Y157.634 E0.06654
G1 X128.870 Y157.099 E0.01683
G1 X130.901 Y159.130 E0.09035
G1 X131.436 Y159.130 E0.01683
G1 X128.870 Y156.564 E0.11415
G1 X128.870 Y156.029 E0.01683
G1 X131.971 Y159.130 E0.13795
G1 X132.506 Y159.130 E0.01683
G1 X128.870 Y155.494 E0.16175
G1 X128.870 Y154.959 E0.01683
G1 X133.041 Y159.130 E0.18556
G1 X133.576 Y159.130 E0.01683
G1 X128.870 Y154.424 E0.20936
G1 X128.870 Y153.889 E0.01683
G1 X134.111 Y159.130 E0.23316
G1 X134.646 Y159.130 E0.01683
G1 X128.870 Y153.354 E0.25696
G1 X128.870 Y152.819 E0.01683
G1 X135.181 Y159.130 E0.28077
G1 X135.716 Y159.130 E0.01683
G1 X128.870 Y152.284 E0.30457
G1 X128.870 Y151.749 E0.01683
G1 X136.251 Y159.130 E0.32837
G1 X136.786 Y159.130 E0.01683
G1 X128.870 Y151.214 E0.35218
G1 X128.870 Y150.679 E0.01683
G1 X137.321 Y159.130 E0.37598
G1 X137.856 Y159.130 E0.01683
G1 X128.870 Y150.144 E0.39978
G1 X128.870 Y149.609 E0.01683
G1 X138.391 Y159.130 E0.42358
G1 X138.926 Y159.130 E0.01683
G1 X128.870 Y149.074 E0.44739
G1 X128.870 Y148.539 E0.01683
G1 X139.461 Y159.130 E0.47119
G1 X139.996 Y159.130 E0.01683
G1 X128.870 Y148.004 E0.49499
G1 X128.870 Y147.469 E0.01683
G1 X140.531 Y159.130 E0.51879
G1 X141.066 Y159.130 E0.01683
G1 X128.870 Y146.934 E0.54260
G1 X128.870 Y146.399 E0.01683
G1 X141.601 Y159.130 E0.56640
G1 X142.136 Y159.130 E0.01683
G1 X128.870 Y145.864 E0.59020
G1 X128.870 Y145.329 E0.01683
G1 X142.671 Y159.130 E0.61401
G1 X143.206 Y159.130 E0.01683
G1 X128.870 Y144.794 E0.63781
G1 X128.870 Y144.259 E0.01683
G1 X143.741 Y159.130 E0.66161
G1 X144.276 Y159.130 E0.01683
G1 X128.870 Y143.724 E0.68541
G1 X128.870 Y143.188 E0.01683
G1 X144.812 Y159.130 E0.70922
G1 X145.347 Y159.130 E0.01683
G1 X128.870 Y142.653 E0.73302
G1 X128.870 Y142.118 E0.01683
G1 X146.051 Y159.300 E0.76437
G1 F4800
G1 X144.758 Y158.007 E-0.76000
G1 E-0.04000 F2100.00000
G1 X169.300 Y156.332 F6000.000
G1 E0.80000 F2100.00000
G1 F2520
G1 X135.870 Y122.902 E1.48724
G1 X135.870 Y123.437 E0.01683
G1 X169.130 Y156.697 E1.47969
G1 X169.130 Y157.232 E0.01683
G1 X135.870 Y123.972 E1.47969
G1 X135.870 Y124.507 E0.01683
G1 X169.130 Y157.767 E1.47969
G1 X169.130 Y158.302 E0.01683
G1 X135.870 Y125.042 E1.47969
G1 X135.870 Y125.577 E0.01683
G1 X169.130 Y158.837 E1.47969
G1 X169.130 Y159.130 E0.00922
G1 X168.888 Y159.130 E0.00762
G1 X135.870 Y126.112 E1.46892
G1 X135.870 Y126.647 E0.01683
G1 X168.353 Y159.130 E1.44512
G1 X167.818 Y159.130 E0.01683
G1 X135.870 Y127.182 E1.42131
G1 X135.870 Y127.717 E0.01683
G1 X167.283 Y159.130 E1.39751
G1 X166.748 Y159.130 E0.01683
G1 X135.870 Y128.252 E1.37371
G1 X135.870 Y128.787 E0.01683
G1 X166.213 Y159.130 E1.34991
G1 X165.678 Y159.130 E0.01683
G1 X135.870 Y129.322 E1.32610
G1 X135.870 Y129.857 E0.01683
G1 X165.143 Y159.130 E1.30230
G1 X164.608 Y159.130 E0.01683
G1 X135.870 Y130.392 E1.27850
G1 X135.870 Y130.927 E0.01683
G1 X164.073 Y159.130 E1.25470
G1 X163.538 Y159.130 E0.01683
G1 X135.870 Y131.462 E1.23089
G1 X135.870 Y131.997 E0.01683
G1 X163.003 Y159.130 E1.20709
G1 X162.468 Y159.130 E0.01683
G1 X135.870 Y132.532 E1.18329
G1 X135.870 Y133.067 E0.01683
G1 X161.933 Y159.130 E1.15949
G1 X161.398 Y159.130 E0.01683
G1 X135.870 Y133.602 E1.13568
G1 X135.870 Y134.137 E0.01683
G1 X160.863 Y159.130 E1.11188
G1 X160.327 Y159.130 E0.01683
G1 X135.870 Y134.673 E1.08808
G1 X135.870 Y135.208 E0.01683
G1 X159.792 Y159.130 E1.06427
G1 X159.257 Y159.130 E0.01683
G1 X135.870 Y135.743 E1.04047
G1 X135.870 Y136.278 E0.01683
G1 X158.722 Y159.130 E1.01667
G1 X158.187 Y159.130 E0.01683
G1 X135.870 Y136.813 E0.99287
G1 X135.870 Y137.348 E0.01683
G1 X157.652 Y159.130 E0.96906
G1 X157.117 Y159.130 E0.01683
G1 X135.870 Y137.883 E0.94526
G1 X135.870 Y138.418 E0.01683
G1 X156.582 Y159.130 E0.92146
G1 X156.047 Y159.130 E0.01683
G1 X135.870 Y138.953 E0.89766
G1 X135.870 Y139.488 E0.01683
G1 X155.512 Y159.130 E0.87385
G1 X154.977 Y159.130 E0.01683
G1 X135.870 Y140.023 E0.85005
G1 X135.870 Y140.558 E0.01683
G1 X154.442 Y159.130 E0.82625
G1 X153.907 Y159.130 E0.01683
G1 X135.870 Y141.093 E0.80244
G1 X135.870 Y141.628 E0.01683
G1 X153.372 Y159.130 E0.77864
G1 X152.837 Y159.130 E0.01683
G1 X135.870 Y142.163 E0.75484
G1 X135.870 Y142.698 E0.01683
G1 X152.302 Y159.130 E0.73104
G1 X151.767 Y159.130 E0.01683
G1 X135.870 Y143.233 E0.70723
G1 X135.870 Y143.768 E0.01683
G1 X151.232 Y159.130 E0.68343
G1 X150.697 Y159.130 E0.01683
G1 X135.400 Y143.833 E0.68052
G1 X134.865 Y143.833 E0.01683
G1 X150.162 Y159.130 E0.68052
G1 X149.627 Y159.130 E0.01683
G1 X134.330 Y143.833 E0.68052
G1 X133.795 Y143.833 E0.01683
G1 X149.092 Y159.130 E0.68052
G1 X148.557 Y159.130 E0.01683
G1 X133.260 Y143.833 E0.68052
G1 X132.725 Y143.833 E0.01683
G1 X148.022 Y159.130 E0.68052
G1 X147.487 Y159.130 E0.01683
G1 X132.190 Y143.833 E0.68052
G1 X131.655 Y143.833 E0.01683
G1 X146.952 Y159.130 E0.68052
G1 X146.417 Y159.130 E0.01683
G1 X128.870 Y141.583 E0.78062
G1 X128.870 Y141.048 E0.01683
G1 X131.130 Y143.309 E0.10056
G1 X131.130 Y142.774 E0.01683
G1 X128.870 Y140.513 E0.10056
G1 X128.870 Y139.978 E0.01683
G1 X131.130 Y142.239 E0.10056
G1 X131.130 Y141.704 E0.01683
G1 X128.870 Y139.443 E0.10056
G1 X128.870 Y138.908 E0.01683
G1 X131.130 Y141.168 E0.10056
G1 X131.130 Y140.633 E0.01683
G1 X128.870 Y138.373 E0.10056
G1 X128.870 Y137.838 E0.01683
G1 X131.130 Y140.098 E0.10056
G1 X131.130 Y139.563 E0.01683
G1 X128.870 Y137.303 E0.10056
G1 X128.870 Y136.768 E0.01683
G1 X131.130 Y139.028 E0.10056
G1 X131.130 Y138.493 E0.01683
G1 X128.870 Y136.233 E0.10056
G1 X128.870 Y135.698 E0.01683
G1 X131.130 Y137.958 E0.10056
G1 X131.130 Y137.423 E0.01683
G1 X128.870 Y135.163 E0.10056
G1 X128.870 Y134.628 E0.01683
G1 X131.130 Y136.888 E0.10056
G1 X131.130 Y136.353 E0.01683
G1 X128.870 Y134.093 E0.10056
G1 X128.870 Y133.558 E0.01683
G1 X131.130 Y135.818 E0.10056
G1 X131.130 Y135.283 E0.01683
G1 X128.870 Y133.023 E0.10056
G1 X128.870 Y132.488 E0.01683
G1 X131.130 Y134.748 E0.10056
G1 X131.130 Y134.213 E0.01683
G1 X128.870 Y131.953 E0.10056
G1 X128.870 Y131.418 E0.01683
G1 X131.130 Y133.678 E0.10056
G1 X131.130 Y133.143 E0.01683
G1 X128.870 Y130.883 E0.10056
G1 X128.870 Y130.348 E0.01683
G1 X131.130 Y132.608 E0.10056
G1 X131.130 Y132.073 E0.01683
G1 X128.870 Y129.813 E0.10056
G1 X128.870 Y129.278 E0.01683
G1 X131.130 Y131.538 E0.10056
G1 X131.130 Y131.003 E0.01683
G1 X128.870 Y128.743 E0.10056
G1 X128.870 Y128.208 E0.01683
G1 X131.130 Y130.468 E0.10056
G1 X131.130 Y129.933 E0.01683
G1 X128.870 Y127.673 E0.10056
G1 X128.870 Y127.137 E0.01683
G1 X131.130 Y129.398 E0.10056
G1 X131.130 Y128.863 E0.01683
G1 X128.870 Y126.602 E0.10056
G1 X128.870 Y126.067 E0.01683
G1 X131.130 Y128.328 E0.10056
G1 X131.130 Y127.793 E0.01683
G1 X128.870 Y125.532 E0.10056
G1 X128.870 Y124.997 E0.01683
G1 X131.130 Y127.258 E0.10056
G1 X131.130 Y126.723 E0.01683
G1 X128.870 Y124.462 E0.10056
G1 X128.870 Y123.927 E0.01683
G1 X131.130 Y126.188 E0.10056
G1 X131.130 Y125.652 E0.01683
G1 X128.870 Y123.392 E0.10056
G1 X128.870 Y122.857 E0.01683
G1 X131.130 Y125.117 E0.10056
G1 X131.130 Y124.582 E0.01683
G1 X128.870 Y122.322 E0.10056
G1 X128.870 Y121.787 E0.01683
G1 X131.130 Y124.047 E0.10056
G1 X131.130 Y123.512 E0.01683
G1 X128.870 Y121.252 E0.10056
G1 X128.870 Y120.717 E0.01683
G1 X131.130 Y122.977 E0.10056
G1 X131.130 Y122.442 E0.01683
G1 X128.870 Y120.182 E0.10056
G1 X128.870 Y119.647 E0.01683
G1 X131.317 Y122.094 E0.10885
G1 X131.852 Y122.094 E0.01683
G1 X128.870 Y119.112 E0.13265
G1 X128.870 Y118.577 E0.01683
G1 X132.387 Y122.094 E0.15646
G1 X132.922 Y122.094 E0.01683
G1 X128.870 Y118.042 E0.18026
G1 X128.870 Y117.507 E0.01683
G1 X133.457 Y122.094 E0.20406
G1 X133.992 Y122.094 E0.01683
G1 X128.870 Y116.972 E0.22786
G1 X128.870 Y116.437 E0.01683
G1 X134.527 Y122.094 E0.25167
G1 X135.062 Y122.094 E0.01683
G1 X128.870 Y115.902 E0.27547
G1 X128.870 Y115.367 E0.01683
G1 X169.130 Y155.627 E1.79111
G1 X169.130 Y155.092 E0.01683
G1 X128.870 Y114.832 E1.79111
G1 X128.870 Y114.297 E0.01683
G1 X169.130 Y154.557 E1.79111
G1 X169.130 Y154.022 E0.01683
G1 X128.870 Y113.762 E1.79111
G1 X128.870 Y113.227 E0.01683
G1 X169.130 Y153.487 E1.79111
G1 X169.130 Y152.952 E0.01683
G1 X128.870 Y112.692 E1.79111
G1 X128.870 Y112.157 E0.01683
G1 X169.130 Y152.417 E1.79111
G1 X169.130 Y151.882 E0.01683
G1 X128.870 Y111.621 E1.79111
G1 X128.870 Y111.086 E0.01683
G1 X169.300 Y151.516 E1.79866
G1 F4800
G1 X168.007 Y150.223 E-0.76000
G1 E-0.04000 F2100.00000
G1 X128.700 Y84.700 F6000.000
G1 E0.80000 F2100.00000
G1 F2520
G1 X166.094 Y122.094 E1.66358
G1 X165.559 Y122.094 E0.01683
G1 X128.870 Y85.405 E1.63222
G1 X128.870 Y85.940 E0.01683
G1 X165.024 Y122.094 E1.60842
G1 X164.489 Y122.094 E0.01683
G1 X128.870 Y86.475 E1.58462
G1 X128.870 Y87.010 E0.01683
G1 X163.954 Y122.094 E1.56082
G1 X163.419 Y122.094 E0.01683
G1 X128.870 Y87.545 E1.53701
G1 X128.870 Y88.080 E0.01683
G1 X162.884 Y122.094 E1.51321
G1 X162.349 Y122.094 E0.01683
G1 X128.870 Y88.615 E1.48941
G1 X128.870 Y89.150 E0.01683
G1 X162.130 Y122.410 E1.47969
G1 X162.130 Y122.945 E0.01683
G1 X128.870 Y89.685 E1.47969
G1 X128.870 Y90.220 E0.01683
G1 X162.130 Y123.480 E1.47969
G1 X162.130 Y124.015 E0.01683
G1 X128.870 Y90.755 E1.47969
G1 X128.870 Y91.290 E0.01683
G1 X162.130 Y124.550 E1.47969
G1 X162.130 Y125.086 E0.01683
G1 X128.870 Y91.825 E1.47969
G1 X128.870 Y92.360 E0.01683
G1 X162.130 Y125.621 E1.47969
G1 X162.130 Y126.156 E0.01683
G1 X128.870 Y92.895 E1.47969
G1 X128.870 Y93.430 E0.01683
G1 X162.130 Y126.691 E1.47969
G1 X162.130 Y127.226 E0.01683
G1 X128.870 Y93.965 E1.47969
G1 X128.870 Y94.500 E0.01683
G1 X162.130 Y127.761 E1.47969
G1 X162.130 Y128.296 E0.01683
G1 X128.870 Y95.035 E1.47969
G1 X128.870 Y95.570 E0.01683
G1 X162.130 Y128.831 E1.47969
G1 X162.130 Y129.366 E0.01683
G1 X128.870 Y96.106 E1.47969
G1 X128.870 Y96.641 E0.01683
G1 X162.130 Y129.901 E1.47969
G1 X162.130 Y130.436 E0.01683
G1 X128.870 Y97.176 E1.47969
G1 X128.870 Y97.711 E0.01683
G1 X162.130 Y130.971 E1.47969
G1 X162.130 Y131.506 E0.01683
G1 X128.870 Y98.246 E1.47969
G1 X128.870 Y98.781 E0.01683
G1 X162.130 Y132.041 E1.47969
G1 X162.130 Y132.576 E0.01683
G1 X128.870 Y99.316 E1.47969
G1 X128.870 Y99.851 E0.01683
G1 X162.130 Y133.111 E1.47969
G1 X162.130 Y133.646 E0.01683
G1 X128.870 Y100.386 E1.47969
G1 X128.870 Y100.921 E0.01683
G1 X162.130 Y134.181 E1.47969
G1 X162.130 Y134.716 E0.01683
G1 X128.870 Y101.456 E1.47969
G1 X128.870 Y101.991 E0.01683
G1 X162.130 Y135.251 E1.47969
G1 X162.130 Y135.786 E0.01683
G1 X128.870 Y102.526 E1.47969
G1 X128.870 Y103.061 E0.01683
G1 X162.130 Y136.321 E1.47969
G1 X162.130 Y136.856 E0.01683
G1 X128.870 Y103.596 E1.47969
G1 X128.870 Y104.131 E0.01683
G1 X162.130 Y137.391 E1.47969
G1 X162.130 Y137.926 E0.01683
G1 X128.870 Y104.666 E1.47969
G1 X128.870 Y105.201 E0.01683
G1 X162.130 Y138.461 E1.47969
G1 X162.130 Y138.996 E0.01683
G1 X128.870 Y105.736 E1.47969
G1 X128.870 Y106.271 E0.01683
G1 X162.130 Y139.531 E1.47969
G1 X162.130 Y140.066 E0.01683
G1 X128.870 Y106.806 E1.47969
G1 X128.870 Y107.341 E0.01683
G1 X162.130 Y140.601 E1.47969
G1 X162.130 Y141.137 E0.01683
G1 X128.870 Y107.876 E1.47969
G1 X128.870 Y108.411 E0.01683
G1 X162.130 Y141.672 E1.47969
G1 X162.130 Y142.207 E0.01683
G1 X128.870 Y108.946 E1.47969
G1 X128.870 Y109.481 E0.01683
G1 X162.130 Y142.742 E1.47969
G1 X162.130 Y143.277 E0.01683
G1 X128.870 Y110.016 E1.47969
G1 X128.870 Y110.551 E0.01683
G1 X169.130 Y150.812 E1.79111
G1 X169.130 Y150.277 E0.01683
G1 X162.687 Y143.833 E0.28665
G1 X163.222 Y143.833 E0.01683
G1 X169.130 Y149.742 E0.26284
G1 X169.130 Y149.207 E0.01683
G1 X163.757 Y143.833 E0.23904
G1 X164.292 Y143.833 E0.01683
G1 X169.130 Y148.672 E0.21524
G1 X169.130 Y148.137 E0.01683
G1 X164.827 Y143.833 E0.19144
G1 X165.362 Y143.833 E0.01683
G1 X169.130 Y147.601 E0.16763
G1 X169.130 Y147.066 E0.01683
G1 X165.897 Y143.833 E0.14383
G1 X166.432 Y143.833 E0.01683
G1 X169.130 Y146.531 E0.12003
G1 X169.130 Y145.996 E0.01683
G1 X166.870 Y143.736 E0.10056
G1 X166.870 Y143.201 E0.01683
G1 X169.130 Y145.461 E0.10056
G1 X169.130 Y144.926 E0.01683
G1 X166.870 Y142.666 E0.10056
G1 X166.870 Y142.131 E0.01683
G1 X169.130 Y144.391 E0.10056
G1 X169.130 Y143.856 E0.01683
G1 X166.870 Y141.596 E0.10056
G1 X166.870 Y141.061 E0.01683
G1 X169.130 Y143.321 E0.10056
G1 X169.130 Y142.786 E0.01683
G1 X166.870 Y140.526 E0.10056
G1 X166.870 Y139.991 E0.01683
G1 X169.130 Y142.251 E0.10056
G1 X169.130 Y141.716 E0.01683
G1 X166.870 Y139.456 E0.10056
G1 X166.870 Y138.921 E0.01683
G1 X169.130 Y141.181 E0.10056
G1 X169.130 Y140.646 E0.01683
G1 X166.870 Y138.386 E0.10056
G1 X166.870 Y137.851 E0.01683
G1 X169.130 Y140.111 E0.10056
G1 X169.130 Y139.576 E0.01683
G1 X166.870 Y137.316 E0.10056
G1 X166.870 Y136.781 E0.01683
G1 X169.130 Y139.041 E0.10056
G1 X169.130 Y138.506 E0.01683
G1 X166.870 Y136.246 E0.10056
G1 X166.870 Y135.711 E0.01683
G1 X169.130 Y137.971 E0.10056
G1 X169.130 Y137.436 E0.01683
G1 X166.870 Y135.176 E0.10056
G1 X166.870 Y134.641 E0.01683
G1 X169.130 Y136.901 E0.10056
G1 X169.130 Y136.366 E0.01683
G1 X166.870 Y134.106 E0.10056
G1 X166.870 Y133.570 E0.01683
G1 X169.130 Y135.831 E0.10056
G1 X169.130 Y135.296 E0.01683
G1 X166.870 Y133.035 E0.10056
G1 X166.870 Y132.500 E0.01683
G1 X169.130 Y134.761 E0.10056
