; generated by Slic3r 1.2.9 on 2016-11-27 at 20:54:25

; external perimeters extrusion width = 0.70mm
; perimeters extrusion width = 0.70mm
; infill extrusion width = 0.70mm
; solid infill extrusion width = 0.70mm
; top infill extrusion width = 0.74mm

M107
M115 U3.0.8 ; tell printer latest fw version
M83  ; extruder relative mode
M104 S210 ; set extruder temp
M140 S50 ; set bed temp
M190 S50 ; wait for bed temp
M109 S210 ; wait for extruder temp
G28 W ; home all without mesh bed level
G80 ; mesh bed leveling
G1 Y-3.0 F1000.0 ; go outside pritn area
G1 X60.0 E9.0  F1000.0 ; intro line
G1 X100.0 E12.5  F1000.0 ; intro line
G21 ; set units to millimeters
G90 ; use absolute coordinates
M83 ; use relative distances for extrusion
G1 E-0.80000 F2100.00000
G1 Z0.150 F6000.000
G1 Z0.300 F6000.000
G1 X102.004 Y48.690 F6000.000
G1 Z0.150 F6000.000
G1 E0.80000 F2100.00000
M204 S1000
G1 X103.050 Y47.809 E0.03307 F1800.000
G1 X104.000 Y47.612 E0.02346
G1 X146.000 Y47.612 E1.01577
G1 X147.310 Y48.004 E0.03307
G1 X148.191 Y49.050 E0.03307
G1 X148.388 Y50.000 E0.02346
G1 X148.388 Y160.000 E2.66034
G1 X147.996 Y161.310 E0.03307
G1 X146.950 Y162.191 E0.03307
G1 X146.000 Y162.388 E0.02346
G1 X104.000 Y162.388 E1.01577
G1 X102.690 Y161.996 E0.03307
G1 X101.809 Y160.950 E0.03307
G1 X101.612 Y160.000 E0.02346
G1 X101.612 Y50.000 E2.66034
G1 X101.987 Y48.747 E0.03162
G1 F4800
G1 X103.050 Y47.809 E-0.58940
G1 F4800
G1 X103.452 Y47.726 E-0.17060
G1 E-0.04000 F2100.00000
G1 Z0.300 F6000.000
G1 X142.598 Y122.366 F6000.000
G1 Z0.150 F6000.000
G1 E0.80000 F2100.00000
G1 X142.598 Y143.561 E0.51261 F1440.000
G1 X138.402 Y143.561 E0.10147
G1 X138.402 Y122.366 E0.51261
G1 X142.538 Y122.366 E0.10002
G1 X142.210 Y122.754 F6000.000
G1 X142.210 Y143.174 E0.49386 F1080.000
G1 X138.790 Y143.174 E0.08271
G1 X138.790 Y122.754 E0.49386
G1 X142.150 Y122.754 E0.08126
G1 X142.610 Y122.754 F6000.000
G1 F4800
G1 X142.155 Y124.582 E-0.76000
G1 E-0.04000 F2100.00000
G1 Z0.300 F6000.000
G1 X111.598 Y122.366 F6000.000
G1 Z0.150 F6000.000
G1 E0.80000 F2100.00000
G1 X111.598 Y143.561 E0.51261 F1440.000
G1 X107.402 Y143.561 E0.10147
G1 X107.402 Y122.366 E0.51261
G1 X111.538 Y122.366 E0.10002
G1 X111.210 Y122.754 F6000.000
G1 X111.210 Y143.174 E0.49386 F1080.000
G1 X107.790 Y143.174 E0.08271
G1 X107.790 Y122.754 E0.49386
G1 X111.150 Y122.754 E0.08126
G1 X111.610 Y122.754 F6000.000
G1 F4800
G1 X111.155 Y124.582 E-0.76000
G1 E-0.04000 F2100.00000
G1 Z0.300 F6000.000
G1 X104.598 Y159.402 F6000.000
G1 Z0.150 F6000.000
G1 E0.80000 F2100.00000
G1 X104.598 Y50.598 E2.63142 F1440.000
G1 X145.402 Y50.598 E0.98685
G1 X145.402 Y159.402 E2.63142
G1 X104.658 Y159.402 E0.98540
G1 X104.210 Y159.790 F6000.000
G1 X104.210 Y50.210 E2.65018 F1080.000
G1 X145.790 Y50.210 E1.00561
G1 X145.790 Y159.790 E2.65018
G1 X104.270 Y159.790 E1.00416
G1 X104.410 Y159.444 F6000.000
G1 F4800
G1 X104.269 Y157.961 E-0.76000
G1 E-0.04000 F2100.00000
G1 Z0.300 F6000.000
G1 X104.883 Y158.362 F6000.000
G1 Z0.150 F6000.000
G1 E0.80000 F2100.00000
G1 X105.638 Y159.117 E0.02590 F2160.000
G1 X106.188 Y159.117 E0.01336
G1 X104.883 Y157.812 E0.04480
G1 X104.883 Y157.261 E0.01336
G1 X106.739 Y159.117 E0.06369
G1 X107.289 Y159.117 E0.01336
G1 X104.883 Y156.711 E0.08258
G1 X104.883 Y156.160 E0.01336
G1 X107.840 Y159.117 E0.10147
G1 X108.390 Y159.117 E0.01336
G1 X104.883 Y155.610 E0.12036
G1 X104.883 Y155.060 E0.01336
G1 X108.940 Y159.117 E0.13926
G1 X109.491 Y159.117 E0.01336
G1 X104.883 Y154.509 E0.15815
G1 X104.883 Y153.959 E0.01336
G1 X110.041 Y159.117 E0.17704
G1 X110.592 Y159.117 E0.01336
G1 X104.883 Y153.408 E0.19593
G1 X104.883 Y152.858 E0.01336
G1 X111.142 Y159.117 E0.21483
G1 X111.692 Y159.117 E0.01336
G1 X104.883 Y152.308 E0.23372
G1 X104.883 Y151.757 E0.01336
G1 X112.243 Y159.117 E0.25261
G1 X112.793 Y159.117 E0.01336
G1 X104.883 Y151.207 E0.27150
G1 X104.883 Y150.656 E0.01336
G1 X113.344 Y159.117 E0.29039
G1 X113.894 Y159.117 E0.01336
G1 X104.883 Y150.106 E0.30929
G1 X104.883 Y149.556 E0.01336
G1 X114.444 Y159.117 E0.32818
G1 X114.995 Y159.117 E0.01336
G1 X104.883 Y149.005 E0.34707
G1 X104.883 Y148.455 E0.01336
G1 X115.545 Y159.117 E0.36596
G1 X116.096 Y159.117 E0.01336
G1 X104.883 Y147.904 E0.38486
G1 X104.883 Y147.354 E0.01336
G1 X116.646 Y159.117 E0.40375
G1 X117.196 Y159.117 E0.01336
G1 X104.883 Y146.804 E0.42264
G1 X104.883 Y146.253 E0.01336
G1 X117.747 Y159.117 E0.44153
G1 X118.297 Y159.117 E0.01336
G1 X104.883 Y145.703 E0.46043
G1 X104.883 Y145.152 E0.01336
G1 X118.848 Y159.117 E0.47932
G1 X119.398 Y159.117 E0.01336
G1 X104.883 Y144.602 E0.49821
G1 X104.883 Y144.052 E0.01336
G1 X119.948 Y159.117 E0.51710
G1 X120.499 Y159.117 E0.01336
G1 X104.883 Y143.501 E0.53599
G1 X104.883 Y142.951 E0.01336
G1 X121.049 Y159.117 E0.55489
G1 X121.600 Y159.117 E0.01336
G1 X104.883 Y142.400 E0.57378
G1 X104.883 Y141.850 E0.01336
G1 X122.150 Y159.117 E0.59267
G1 X122.700 Y159.117 E0.01336
G1 X107.431 Y143.847 E0.52413
G1 X107.117 Y143.533 F6000.000
G1 X104.883 Y141.300 E0.07666 F2160.000
G1 X104.883 Y140.749 E0.01336
G1 X107.117 Y142.983 E0.07666
G1 X107.117 Y142.432 E0.01336
G1 X104.883 Y140.199 E0.07666
G1 X104.883 Y139.648 E0.01336
G1 X107.117 Y141.882 E0.07666
G1 X107.117 Y141.331 E0.01336
G1 X104.883 Y139.098 E0.07666
G1 X104.883 Y138.548 E0.01336
G1 X107.117 Y140.781 E0.07666
G1 X107.117 Y140.231 E0.01336
G1 X104.883 Y137.997 E0.07666
G1 X104.883 Y137.447 E0.01336
G1 X107.117 Y139.680 E0.07666
G1 X107.117 Y139.130 E0.01336
G1 X104.883 Y136.896 E0.07666
G1 X104.883 Y136.346 E0.01336
G1 X107.117 Y138.579 E0.07666
G1 X107.117 Y138.029 E0.01336
G1 X104.883 Y135.796 E0.07666
G1 X104.883 Y135.245 E0.01336
G1 X107.117 Y137.479 E0.07666
G1 X107.117 Y136.928 E0.01336
G1 X104.883 Y134.695 E0.07666
G1 X104.883 Y134.144 E0.01336
G1 X107.117 Y136.378 E0.07666
G1 X107.117 Y135.827 E0.01336
G1 X104.883 Y133.594 E0.07666
G1 X104.883 Y133.044 E0.01336
G1 X107.117 Y135.277 E0.07666
G1 X107.117 Y134.726 E0.01336
G1 X104.883 Y132.493 E0.07666
G1 X104.883 Y131.943 E0.01336
G1 X107.117 Y134.176 E0.07666
G1 X107.117 Y133.626 E0.01336
G1 X104.883 Y131.392 E0.07666
G1 X104.883 Y130.842 E0.01336
G1 X107.117 Y133.075 E0.07666
G1 X107.117 Y132.525 E0.01336
G1 X104.883 Y130.292 E0.07666
G1 X104.883 Y129.741 E0.01336
G1 X107.117 Y131.974 E0.07666
G1 X107.117 Y131.424 E0.01336
G1 X104.883 Y129.191 E0.07666
G1 X104.883 Y128.640 E0.01336
G1 X107.117 Y130.874 E0.07666
G1 X107.117 Y130.323 E0.01336
G1 X104.883 Y128.090 E0.07666
G1 X104.883 Y127.540 E0.01336
G1 X107.117 Y129.773 E0.07666
G1 X107.117 Y129.222 E0.01336
G1 X104.883 Y126.989 E0.07666
G1 X104.883 Y126.439 E0.01336
G1 X107.117 Y128.672 E0.07666
G1 X107.117 Y128.122 E0.01336
G1 X104.883 Y125.888 E0.07666
G1 X104.883 Y125.338 E0.01336
G1 X107.117 Y127.571 E0.07666
G1 X107.117 Y127.021 E0.01336
G1 X104.883 Y124.788 E0.07666
G1 X104.883 Y124.237 E0.01336
G1 X107.117 Y126.470 E0.07666
G1 X107.117 Y125.920 E0.01336
G1 X104.883 Y123.687 E0.07666
G1 X104.883 Y123.136 E0.01336
G1 X107.117 Y125.370 E0.07666
G1 X107.117 Y124.819 E0.01336
G1 X104.883 Y122.586 E0.07666
G1 X104.883 Y122.036 E0.01336
G1 X107.117 Y124.269 E0.07666
G1 X107.117 Y123.718 E0.01336
G1 X104.883 Y121.485 E0.07666
G1 X104.883 Y120.935 E0.01336
G1 X107.117 Y123.168 E0.07666
G1 X107.117 Y122.618 E0.01336
G1 X104.883 Y120.384 E0.07666
G1 X104.883 Y119.834 E0.01336
G1 X107.130 Y122.080 E0.07710
G1 X107.680 Y122.080 E0.01336
G1 X104.883 Y119.284 E0.09600
G1 X104.883 Y118.733 E0.01336
G1 X108.230 Y122.080 E0.11489
G1 X108.781 Y122.080 E0.01336
G1 X104.883 Y118.183 E0.13378
G1 X104.883 Y117.632 E0.01336
G1 X109.331 Y122.080 E0.15267
G1 X109.882 Y122.080 E0.01336
G1 X104.883 Y117.082 E0.17157
G1 X104.883 Y116.532 E0.01336
G1 X110.432 Y122.080 E0.19046
G1 X110.982 Y122.080 E0.01336
G1 X104.883 Y115.981 E0.20935
G1 X104.883 Y115.431 E0.01336
G1 X111.533 Y122.080 E0.22824
G1 X111.883 Y122.431 F6000.000
G1 X145.117 Y155.664 E1.14072 F2160.000
G1 X145.117 Y155.114 E0.01336
G1 X104.883 Y114.880 E1.38099
G1 X104.883 Y114.330 E0.01336
G1 X145.117 Y154.563 E1.38099
G1 X145.117 Y154.013 E0.01336
G1 X104.883 Y113.780 E1.38099
G1 X104.883 Y113.229 E0.01336
G1 X145.117 Y153.462 E1.38099
G1 X145.117 Y152.912 E0.01336
G1 X104.883 Y112.679 E1.38099
G1 X104.883 Y112.128 E0.01336
G1 X145.117 Y152.362 E1.38099
G1 X145.117 Y151.811 E0.01336
G1 X104.883 Y111.578 E1.38099
G1 F4800
G1 X106.176 Y112.871 E-0.76000
G1 E-0.04000 F2100.00000
G1 Z0.300 F6000.000
G1 X111.883 Y122.981 F6000.000
G1 Z0.150 F6000.000
G1 E0.80000 F2100.00000
G1 X145.117 Y156.214 E1.14072 F2160.000
G1 X145.117 Y156.765 E0.01336
G1 X111.883 Y123.532 E1.14072
G1 X111.883 Y124.082 E0.01336
G1 X145.117 Y157.315 E1.14072
G1 X145.117 Y157.866 E0.01336
G1 X111.883 Y124.632 E1.14072
G1 X111.883 Y125.183 E0.01336
G1 X145.117 Y158.416 E1.14072
G1 X145.117 Y158.966 E0.01336
G1 X111.883 Y125.733 E1.14072
G1 X111.883 Y126.284 E0.01336
G1 X144.716 Y159.117 E1.12698
G1 X144.166 Y159.117 E0.01336
G1 X111.883 Y126.834 E1.10809
G1 X111.883 Y127.384 E0.01336
G1 X143.616 Y159.117 E1.08920
G1 X143.065 Y159.117 E0.01336
G1 X111.883 Y127.935 E1.07030
G1 X111.883 Y128.485 E0.01336
G1 X142.515 Y159.117 E1.05141
G1 X141.964 Y159.117 E0.01336
G1 X111.883 Y129.036 E1.03252
G1 X111.883 Y129.586 E0.01336
G1 X141.414 Y159.117 E1.01363
G1 X140.864 Y159.117 E0.01336
G1 X111.883 Y130.136 E0.99474
G1 X111.883 Y130.687 E0.01336
G1 X140.313 Y159.117 E0.97584
G1 X139.763 Y159.117 E0.01336
G1 X111.883 Y131.237 E0.95695
G1 X111.883 Y131.788 E0.01336
G1 X139.212 Y159.117 E0.93806
G1 X138.662 Y159.117 E0.01336
G1 X111.883 Y132.338 E0.91917
G1 X111.883 Y132.888 E0.01336
G1 X138.112 Y159.117 E0.90027
G1 X137.561 Y159.117 E0.01336
G1 X111.883 Y133.439 E0.88138
G1 X111.883 Y133.989 E0.01336
G1 X137.011 Y159.117 E0.86249
G1 X136.460 Y159.117 E0.01336
G1 X111.883 Y134.540 E0.84360
G1 X111.883 Y135.090 E0.01336
G1 X135.910 Y159.117 E0.82471
G1 X135.360 Y159.117 E0.01336
G1 X111.883 Y135.640 E0.80581
G1 X111.883 Y136.191 E0.01336
G1 X134.809 Y159.117 E0.78692
G1 X134.259 Y159.117 E0.01336
G1 X111.883 Y136.741 E0.76803
G1 X111.883 Y137.292 E0.01336
G1 X133.708 Y159.117 E0.74914
G1 X133.158 Y159.117 E0.01336
G1 X111.883 Y137.842 E0.73024
G1 X111.883 Y138.392 E0.01336
G1 X132.608 Y159.117 E0.71135
G1 X132.057 Y159.117 E0.01336
G1 X111.883 Y138.943 E0.69246
G1 X111.883 Y139.493 E0.01336
G1 X131.507 Y159.117 E0.67357
G1 X130.956 Y159.117 E0.01336
G1 X111.883 Y140.044 E0.65468
G1 X111.883 Y140.594 E0.01336
G1 X130.406 Y159.117 E0.63578
G1 X129.856 Y159.117 E0.01336
G1 X111.883 Y141.144 E0.61689
G1 X111.883 Y141.695 E0.01336
G1 X129.305 Y159.117 E0.59800
G1 X128.755 Y159.117 E0.01336
G1 X111.883 Y142.245 E0.57911
G1 X111.883 Y142.796 E0.01336
G1 X128.204 Y159.117 E0.56021
G1 X127.654 Y159.117 E0.01336
G1 X111.883 Y143.346 E0.54132
G1 X111.834 Y143.847 E0.01222
G1 X127.104 Y159.117 E0.52413
G1 X126.553 Y159.117 E0.01336
G1 X111.283 Y143.847 E0.52413
G1 X110.733 Y143.847 E0.01336
G1 X126.003 Y159.117 E0.52413
G1 X125.452 Y159.117 E0.01336
G1 X110.183 Y143.847 E0.52413
G1 X109.632 Y143.847 E0.01336
G1 X124.902 Y159.117 E0.52413
G1 X124.352 Y159.117 E0.01336
G1 X109.082 Y143.847 E0.52413
G1 X108.531 Y143.847 E0.01336
G1 X123.801 Y159.117 E0.52413
G1 X123.251 Y159.117 E0.01336
G1 X107.981 Y143.847 E0.52413
G1 F4800
G1 X109.274 Y145.140 E-0.76000
G1 E-0.04000 F2100.00000
G1 Z0.300 F6000.000
G1 X142.656 Y143.847 F6000.000
G1 Z0.150 F6000.000
G1 E0.80000 F2100.00000
G1 X145.117 Y146.307 E0.08445 F2160.000
G1 X145.117 Y146.858 E0.01336
G1 X142.106 Y143.847 E0.10334
G1 X141.556 Y143.847 E0.01336
G1 X145.117 Y147.408 E0.12223
G1 X145.117 Y147.958 E0.01336
G1 X141.005 Y143.847 E0.14113
G1 X140.455 Y143.847 E0.01336
G1 X145.117 Y148.509 E0.16002
G1 X145.117 Y149.059 E0.01336
G1 X139.904 Y143.847 E0.17891
G1 X139.354 Y143.847 E0.01336
G1 X145.117 Y149.610 E0.19780
G1 X145.117 Y150.160 E0.01336
G1 X138.804 Y143.847 E0.21670
G1 X138.253 Y143.847 E0.01336
G1 X145.117 Y150.710 E0.23559
G1 X145.117 Y151.261 E0.01336
G1 X104.883 Y111.028 E1.38099
G1 X104.883 Y110.477 E0.01336
G1 X138.117 Y143.710 E1.14072
G1 X138.117 Y143.160 E0.01336
G1 X104.883 Y109.927 E1.14072
G1 X104.883 Y109.376 E0.01336
G1 X138.117 Y142.610 E1.14072
G1 X138.117 Y142.059 E0.01336
G1 X104.883 Y108.826 E1.14072
G1 X104.883 Y108.276 E0.01336
G1 X138.117 Y141.509 E1.14072
G1 X138.117 Y140.958 E0.01336
G1 X104.883 Y107.725 E1.14072
G1 X104.883 Y107.175 E0.01336
G1 X138.117 Y140.408 E1.14072
G1 X138.117 Y139.858 E0.01336
G1 X104.883 Y106.624 E1.14072
G1 X104.883 Y106.074 E0.01336
G1 X138.117 Y139.307 E1.14072
G1 X138.117 Y138.757 E0.01336
G1 X104.883 Y105.524 E1.14072
G1 X104.883 Y104.973 E0.01336
G1 X138.117 Y138.206 E1.14072
G1 X138.117 Y137.656 E0.01336
G1 X104.883 Y104.423 E1.14072
G1 X104.883 Y103.872 E0.01336
G1 X138.117 Y137.106 E1.14072
G1 X138.117 Y136.555 E0.01336
G1 X104.883 Y103.322 E1.14072
G1 X104.883 Y102.772 E0.01336
G1 X138.117 Y136.005 E1.14072
G1 X138.117 Y135.454 E0.01336
G1 X104.883 Y102.221 E1.14072
G1 X104.883 Y101.671 E0.01336
G1 X138.117 Y134.904 E1.14072
G1 X138.117 Y134.354 E0.01336
G1 X104.883 Y101.120 E1.14072
G1 X104.883 Y100.570 E0.01336
G1 X138.117 Y133.803 E1.14072
G1 X138.117 Y133.253 E0.01336
G1 X104.883 Y100.019 E1.14072
G1 X104.883 Y99.469 E0.01336
G1 X138.117 Y132.702 E1.14072
G1 X138.117 Y132.152 E0.01336
G1 X104.883 Y98.919 E1.14072
G1 X104.883 Y98.368 E0.01336
G1 X138.117 Y131.602 E1.14072
G1 X138.117 Y131.051 E0.01336
G1 X104.883 Y97.818 E1.14072
G1 X104.883 Y97.267 E0.01336
G1 X138.117 Y130.501 E1.14072
G1 X138.117 Y129.950 E0.01336
G1 X104.883 Y96.717 E1.14072
G1 X104.883 Y96.167 E0.01336
G1 X138.117 Y129.400 E1.14072
G1 X138.117 Y128.850 E0.01336
G1 X104.883 Y95.616 E1.14072
G1 X104.883 Y95.066 E0.01336
G1 X138.117 Y128.299 E1.14072
G1 X138.117 Y127.749 E0.01336
G1 X104.883 Y94.515 E1.14072
G1 X104.883 Y93.965 E0.01336
G1 X138.117 Y127.198 E1.14072
G1 X138.117 Y126.648 E0.01336
G1 X104.883 Y93.415 E1.14072
G1 X104.883 Y92.864 E0.01336
G1 X138.117 Y126.098 E1.14072
G1 X138.117 Y125.547 E0.01336
G1 X104.883 Y92.314 E1.14072
G1 X104.883 Y91.763 E0.01336
G1 X138.117 Y124.997 E1.14072
G1 X138.117 Y124.446 E0.01336
G1 X104.883 Y91.213 E1.14072
G1 X104.883 Y90.663 E0.01336
G1 X138.117 Y123.896 E1.14072
G1 X138.117 Y123.346 E0.01336
G1 X104.883 Y90.112 E1.14072
G1 X104.883 Y89.562 E0.01336
G1 X138.117 Y122.795 E1.14072
G1 X138.117 Y122.245 E0.01336
G1 X104.883 Y89.011 E1.14072
G1 X104.883 Y88.461 E0.01336
G1 X138.503 Y122.080 E1.15396
G1 X139.053 Y122.080 E0.01336
G1 X104.883 Y87.911 E1.17285
G1 X104.883 Y87.360 E0.01336
G1 X139.603 Y122.080 E1.19175
G1 X140.154 Y122.080 E0.01336
G1 X104.883 Y86.810 E1.21064
G1 X104.883 Y86.259 E0.01336
G1 X140.704 Y122.080 E1.22953
G1 X141.255 Y122.080 E0.01336
G1 X104.883 Y85.709 E1.24842
G1 X104.883 Y85.159 E0.01336
G1 X141.805 Y122.080 E1.26732
G1 X142.355 Y122.080 E0.01336
G1 X104.883 Y84.608 E1.28621
G1 F4800
G1 X106.176 Y85.901 E-0.76000
G1 E-0.04000 F2100.00000
G1 Z0.300 F6000.000
G1 X145.117 Y51.088 F6000.000
G1 Z0.150 F6000.000
G1 E0.80000 F2100.00000
G1 X144.912 Y50.883 E0.00702 F2160.000
G1 X144.362 Y50.883 E0.01336
G1 X145.117 Y51.638 E0.02591
G1 X145.117 Y52.189 E0.01336
G1 X143.811 Y50.883 E0.04481
G1 X143.261 Y50.883 E0.01336
G1 X145.117 Y52.739 E0.06370
G1 X145.117 Y53.289 E0.01336
G1 X142.711 Y50.883 E0.08259
G1 X142.160 Y50.883 E0.01336
G1 X145.117 Y53.840 E0.10148
G1 X145.117 Y54.390 E0.01336
G1 X141.610 Y50.883 E0.12037
G1 X141.059 Y50.883 E0.01336
G1 X145.117 Y54.941 E0.13927
G1 X145.117 Y55.491 E0.01336
G1 X140.509 Y50.883 E0.15816
G1 X139.959 Y50.883 E0.01336
G1 X145.117 Y56.041 E0.17705
G1 X145.117 Y56.592 E0.01336
G1 X139.408 Y50.883 E0.19594
G1 X138.858 Y50.883 E0.01336
G1 X145.117 Y57.142 E0.21484
G1 X145.117 Y57.693 E0.01336
G1 X138.307 Y50.883 E0.23373
G1 X137.757 Y50.883 E0.01336
G1 X145.117 Y58.243 E0.25262
G1 X145.117 Y58.793 E0.01336
G1 X137.207 Y50.883 E0.27151
G1 X136.656 Y50.883 E0.01336
G1 X145.117 Y59.344 E0.29040
G1 X145.117 Y59.894 E0.01336
G1 X136.106 Y50.883 E0.30930
G1 X135.555 Y50.883 E0.01336
G1 X145.117 Y60.445 E0.32819
G1 X145.117 Y60.995 E0.01336
