; generated by Slic3r 1.31.6-prusa3d on 2016-12-01 at 18:35:09

; external perimeters extrusion width = 0.60mm
; perimeters extrusion width = 0.43mm
; infill extrusion width = 0.70mm
; solid infill extrusion width = 0.70mm
; top infill extrusion width = 0.43mm

M107
M115 U3.0.9 ; tell printer latest fw version
M83  ; extruder relative mode
M104 S215 ; set extruder temp
M140 S55 ; set bed temp
M190 S55 ; wait for bed temp
M109 S215 ; wait for extruder temp
G28 W ; home all without mesh bed level
G80 ; mesh bed leveling
G1 Y-3.0 F1000.0 ; go outside pritn area
G1 X60.0 E9.0  F1000.0 ; intro line
G1 X100.0 E12.5  F1000.0 ; intro line
G21 ; set units to millimeters
G90 ; use absolute coordinates
M83 ; use relative distances for extrusion
G1 E-0.80000 F2100.00000
G1 Z0.200 F6000.000
G1 X91.639 Y93.700 F6000.000
G1 E0.80000 F2100.00000
M204 S1000
G1 F2100
G1 X92.053 Y93.382 E0.01638
G1 X92.590 Y93.072 E0.01945
G1 X93.073 Y92.872 E0.01637
G1 X93.672 Y92.711 E0.01946
G1 X94.190 Y92.643 E0.01638
G1 X94.500 Y92.623 E0.00974
G1 X155.500 Y92.623 E1.91261
G1 X155.810 Y92.643 E0.00974
G1 X156.328 Y92.711 E0.01638
G1 X156.927 Y92.872 E0.01946
G1 X157.410 Y93.072 E0.01637
G1 X157.947 Y93.382 E0.01945
G1 X158.361 Y93.700 E0.01637
G1 X158.800 Y94.139 E0.01946
G1 X159.112 Y94.545 E0.01604
G1 X159.428 Y95.090 E0.01978
G1 X159.628 Y95.573 E0.01637
G1 X159.789 Y96.172 E0.01945
G1 X159.857 Y96.690 E0.01638
G1 X159.877 Y97.000 E0.00975
G1 X159.877 Y113.000 E0.50167
G1 X159.857 Y113.310 E0.00975
G1 X159.789 Y113.828 E0.01638
G1 X159.628 Y114.427 E0.01945
G1 X159.428 Y114.910 E0.01637
G1 X159.118 Y115.447 E0.01946
G1 X158.800 Y115.861 E0.01637
G1 X158.361 Y116.300 E0.01946
G1 X157.947 Y116.618 E0.01637
G1 X157.410 Y116.928 E0.01946
G1 X156.927 Y117.128 E0.01637
G1 X156.328 Y117.289 E0.01946
G1 X155.810 Y117.357 E0.01637
G1 X155.500 Y117.377 E0.00975
G1 X94.500 Y117.377 E1.91261
G1 X94.190 Y117.357 E0.00975
G1 X93.672 Y117.289 E0.01637
G1 X93.073 Y117.128 E0.01946
G1 X92.590 Y116.928 E0.01637
G1 X92.053 Y116.618 E0.01946
G1 X91.639 Y116.300 E0.01637
G1 X91.200 Y115.861 E0.01946
G1 X90.882 Y115.447 E0.01637
G1 X90.572 Y114.910 E0.01946
G1 X90.372 Y114.427 E0.01638
G1 X90.211 Y113.828 E0.01944
G1 X90.143 Y113.310 E0.01638
G1 X90.123 Y113.000 E0.00975
G1 X90.123 Y97.000 E0.50167
G1 X90.143 Y96.690 E0.00975
G1 X90.211 Y96.172 E0.01638
G1 X90.372 Y95.573 E0.01945
G1 X90.572 Y95.090 E0.01637
G1 X90.882 Y94.553 E0.01945
G1 X91.200 Y94.139 E0.01637
G1 X91.596 Y93.742 E0.01758
G1 F4800
G1 X92.045 Y93.388 E-0.23741
G1 F4800
G1 X92.045 Y93.388 E-0.00010
G1 F4800
G1 X92.053 Y93.382 E-0.00434
G1 F4800
G1 X92.590 Y93.072 E-0.25782
G1 F4800
G1 X93.073 Y92.872 E-0.21700
G1 F4800
G1 X93.173 Y92.845 E-0.04334
G1 E-0.04000 F2100.00000
G1 X93.504 Y96.004 F6000.000
G1 E0.80000 F2100.00000
G1 F1680
G1 X93.796 Y95.781 E0.01152
G1 X94.136 Y95.640 E0.01152
G1 X94.538 Y95.587 E0.01274
G1 X155.472 Y95.588 E1.91052
G1 X155.864 Y95.640 E0.01241
G1 X156.204 Y95.781 E0.01152
G1 X156.496 Y96.004 E0.01152
G1 X156.719 Y96.296 E0.01152
G1 X156.860 Y96.636 E0.01152
G1 X156.913 Y97.038 E0.01274
G1 X156.913 Y112.962 E0.49926
G1 X156.860 Y113.364 E0.01274
G1 X156.719 Y113.704 E0.01152
G1 X156.496 Y113.996 E0.01152
G1 X156.204 Y114.219 E0.01152
G1 X155.864 Y114.360 E0.01152
G1 X155.462 Y114.413 E0.01274
G1 X94.538 Y114.413 E1.91020
G1 X94.136 Y114.360 E0.01274
G1 X93.796 Y114.219 E0.01152
G1 X93.504 Y113.996 E0.01152
G1 X93.281 Y113.704 E0.01152
G1 X93.140 Y113.364 E0.01152
G1 X93.087 Y112.962 E0.01274
G1 X93.087 Y97.038 E0.49926
G1 X93.140 Y96.636 E0.01274
G1 X93.281 Y96.296 E0.01152
G1 X93.468 Y96.052 E0.00964
G1 X93.236 Y95.736 F6000.000
G1 F1260
G1 X93.606 Y95.451 E0.01464
G1 X94.037 Y95.273 E0.01464
G1 X94.514 Y95.210 E0.01507
G1 X155.497 Y95.211 E1.91207
G1 X155.963 Y95.273 E0.01474
G1 X156.394 Y95.451 E0.01464
G1 X156.764 Y95.736 E0.01464
G1 X157.049 Y96.106 E0.01464
G1 X157.227 Y96.537 E0.01464
G1 X157.290 Y97.014 E0.01507
G1 X157.290 Y112.986 E0.50081
G1 X157.227 Y113.463 E0.01507
G1 X157.049 Y113.894 E0.01464
G1 X156.764 Y114.264 E0.01464
G1 X156.394 Y114.549 E0.01464
G1 X155.963 Y114.727 E0.01464
G1 X155.486 Y114.790 E0.01507
G1 X94.514 Y114.790 E1.91175
G1 X94.037 Y114.727 E0.01507
G1 X93.606 Y114.549 E0.01464
G1 X93.236 Y114.264 E0.01464
G1 X92.951 Y113.894 E0.01464
G1 X92.773 Y113.463 E0.01464
G1 X92.710 Y112.986 E0.01507
G1 X92.710 Y97.014 E0.50081
G1 X92.773 Y96.537 E0.01507
G1 X92.951 Y96.106 E0.01464
G1 X93.199 Y95.783 E0.01276
G1 X93.622 Y95.839 F6000.000
G1 F4800
G1 X93.606 Y95.451 E-0.21820
G1 F4800
G1 X94.037 Y95.273 E-0.19402
G1 F4800
G1 X94.514 Y95.210 E-0.19979
G1 F4800
G1 X94.870 Y95.210 E-0.14799
G1 E-0.04000 F2100.00000
G1 X93.200 Y112.755 F6000.000
G1 E0.80000 F2100.00000
G1 F2520
G1 X94.575 Y114.130 E0.06112
G1 X95.110 Y114.130 E0.01680
G1 X93.370 Y112.390 E0.07734
G1 X93.370 Y111.856 E0.01680
G1 X95.644 Y114.130 E0.10110
G1 X96.179 Y114.130 E0.01680
G1 X93.370 Y111.321 E0.12485
G1 X93.370 Y110.786 E0.01680
G1 X96.714 Y114.130 E0.14861
G1 X97.248 Y114.130 E0.01680
G1 X93.370 Y110.252 E0.17237
G1 X93.370 Y109.717 E0.01680
G1 X97.783 Y114.130 E0.19613
G1 X98.317 Y114.130 E0.01680
G1 X93.370 Y109.183 E0.21988
G1 X93.370 Y108.648 E0.01680
G1 X98.852 Y114.130 E0.24364
G1 X99.386 Y114.130 E0.01680
G1 X93.370 Y108.114 E0.26740
G1 X93.370 Y107.579 E0.01680
G1 X99.921 Y114.130 E0.29115
G1 X100.455 Y114.130 E0.01680
G1 X93.370 Y107.045 E0.31491
G1 X93.370 Y106.510 E0.01680
G1 X100.990 Y114.130 E0.33867
G1 X101.524 Y114.130 E0.01680
G1 X93.370 Y105.976 E0.36243
G1 X93.370 Y105.441 E0.01680
G1 X102.059 Y114.130 E0.38618
G1 X102.593 Y114.130 E0.01680
G1 X93.370 Y104.907 E0.40994
G1 X93.370 Y104.372 E0.01680
G1 X103.128 Y114.130 E0.43370
G1 X103.662 Y114.130 E0.01680
G1 X93.370 Y103.838 E0.45746
G1 X93.370 Y103.303 E0.01680
G1 X104.197 Y114.130 E0.48121
G1 X104.731 Y114.130 E0.01680
G1 X93.370 Y102.769 E0.50497
G1 X93.370 Y102.234 E0.01680
G1 X105.266 Y114.130 E0.52873
G1 X105.800 Y114.130 E0.01680
G1 X93.370 Y101.700 E0.55248
G1 X93.370 Y101.165 E0.01680
G1 X106.335 Y114.130 E0.57624
G1 X106.869 Y114.130 E0.01680
G1 X93.370 Y100.631 E0.60000
G1 X93.370 Y100.096 E0.01680
G1 X107.404 Y114.130 E0.62376
G1 X107.938 Y114.130 E0.01680
G1 X93.370 Y99.562 E0.64751
G1 X93.370 Y99.027 E0.01680
G1 X108.473 Y114.130 E0.67127
G1 X109.008 Y114.130 E0.01680
G1 X93.370 Y98.492 E0.69503
G1 X93.370 Y97.958 E0.01680
G1 X109.542 Y114.130 E0.71879
G1 X110.077 Y114.130 E0.01680
G1 X93.370 Y97.423 E0.74254
G1 X93.370 Y97.057 E0.01152
G1 X93.389 Y96.908 E0.00471
G1 X110.611 Y114.130 E0.76543
G1 X111.146 Y114.130 E0.01680
G1 X93.506 Y96.491 E0.78400
G1 X93.528 Y96.439 E0.00177
G1 X93.734 Y96.184 E0.01030
G1 X111.680 Y114.130 E0.79761
G1 X112.215 Y114.130 E0.01680
G1 X94.061 Y95.977 E0.80683
G1 X94.209 Y95.916 E0.00503
G1 X94.497 Y95.878 E0.00911
G1 X112.749 Y114.130 E0.81124
G1 X113.284 Y114.130 E0.01680
G1 X95.023 Y95.870 E0.81159
G1 X95.558 Y95.870 E0.01680
G1 X113.818 Y114.130 E0.81159
G1 X114.353 Y114.130 E0.01680
G1 X96.093 Y95.870 E0.81159
G1 X96.627 Y95.870 E0.01680
G1 X114.887 Y114.130 E0.81159
G1 X115.422 Y114.130 E0.01680
G1 X97.162 Y95.870 E0.81159
G1 X97.696 Y95.870 E0.01680
G1 X115.956 Y114.130 E0.81159
G1 X116.491 Y114.130 E0.01680
G1 X98.231 Y95.870 E0.81159
G1 X98.765 Y95.870 E0.01680
G1 X117.025 Y114.130 E0.81159
G1 X117.560 Y114.130 E0.01680
G1 X99.300 Y95.870 E0.81159
G1 X99.834 Y95.870 E0.01680
G1 X118.094 Y114.130 E0.81159
G1 X118.629 Y114.130 E0.01680
G1 X100.369 Y95.870 E0.81159
G1 X100.903 Y95.870 E0.01680
G1 X119.163 Y114.130 E0.81159
G1 X119.698 Y114.130 E0.01680
G1 X101.438 Y95.870 E0.81159
G1 X101.972 Y95.870 E0.01680
G1 X120.233 Y114.130 E0.81158
G1 X120.767 Y114.130 E0.01680
G1 X102.507 Y95.870 E0.81158
G1 X103.041 Y95.870 E0.01680
G1 X121.302 Y114.130 E0.81158
G1 X121.836 Y114.130 E0.01680
G1 X103.576 Y95.870 E0.81158
G1 X104.111 Y95.870 E0.01680
G1 X122.371 Y114.130 E0.81158
G1 X122.905 Y114.130 E0.01680
G1 X104.645 Y95.870 E0.81158
G1 X105.180 Y95.870 E0.01680
G1 X123.440 Y114.130 E0.81158
G1 X123.974 Y114.130 E0.01680
G1 X105.714 Y95.870 E0.81158
G1 X106.249 Y95.870 E0.01680
G1 X124.509 Y114.130 E0.81158
G1 X125.043 Y114.130 E0.01680
G1 X106.783 Y95.870 E0.81158
G1 X107.318 Y95.870 E0.01680
G1 X125.578 Y114.130 E0.81158
G1 X126.112 Y114.130 E0.01680
G1 X107.852 Y95.870 E0.81158
G1 X108.387 Y95.870 E0.01680
G1 X126.647 Y114.130 E0.81158
G1 X127.181 Y114.130 E0.01680
G1 X108.921 Y95.870 E0.81158
G1 X109.456 Y95.870 E0.01680
G1 X127.716 Y114.130 E0.81158
G1 X128.250 Y114.130 E0.01680
G1 X109.990 Y95.870 E0.81158
G1 X110.525 Y95.870 E0.01680
G1 X128.785 Y114.130 E0.81158
G1 X129.319 Y114.130 E0.01680
G1 X111.060 Y95.870 E0.81158
G1 X111.594 Y95.870 E0.01680
G1 X129.854 Y114.130 E0.81158
G1 X130.388 Y114.130 E0.01680
G1 X112.129 Y95.870 E0.81157
G1 X112.663 Y95.870 E0.01680
G1 X130.923 Y114.130 E0.81157
G1 X131.458 Y114.130 E0.01680
G1 X113.198 Y95.870 E0.81157
G1 X113.732 Y95.870 E0.01680
G1 X131.992 Y114.130 E0.81157
G1 X132.527 Y114.130 E0.01680
G1 X114.267 Y95.870 E0.81157
G1 X114.801 Y95.870 E0.01680
G1 X133.061 Y114.130 E0.81157
G1 X133.596 Y114.130 E0.01680
G1 X115.336 Y95.870 E0.81157
G1 X115.870 Y95.870 E0.01680
G1 X134.130 Y114.130 E0.81157
G1 X134.665 Y114.130 E0.01680
G1 X116.405 Y95.870 E0.81157
G1 X116.939 Y95.870 E0.01680
G1 X135.199 Y114.130 E0.81157
G1 X135.734 Y114.130 E0.01680
G1 X117.474 Y95.870 E0.81157
G1 X118.008 Y95.870 E0.01680
G1 X136.268 Y114.130 E0.81157
G1 X136.803 Y114.130 E0.01680
G1 X118.543 Y95.870 E0.81157
G1 X119.078 Y95.870 E0.01680
G1 X137.337 Y114.130 E0.81157
G1 X137.872 Y114.130 E0.01680
G1 X119.612 Y95.870 E0.81157
G1 X120.147 Y95.870 E0.01680
G1 X138.406 Y114.130 E0.81157
G1 X138.941 Y114.130 E0.01680
G1 X120.681 Y95.870 E0.81157
G1 X121.216 Y95.870 E0.01680
G1 X139.475 Y114.130 E0.81157
G1 X140.010 Y114.130 E0.01680
G1 X121.750 Y95.870 E0.81157
G1 X122.285 Y95.870 E0.01680
G1 X140.544 Y114.130 E0.81156
G1 X141.079 Y114.130 E0.01680
G1 X122.819 Y95.870 E0.81156
G1 X123.354 Y95.871 E0.01680
G1 X141.613 Y114.130 E0.81156
G1 X142.148 Y114.130 E0.01680
G1 X123.888 Y95.871 E0.81156
G1 X124.423 Y95.871 E0.01680
G1 X142.683 Y114.130 E0.81156
G1 X143.217 Y114.130 E0.01680
G1 X124.957 Y95.871 E0.81156
G1 X125.492 Y95.871 E0.01680
G1 X143.752 Y114.130 E0.81156
G1 X144.286 Y114.130 E0.01680
G1 X126.027 Y95.871 E0.81156
G1 X126.561 Y95.871 E0.01680
G1 X144.821 Y114.130 E0.81156
G1 X145.355 Y114.130 E0.01680
G1 X127.096 Y95.871 E0.81156
G1 X127.630 Y95.871 E0.01680
G1 X145.890 Y114.130 E0.81156
G1 X146.424 Y114.130 E0.01680
G1 X128.165 Y95.871 E0.81156
G1 X128.699 Y95.871 E0.01680
G1 X146.959 Y114.130 E0.81156
G1 X147.493 Y114.130 E0.01680
G1 X129.234 Y95.871 E0.81156
G1 X129.768 Y95.871 E0.01680
G1 X148.028 Y114.130 E0.81156
G1 X148.562 Y114.130 E0.01680
G1 X130.303 Y95.871 E0.81156
G1 X130.837 Y95.871 E0.01680
G1 X149.097 Y114.130 E0.81156
G1 X149.631 Y114.130 E0.01680
G1 X131.372 Y95.871 E0.81156
G1 X131.906 Y95.871 E0.01680
G1 X150.166 Y114.130 E0.81156
G1 X150.700 Y114.130 E0.01680
G1 X132.441 Y95.871 E0.81155
G1 X132.975 Y95.871 E0.01680
G1 X151.235 Y114.130 E0.81155
G1 X151.769 Y114.130 E0.01680
G1 X133.510 Y95.871 E0.81155
G1 X134.045 Y95.871 E0.01680
G1 X152.304 Y114.130 E0.81155
G1 X152.838 Y114.130 E0.01680
G1 X134.579 Y95.871 E0.81155
G1 X135.114 Y95.871 E0.01680
G1 X153.373 Y114.130 E0.81155
G1 X153.907 Y114.130 E0.01680
G1 X135.648 Y95.871 E0.81155
G1 X136.183 Y95.871 E0.01680
G1 X154.442 Y114.130 E0.81155
G1 X154.977 Y114.130 E0.01680
G1 X136.717 Y95.871 E0.81155
G1 X137.252 Y95.871 E0.01680
G1 X155.503 Y114.122 E0.81120
G1 X155.791 Y114.084 E0.00911
G1 X155.939 Y114.023 E0.00503
G1 X137.786 Y95.871 E0.80679
G1 X138.321 Y95.871 E0.01680
G1 X156.266 Y113.816 E0.79757
G1 X156.472 Y113.561 E0.01030
G1 X156.494 Y113.509 E0.00177
G1 X138.855 Y95.871 E0.78395
G1 X139.390 Y95.871 E0.01680
G1 X156.611 Y113.092 E0.76539
G1 X156.630 Y112.943 E0.00471
G1 X156.630 Y112.577 E0.01152
G1 X139.924 Y95.871 E0.74250
G1 X140.459 Y95.871 E0.01680
G1 X156.630 Y112.042 E0.71874
G1 X156.630 Y111.508 E0.01680
G1 X140.993 Y95.871 E0.69498
G1 X141.528 Y95.871 E0.01680
G1 X156.630 Y110.973 E0.67122
G1 X156.630 Y110.438 E0.01680
G1 X142.063 Y95.871 E0.64747
G1 X142.597 Y95.871 E0.01680
G1 X156.630 Y109.904 E0.62371
G1 X156.630 Y109.369 E0.01680
G1 X143.132 Y95.871 E0.59995
G1 X143.666 Y95.871 E0.01680
G1 X156.630 Y108.835 E0.57619
G1 X156.630 Y108.300 E0.01680
G1 X144.201 Y95.871 E0.55244
G1 X144.735 Y95.871 E0.01680
G1 X156.630 Y107.766 E0.52868
G1 X156.630 Y107.231 E0.01680
G1 X145.270 Y95.871 E0.50492
G1 X145.804 Y95.871 E0.01680
G1 X156.630 Y106.697 E0.48116
G1 X156.630 Y106.162 E0.01680
G1 X146.339 Y95.871 E0.45740
G1 X146.873 Y95.871 E0.01680
G1 X156.630 Y105.628 E0.43365
G1 X156.630 Y105.093 E0.01680
G1 X147.408 Y95.871 E0.40989
G1 X147.942 Y95.871 E0.01680
G1 X156.630 Y104.559 E0.38613
G1 X156.630 Y104.024 E0.01680
G1 X148.477 Y95.871 E0.36237
G1 X149.012 Y95.871 E0.01680
G1 X156.630 Y103.490 E0.33862
G1 X156.630 Y102.955 E0.01680
G1 X149.546 Y95.871 E0.31486
G1 X150.081 Y95.871 E0.01680
G1 X156.630 Y102.421 E0.29110
G1 X156.630 Y101.886 E0.01680
G1 X150.615 Y95.871 E0.26734
G1 X151.150 Y95.871 E0.01680
G1 X156.630 Y101.352 E0.24358
G1 X156.630 Y100.817 E0.01680
G1 X151.684 Y95.871 E0.21983
G1 X152.219 Y95.871 E0.01680
G1 X156.630 Y100.283 E0.19607
G1 X156.630 Y99.748 E0.01680
G1 X152.753 Y95.871 E0.17231
G1 X153.288 Y95.871 E0.01680
G1 X156.630 Y99.214 E0.14855
G1 X156.630 Y98.679 E0.01680
G1 X153.822 Y95.871 E0.12479
G1 X154.357 Y95.871 E0.01680
G1 X156.630 Y98.144 E0.10104
G1 X156.630 Y97.610 E0.01680
G1 X154.891 Y95.871 E0.07728
G1 X155.426 Y95.871 E0.01680
G1 X156.800 Y97.245 E0.06106
M106 S244.8
M104 S205 ; set temperature
G1 F4800
G1 X155.507 Y95.952 E-0.76000
G1 E-0.04000 F2100.00000
G1 Z0.550 F6000.000
G1 X156.711 Y96.676 F6000.000
G1 E0.80000 F2100.00000
M204 S800
G1 F2400
G1 X156.760 Y97.048 E0.01943
G1 X156.760 Y112.952 E0.82125
G1 X156.711 Y113.324 E0.01943
G1 X156.586 Y113.627 E0.01690
G1 X156.387 Y113.887 E0.01690
G1 X156.127 Y114.086 E0.01690
G1 X155.824 Y114.211 E0.01690
G1 X155.452 Y114.260 E0.01943
G1 X94.548 Y114.260 E3.14510
G1 X94.176 Y114.211 E0.01943
G1 X93.873 Y114.086 E0.01690
G1 X93.613 Y113.887 E0.01690
G1 X93.414 Y113.627 E0.01690
G1 X93.289 Y113.324 E0.01690
G1 X93.240 Y112.952 E0.01943
G1 X93.240 Y97.048 E0.82125
G1 X93.289 Y96.676 E0.01943
G1 X93.414 Y96.373 E0.01690
G1 X93.613 Y96.113 E0.01690
G1 X93.873 Y95.914 E0.01690
G1 X94.176 Y95.789 E0.01690
G1 X94.548 Y95.740 E0.01943
G1 X155.490 Y95.745 E3.14710
G1 X155.824 Y95.789 E0.01741
G1 X156.127 Y95.914 E0.01690
G1 X156.387 Y96.113 E0.01690
G1 X156.586 Y96.373 E0.01690
G1 X156.688 Y96.620 E0.01380
M204 S1000
G1 X157.140 Y96.561 F6000.000
M204 S800
G1 F1800
G1 X157.200 Y97.020 E0.03536
G1 X157.200 Y112.980 E1.21905
G1 X157.140 Y113.439 E0.03536
G1 X156.970 Y113.849 E0.03384
G1 X156.700 Y114.200 E0.03384
G1 X156.349 Y114.470 E0.03384
G1 X155.939 Y114.640 E0.03384
G1 X155.480 Y114.700 E0.03536
G1 X94.520 Y114.700 E4.65607
G1 X94.061 Y114.640 E0.03536
G1 X93.651 Y114.470 E0.03384
G1 X93.300 Y114.200 E0.03384
G1 X93.030 Y113.849 E0.03384
G1 X92.860 Y113.439 E0.03384
G1 X92.800 Y112.980 E0.03536
G1 X92.800 Y97.020 E1.21905
G1 X92.860 Y96.561 E0.03536
G1 X93.030 Y96.151 E0.03384
G1 X93.300 Y95.800 E0.03384
G1 X93.651 Y95.530 E0.03384
G1 X94.061 Y95.360 E0.03384
G1 X94.520 Y95.300 E0.03536
G1 X155.519 Y95.305 E4.65904
G1 X155.939 Y95.360 E0.03237
G1 X156.349 Y95.530 E0.03384
G1 X156.700 Y95.800 E0.03384
G1 X156.970 Y96.151 E0.03384
G1 X157.117 Y96.505 E0.02926
M204 S1000
G1 X156.857 Y96.844 F6000.000
G1 F4800
G1 X157.200 Y97.020 E-0.21660
G1 F4800
G1 X157.200 Y98.327 E-0.54340
G1 E-0.04000 F2100.00000
G1 X155.593 Y114.154 F6000.000
G1 E0.80000 F2100.00000
M204 S2000
G1 F3600
G1 X156.128 Y113.620 E0.06944
G1 X156.265 Y113.442 E0.02069
G1 X156.353 Y113.229 E0.02119
G1 X156.393 Y112.927 E0.02792
G1 X156.393 Y112.462 E0.04277
G1 X154.962 Y113.893 E0.18595
G1 X154.069 Y113.893 E0.08209
G1 X156.393 Y111.569 E0.30204
