; generated by Slic3r 1.31.6-prusa3d on 2016-11-29 at 18:20:08

; external perimeters extrusion width = 0.45mm
; perimeters extrusion width = 0.45mm
; infill extrusion width = 0.45mm
; solid infill extrusion width = 0.45mm
; top infill extrusion width = 0.40mm
; support material extrusion width = 0.35mm

M107
M115 U3.0.9 ; tell printer latest fw version
M83  ; extruder relative mode
M104 S215 ; set extruder temp
M140 S55 ; set bed temp
M190 S55 ; wait for bed temp
M109 S215 ; wait for extruder temp
G28 W ; home all without mesh bed level
G80 ; mesh bed leveling
G1 Y-3.0 F1000.0 ; go outside pritn area
G1 X60.0 E9.0  F1000.0 ; intro line
G1 X100.0 E12.5  F1000.0 ; intro line
G21 ; set units to millimeters
G90 ; use absolute coordinates
M83 ; use relative distances for extrusion
G1 E-0.80000 F2100.00000
G1 Z0.200 F7200.000
G1 X90.515 Y101.193 F7200.000
G1 E0.80000 F2100.00000
M204 S1000
G1 F2100
G1 X91.869 Y100.208 E0.05251
G1 X150.353 Y84.109 E1.90194
G1 X150.907 Y84.004 E0.01768
G1 X151.206 Y83.986 E0.00939
G1 X151.729 Y84.038 E0.01647
G1 X152.171 Y84.144 E0.01426
G1 X152.494 Y84.266 E0.01083
G1 X152.823 Y84.433 E0.01155
G1 X154.524 Y85.471 E0.06250
G1 X155.575 Y86.857 E0.05454
G1 X159.789 Y101.857 E0.48852
G1 X159.877 Y102.500 E0.02035
G1 X159.877 Y122.500 E0.62709
G1 X159.485 Y123.807 E0.04278
G1 X158.440 Y124.683 E0.04278
G1 X157.500 Y124.877 E0.03008
G1 X92.500 Y124.877 E2.03803
G1 X91.193 Y124.485 E0.04278
G1 X90.317 Y123.440 E0.04278
G1 X90.123 Y122.500 E0.03008
G1 X90.123 Y102.500 E0.62709
G1 X90.497 Y101.250 E0.04090
G1 F5760
G1 X91.869 Y100.208 E-0.59672
G1 F5760
G1 X92.324 Y100.083 E-0.16328
G1 E-0.04000 F2100.00000
G1 X93.464 Y103.464 F7200.000
G1 E0.80000 F2100.00000
G1 F1680
G1 X156.536 Y103.464 E1.97757
G1 X156.536 Y121.536 E0.56663
G1 X93.464 Y121.536 E1.97757
G1 X93.464 Y103.524 E0.56474
G1 F5760
G1 X95.658 Y103.522 E-0.76000
G1 E-0.04000 F2100.00000
G1 X152.663 Y103.087 F7200.000
G1 E0.80000 F2100.00000
G1 F1680
G1 X156.913 Y103.087 E0.13325
G1 X156.913 Y121.913 E0.59027
G1 X93.087 Y121.913 E2.00121
G1 X93.087 Y103.087 E0.59027
G1 X152.338 Y103.087 E1.85777
G1 X152.100 Y89.594 E0.42314
G1 X152.111 Y88.087 E0.04724
G1 X152.705 Y88.087 E0.01862
G1 X152.777 Y95.922 E0.24565
G1 X152.664 Y103.027 E0.22282
G1 X153.046 Y102.710 F7200.000
G1 F1260
G1 X157.290 Y102.710 E0.13306
G1 X157.290 Y122.290 E0.61392
G1 X92.710 Y122.290 E2.02486
G1 X92.710 Y102.710 E0.61392
G1 X151.954 Y102.710 E1.85756
G1 X151.723 Y89.596 E0.41125
G1 X151.736 Y87.710 E0.05913
G1 X153.078 Y87.710 E0.04208
G1 X153.154 Y95.923 E0.25752
G1 X153.047 Y102.650 E0.21095
G1 X153.046 Y103.110 F7200.000
G1 F5760
G1 X155.241 Y102.681 E-0.76000
G1 E-0.04000 F2100.00000
G1 X152.498 Y100.060 F7200.000
G1 E0.80000 F2100.00000
G1 F1680
G1 X152.496 Y97.300 E0.01227
G1 F1680
G1 X152.452 Y92.756 E0.05497
G1 F1680
G1 X152.408 Y88.276 E0.07392
G1 F5760
G1 X152.430 Y90.470 E-0.76000
G1 E-0.04000 F2100.00000
G1 X156.423 Y104.342 F7200.000
G1 E0.80000 F2100.00000
G1 F1680
G1 X155.828 Y103.747 E0.02646
G1 X155.293 Y103.747 E0.01682
G1 X156.253 Y104.707 E0.04270
G1 X156.253 Y105.242 E0.01682
G1 X154.758 Y103.747 E0.06649
G1 X154.223 Y103.747 E0.01682
G1 X156.253 Y105.777 E0.09028
G1 X156.253 Y106.312 E0.01682
G1 X153.688 Y103.747 E0.11407
G1 X153.153 Y103.747 E0.01682
G1 X156.253 Y106.847 E0.13786
G1 X156.253 Y107.382 E0.01682
G1 X152.618 Y103.747 E0.16165
G1 X152.084 Y103.747 E0.01682
G1 X156.253 Y107.916 E0.18544
G1 X156.253 Y108.451 E0.01682
G1 X151.549 Y103.747 E0.20922
G1 X151.014 Y103.747 E0.01682
G1 X156.253 Y108.986 E0.23301
G1 X156.253 Y109.521 E0.01682
G1 X150.479 Y103.747 E0.25680
G1 X149.944 Y103.747 E0.01682
G1 X156.253 Y110.056 E0.28059
G1 X156.253 Y110.591 E0.01682
G1 X149.409 Y103.747 E0.30438
G1 X148.874 Y103.747 E0.01682
G1 X156.253 Y111.126 E0.32817
G1 X156.253 Y111.661 E0.01682
G1 X148.339 Y103.747 E0.35196
G1 X147.805 Y103.747 E0.01682
G1 X156.253 Y112.195 E0.37574
G1 X156.253 Y112.730 E0.01682
G1 X147.270 Y103.747 E0.39953
G1 X146.735 Y103.747 E0.01682
G1 X156.253 Y113.265 E0.42332
G1 X156.253 Y113.800 E0.01682
G1 X146.200 Y103.747 E0.44711
G1 X145.665 Y103.747 E0.01682
G1 X156.253 Y114.335 E0.47090
G1 X156.253 Y114.870 E0.01682
G1 X145.130 Y103.747 E0.49469
G1 X144.595 Y103.747 E0.01682
G1 X156.253 Y115.405 E0.51848
G1 X156.253 Y115.940 E0.01682
G1 X144.060 Y103.747 E0.54227
G1 X143.526 Y103.747 E0.01682
G1 X156.253 Y116.474 E0.56605
G1 X156.253 Y117.009 E0.01682
G1 X142.991 Y103.747 E0.58984
G1 X142.456 Y103.747 E0.01682
G1 X156.253 Y117.544 E0.61363
G1 X156.253 Y118.079 E0.01682
G1 X141.921 Y103.747 E0.63742
G1 X141.386 Y103.747 E0.01682
G1 X156.253 Y118.614 E0.66121
G1 X156.253 Y119.149 E0.01682
G1 X140.851 Y103.747 E0.68500
G1 X140.316 Y103.747 E0.01682
G1 X156.253 Y119.684 E0.70879
G1 X156.253 Y120.219 E0.01682
G1 X139.781 Y103.747 E0.73257
G1 X139.247 Y103.747 E0.01682
G1 X156.253 Y120.753 E0.75636
G1 X156.253 Y121.253 E0.01571
G1 X156.218 Y121.253 E0.00111
G1 X138.712 Y103.747 E0.77859
G1 X138.177 Y103.747 E0.01682
G1 X155.683 Y121.253 E0.77859
G1 X155.148 Y121.253 E0.01682
G1 X137.642 Y103.747 E0.77859
G1 X137.107 Y103.747 E0.01682
G1 X154.613 Y121.253 E0.77859
G1 X154.078 Y121.253 E0.01682
G1 X136.572 Y103.747 E0.77859
G1 X136.037 Y103.747 E0.01682
G1 X153.543 Y121.253 E0.77859
G1 X153.009 Y121.253 E0.01682
G1 X135.502 Y103.747 E0.77859
G1 X134.968 Y103.747 E0.01682
G1 X152.474 Y121.253 E0.77859
G1 X151.939 Y121.253 E0.01682
G1 X134.433 Y103.747 E0.77859
G1 X133.898 Y103.747 E0.01682
G1 X151.404 Y121.253 E0.77859
G1 X150.869 Y121.253 E0.01682
G1 X133.363 Y103.747 E0.77859
G1 X132.828 Y103.747 E0.01682
G1 X150.334 Y121.253 E0.77859
G1 X149.799 Y121.253 E0.01682
G1 X132.293 Y103.747 E0.77859
G1 X131.758 Y103.747 E0.01682
G1 X149.264 Y121.253 E0.77859
G1 X148.730 Y121.253 E0.01682
G1 X131.223 Y103.747 E0.77859
G1 X130.689 Y103.747 E0.01682
G1 X148.195 Y121.253 E0.77859
G1 X147.660 Y121.253 E0.01682
G1 X130.154 Y103.747 E0.77859
G1 X129.619 Y103.747 E0.01682
G1 X147.125 Y121.253 E0.77859
G1 X146.590 Y121.253 E0.01682
G1 X129.084 Y103.747 E0.77859
G1 X128.549 Y103.747 E0.01682
G1 X146.055 Y121.253 E0.77859
G1 X145.520 Y121.253 E0.01682
G1 X128.014 Y103.747 E0.77859
G1 X127.479 Y103.747 E0.01682
G1 X144.985 Y121.253 E0.77859
G1 X144.451 Y121.253 E0.01682
G1 X126.944 Y103.747 E0.77859
G1 X126.410 Y103.747 E0.01682
G1 X143.916 Y121.253 E0.77859
G1 X143.381 Y121.253 E0.01682
G1 X125.875 Y103.747 E0.77859
G1 X125.340 Y103.747 E0.01682
G1 X142.846 Y121.253 E0.77859
G1 X142.311 Y121.253 E0.01682
G1 X124.805 Y103.747 E0.77859
G1 X124.270 Y103.747 E0.01682
G1 X141.776 Y121.253 E0.77859
G1 X141.241 Y121.253 E0.01682
G1 X123.735 Y103.747 E0.77859
G1 X123.200 Y103.747 E0.01682
G1 X140.706 Y121.253 E0.77859
G1 X140.172 Y121.253 E0.01682
G1 X122.665 Y103.747 E0.77859
G1 X122.131 Y103.747 E0.01682
G1 X139.637 Y121.253 E0.77859
G1 X139.102 Y121.253 E0.01682
G1 X121.596 Y103.747 E0.77859
G1 X121.061 Y103.747 E0.01682
G1 X138.567 Y121.253 E0.77859
G1 X138.032 Y121.253 E0.01682
G1 X120.526 Y103.747 E0.77859
G1 X119.991 Y103.747 E0.01682
G1 X137.497 Y121.253 E0.77859
G1 X136.962 Y121.253 E0.01682
G1 X119.456 Y103.747 E0.77859
G1 X118.921 Y103.747 E0.01682
G1 X136.427 Y121.253 E0.77859
G1 X135.893 Y121.253 E0.01682
G1 X118.386 Y103.747 E0.77859
G1 X117.852 Y103.747 E0.01682
G1 X135.358 Y121.253 E0.77859
G1 X134.823 Y121.253 E0.01682
G1 X117.317 Y103.747 E0.77859
G1 X116.782 Y103.747 E0.01682
G1 X134.288 Y121.253 E0.77859
G1 X133.753 Y121.253 E0.01682
G1 X116.247 Y103.747 E0.77859
G1 X115.712 Y103.747 E0.01682
G1 X133.218 Y121.253 E0.77859
G1 X132.683 Y121.253 E0.01682
G1 X115.177 Y103.747 E0.77859
G1 X114.642 Y103.747 E0.01682
G1 X132.148 Y121.253 E0.77859
G1 X131.614 Y121.253 E0.01682
G1 X114.107 Y103.747 E0.77859
G1 X113.573 Y103.747 E0.01682
G1 X131.079 Y121.253 E0.77859
G1 X130.544 Y121.253 E0.01682
G1 X113.038 Y103.747 E0.77859
G1 X112.503 Y103.747 E0.01682
G1 X130.009 Y121.253 E0.77859
G1 X129.474 Y121.253 E0.01682
G1 X111.968 Y103.747 E0.77859
G1 X111.433 Y103.747 E0.01682
G1 X128.939 Y121.253 E0.77859
G1 X128.404 Y121.253 E0.01682
G1 X110.898 Y103.747 E0.77859
G1 X110.363 Y103.747 E0.01682
G1 X127.869 Y121.253 E0.77859
G1 X127.335 Y121.253 E0.01682
G1 X109.828 Y103.747 E0.77859
G1 X109.294 Y103.747 E0.01682
G1 X126.800 Y121.253 E0.77859
G1 X126.265 Y121.253 E0.01682
G1 X108.759 Y103.747 E0.77859
G1 X108.224 Y103.747 E0.01682
G1 X125.730 Y121.253 E0.77859
G1 X125.195 Y121.253 E0.01682
G1 X107.689 Y103.747 E0.77859
G1 X107.154 Y103.747 E0.01682
G1 X124.660 Y121.253 E0.77859
G1 X124.125 Y121.253 E0.01682
G1 X106.619 Y103.747 E0.77859
G1 X106.084 Y103.747 E0.01682
G1 X123.590 Y121.253 E0.77859
G1 X123.056 Y121.253 E0.01682
G1 X105.549 Y103.747 E0.77859
G1 X105.015 Y103.747 E0.01682
G1 X122.521 Y121.253 E0.77859
G1 X121.986 Y121.253 E0.01682
G1 X104.480 Y103.747 E0.77859
G1 X103.945 Y103.747 E0.01682
G1 X121.451 Y121.253 E0.77859
G1 X120.916 Y121.253 E0.01682
G1 X103.410 Y103.747 E0.77859
G1 X102.875 Y103.747 E0.01682
G1 X120.381 Y121.253 E0.77859
G1 X119.846 Y121.253 E0.01682
G1 X102.340 Y103.747 E0.77859
G1 X101.805 Y103.747 E0.01682
G1 X119.311 Y121.253 E0.77859
G1 X118.777 Y121.253 E0.01682
G1 X101.270 Y103.747 E0.77859
G1 X100.736 Y103.747 E0.01682
G1 X118.242 Y121.253 E0.77859
G1 X117.707 Y121.253 E0.01682
G1 X100.201 Y103.747 E0.77859
G1 X99.666 Y103.747 E0.01682
G1 X117.172 Y121.253 E0.77859
G1 X116.637 Y121.253 E0.01682
G1 X99.131 Y103.747 E0.77859
G1 X98.596 Y103.747 E0.01682
G1 X116.102 Y121.253 E0.77859
G1 X115.567 Y121.253 E0.01682
G1 X98.061 Y103.747 E0.77859
G1 X97.526 Y103.747 E0.01682
G1 X115.032 Y121.253 E0.77859
G1 X114.498 Y121.253 E0.01682
G1 X96.991 Y103.747 E0.77859
G1 X96.457 Y103.747 E0.01682
G1 X113.963 Y121.253 E0.77859
G1 X113.428 Y121.253 E0.01682
G1 X95.922 Y103.747 E0.77859
G1 X95.387 Y103.747 E0.01682
G1 X112.893 Y121.253 E0.77859
G1 X112.358 Y121.253 E0.01682
G1 X94.852 Y103.747 E0.77859
G1 X94.317 Y103.747 E0.01682
G1 X111.823 Y121.253 E0.77859
G1 X111.288 Y121.253 E0.01682
G1 X93.782 Y103.747 E0.77859
G1 X93.747 Y103.747 E0.00111
G1 X93.747 Y104.247 E0.01571
G1 X110.753 Y121.253 E0.75637
G1 X110.219 Y121.253 E0.01682
G1 X93.747 Y104.781 E0.73258
G1 X93.747 Y105.316 E0.01682
G1 X109.684 Y121.253 E0.70879
G1 X109.149 Y121.253 E0.01682
G1 X93.747 Y105.851 E0.68500
G1 X93.747 Y106.386 E0.01682
G1 X108.614 Y121.253 E0.66121
G1 X108.079 Y121.253 E0.01682
G1 X93.747 Y106.921 E0.63742
G1 X93.747 Y107.456 E0.01682
G1 X107.544 Y121.253 E0.61363
G1 X107.009 Y121.253 E0.01682
G1 X93.747 Y107.991 E0.58984
G1 X93.747 Y108.526 E0.01682
G1 X106.474 Y121.253 E0.56606
G1 X105.940 Y121.253 E0.01682
G1 X93.747 Y109.060 E0.54227
G1 X93.747 Y109.595 E0.01682
G1 X105.405 Y121.253 E0.51848
G1 X104.870 Y121.253 E0.01682
G1 X93.747 Y110.130 E0.49469
G1 X93.747 Y110.665 E0.01682
G1 X104.335 Y121.253 E0.47090
G1 X103.800 Y121.253 E0.01682
G1 X93.747 Y111.200 E0.44711
G1 X93.747 Y111.735 E0.01682
G1 X103.265 Y121.253 E0.42332
G1 X102.730 Y121.253 E0.01682
G1 X93.747 Y112.270 E0.39954
G1 X93.747 Y112.805 E0.01682
G1 X102.195 Y121.253 E0.37575
G1 X101.661 Y121.253 E0.01682
G1 X93.747 Y113.339 E0.35196
G1 X93.747 Y113.874 E0.01682
G1 X101.126 Y121.253 E0.32817
G1 X100.591 Y121.253 E0.01682
G1 X93.747 Y114.409 E0.30438
G1 X93.747 Y114.944 E0.01682
G1 X100.056 Y121.253 E0.28059
G1 X99.521 Y121.253 E0.01682
G1 X93.747 Y115.479 E0.25680
G1 X93.747 Y116.014 E0.01682
G1 X98.986 Y121.253 E0.23302
G1 X98.451 Y121.253 E0.01682
G1 X93.747 Y116.549 E0.20923
G1 X93.747 Y117.084 E0.01682
G1 X97.916 Y121.253 E0.18544
G1 X97.382 Y121.253 E0.01682
G1 X93.747 Y117.618 E0.16165
G1 X93.747 Y118.153 E0.01682
G1 X96.847 Y121.253 E0.13786
G1 X96.312 Y121.253 E0.01682
G1 X93.747 Y118.688 E0.11407
G1 X93.747 Y119.223 E0.01682
G1 X95.777 Y121.253 E0.09028
G1 X95.242 Y121.253 E0.01682
G1 X93.747 Y119.758 E0.06650
G1 X93.747 Y120.293 E0.01682
G1 X94.707 Y121.253 E0.04271
G1 X94.172 Y121.253 E0.01682
G1 X93.577 Y120.658 E0.02646
G1 F5760
G1 X94.172 Y121.253 E-0.29146
G1 F5760
G1 X94.707 Y121.253 E-0.18526
G1 F5760
G1 X94.129 Y120.675 E-0.28328
G1 E-0.04000 F2100.00000
G1 Z0.200 F7200.000
G1 X150.431 Y87.081 F7200.000
G1 E0.80000 F2100.00000
G1 F2100
G1 X150.720 Y86.503 E0.02026
G1 X150.924 Y86.419 E0.00693
G1 X151.140 Y86.370 E0.00694
G1 X151.265 Y86.370 E0.00391
G1 X151.421 Y86.401 E0.00500
G1 X151.585 Y86.462 E0.00546
G1 X151.337 Y86.956 E0.01734
M106 S221.85
M104 S205 ; set temperature
G1 F5760
G1 X151.585 Y86.462 E-0.19154
G1 F5760
G1 X151.421 Y86.401 E-0.06036
G1 F5760
G1 X151.265 Y86.370 E-0.05520
G1 F5760
G1 X151.140 Y86.370 E-0.04321
G1 F5760
G1 X150.924 Y86.419 E-0.07670
G1 F5760
G1 X150.720 Y86.503 E-0.07657
G1 F5760
G1 X150.431 Y87.081 E-0.22382
G1 E-0.07260 F2100.00000
G1 Z0.300 F7200.000
G1 Z0.400 F7200.000
G1 X153.063 Y103.539 F7200.000
G1 E0.80000 F2100.00000
M204 S800
G1 F2400
G1 X156.461 Y103.539 E0.11502
G1 X156.461 Y121.461 E0.60663
G1 X93.539 Y121.461 E2.12982
G1 X93.539 Y103.539 E0.60663
G1 X151.939 Y103.539 E1.97676
G1 X151.891 Y96.135 E0.25061
G1 X151.944 Y88.539 E0.25713
G1 X153.127 Y88.539 E0.04003
G1 X153.063 Y103.479 E0.50571
M204 S1000
G1 X153.472 Y103.132 F7200.000
M204 S800
G1 F2400
G1 X156.868 Y103.132 E0.11495
G1 X156.868 Y121.868 E0.63419
G1 X93.132 Y121.868 E2.15738
G1 X93.132 Y103.132 E0.63419
G1 X151.529 Y103.132 E1.97667
G1 X151.524 Y102.300 E0.02817
M106 S255
G1 F1200
G1 X151.516 Y101.121 E0.05854
M106 S221.85
G1 F2400
G1 X151.484 Y96.135 E0.16875
G1 X151.540 Y88.132 E0.27091
G1 X153.492 Y88.132 E0.06608
M106 S255
G1 F1200
G1 X153.533 Y88.132 E0.00200
G1 X153.526 Y91.781 E0.18111
M106 S221.85
G1 F2400
G1 X153.482 Y101.125 E0.31627
M106 S255
G1 F1200
G1 X153.476 Y102.300 E0.05834
M106 S221.85
G1 F2400
G1 X153.472 Y103.072 E0.02613
M204 S1000
G1 X153.881 Y102.725 F7200.000
M204 S800
G1 F1800
G1 X157.275 Y102.725 E0.11488
G1 X157.275 Y122.275 E0.66174
G1 X92.725 Y122.275 E2.18494
G1 X92.725 Y102.725 E0.66174
G1 X151.119 Y102.725 E1.97658
G1 X151.117 Y102.300 E0.01439
M106 S255
G1 F1200
G1 X151.077 Y96.135 E0.30598
G1 X151.136 Y87.725 E0.41743
G1 X151.326 Y87.725 E0.00946
M106 S221.85
G1 F1800
G1 X153.489 Y87.725 E0.07319
M106 S255
G1 F1200
G1 X153.938 Y87.725 E0.02232
G1 X153.883 Y102.300 E0.72340
M106 S221.85
G1 F1800
G1 X153.881 Y102.665 E0.01235
M204 S1000
G1 X153.880 Y103.125 F7200.000
G1 F5760
G1 X156.075 Y102.704 E-0.76000
G1 E-0.04000 F2100.00000
G1 X152.060 Y89.491 F7200.000
G1 E0.80000 F2100.00000
M204 S2000
G1 F2400
G1 X152.706 Y88.844 E0.03111
G1 X152.823 Y88.844 E0.00396
G1 X152.824 Y89.305 E0.01567
G1 X152.240 Y89.889 E0.02811
G1 X152.236 Y90.472 E0.01983
G1 X152.823 Y89.885 E0.02823
G1 X152.820 Y90.467 E0.01978
G1 X152.232 Y91.055 E0.02830
G1 X152.228 Y91.638 E0.01983
G1 X152.817 Y91.048 E0.02836
G1 X152.814 Y91.630 E0.01978
G1 X152.224 Y92.220 E0.02842
G1 X152.220 Y92.803 E0.01983
G1 X152.812 Y92.211 E0.02849
G1 X152.809 Y92.793 E0.01978
G1 X152.215 Y93.386 E0.02855
G1 X152.211 Y93.969 E0.01983
G1 X152.806 Y93.374 E0.02861
G1 X152.803 Y93.956 E0.01978
G1 X152.207 Y94.552 E0.02868
G1 X152.203 Y95.134 E0.01983
G1 X152.801 Y94.537 E0.02874
G1 X152.798 Y95.118 E0.01978
G1 X152.199 Y95.717 E0.02881
G1 X152.196 Y96.135 E0.01424
G1 X152.197 Y96.298 E0.00552
G1 X152.795 Y95.700 E0.02876
G1 X152.792 Y96.281 E0.01978
G1 X152.201 Y96.873 E0.02845
G1 X152.205 Y97.448 E0.01956
G1 X152.789 Y96.863 E0.02814
G1 X152.787 Y97.444 E0.01978
G1 X152.208 Y98.023 E0.02783
G1 X152.212 Y98.597 E0.01956
G1 X152.784 Y98.026 E0.02751
G1 X152.781 Y98.607 E0.01978
G1 X152.216 Y99.172 E0.02720
G1 X152.220 Y99.747 E0.01956
G1 X152.778 Y99.189 E0.02689
G1 X152.776 Y99.770 E0.01978
G1 X152.223 Y100.322 E0.02657
G1 X152.227 Y100.897 E0.01956
G1 X152.773 Y100.351 E0.02626
G1 X152.770 Y100.933 E0.01978
G1 X152.231 Y101.472 E0.02595
G1 X152.234 Y102.047 E0.01956
G1 X152.767 Y101.514 E0.02564
G1 X152.764 Y102.096 E0.01978
G1 X152.238 Y102.622 E0.02532
G1 X152.242 Y103.197 E0.01956
G1 X152.762 Y102.677 E0.02501
G1 X152.759 Y103.259 E0.01978
G1 X134.862 Y121.156 E0.86115
G1 X135.441 Y121.156 E0.01969
G1 X152.756 Y103.840 E0.83317
