; generated by Slic3r 1.31.6-prusa3d on 2016-11-30 at 23:46:15

; external perimeters extrusion width = 0.60mm
; perimeters extrusion width = 0.43mm
; infill extrusion width = 0.70mm
; solid infill extrusion width = 0.70mm
; top infill extrusion width = 0.43mm

M107
M115 U3.0.9 ; tell printer latest fw version
M83  ; extruder relative mode
M104 S215 ; set extruder temp
M140 S55 ; set bed temp
M190 S55 ; wait for bed temp
M109 S215 ; wait for extruder temp
G28 W ; home all without mesh bed level
G80 ; mesh bed leveling
G1 Y-3.0 F1000.0 ; go outside pritn area
G1 X60.0 E9.0  F1000.0 ; intro line
G1 X100.0 E12.5  F1000.0 ; intro line
G21 ; set units to millimeters
G90 ; use absolute coordinates
M83 ; use relative distances for extrusion
G1 E-0.80000 F2100.00000
G1 Z0.200 F6000.000
G1 X90.515 Y93.693 F6000.000
G1 E0.80000 F2100.00000
M204 S1000
G1 F2100
G1 X91.560 Y92.817 E0.04278
G1 X92.500 Y92.623 E0.03008
G1 X157.500 Y92.623 E2.03803
G1 X158.807 Y93.015 E0.04278
G1 X159.683 Y94.060 E0.04278
G1 X159.877 Y95.000 E0.03008
G1 X159.877 Y115.000 E0.62709
G1 X159.485 Y116.307 E0.04278
G1 X158.440 Y117.183 E0.04278
G1 X157.500 Y117.377 E0.03008
G1 X92.500 Y117.377 E2.03803
G1 X91.193 Y116.985 E0.04278
G1 X90.317 Y115.940 E0.04278
G1 X90.123 Y115.000 E0.03008
G1 X90.123 Y95.000 E0.62709
G1 X90.497 Y93.750 E0.04090
G1 F4800
G1 X91.560 Y92.817 E-0.58808
G1 F4800
G1 X91.965 Y92.733 E-0.17192
G1 E-0.04000 F2100.00000
G1 X93.087 Y95.587 F6000.000
G1 E0.80000 F2100.00000
G1 F1680
G1 X156.913 Y95.587 E2.00121
G1 X156.913 Y114.413 E0.59027
G1 X93.087 Y114.413 E2.00121
G1 X93.087 Y95.647 E0.58839
G1 X92.710 Y95.210 F6000.000
G1 F1260
G1 X157.290 Y95.210 E2.02486
G1 X157.290 Y114.790 E0.61392
G1 X92.710 Y114.790 E2.02486
G1 X92.710 Y95.270 E0.61204
G1 X93.108 Y95.249 F6000.000
G1 F4800
G1 X94.539 Y95.268 E-0.76000
G1 E-0.04000 F2100.00000
G1 X93.964 Y114.300 F6000.000
G1 E0.80000 F2100.00000
G1 F2520
G1 X93.370 Y113.706 E0.02639
G1 X93.370 Y113.172 E0.01678
G1 X94.328 Y114.130 E0.04259
G1 X94.863 Y114.130 E0.01678
G1 X93.370 Y112.637 E0.06632
G1 X93.370 Y112.103 E0.01678
G1 X95.397 Y114.130 E0.09005
G1 X95.931 Y114.130 E0.01678
G1 X93.370 Y111.569 E0.11378
G1 X93.370 Y111.035 E0.01678
G1 X96.465 Y114.130 E0.13752
G1 X97.000 Y114.130 E0.01678
G1 X93.370 Y110.500 E0.16125
G1 X93.370 Y109.966 E0.01678
G1 X97.534 Y114.130 E0.18498
G1 X98.068 Y114.130 E0.01678
G1 X93.370 Y109.432 E0.20872
G1 X93.370 Y108.898 E0.01678
G1 X98.602 Y114.130 E0.23245
G1 X99.137 Y114.130 E0.01678
G1 X93.370 Y108.363 E0.25618
G1 X93.370 Y107.829 E0.01678
G1 X99.671 Y114.130 E0.27992
G1 X100.205 Y114.130 E0.01678
G1 X93.370 Y107.295 E0.30365
G1 X93.370 Y106.761 E0.01678
G1 X100.739 Y114.130 E0.32738
G1 X101.274 Y114.130 E0.01678
G1 X93.370 Y106.226 E0.35111
G1 X93.370 Y105.692 E0.01678
G1 X101.808 Y114.130 E0.37485
G1 X102.342 Y114.130 E0.01678
G1 X93.370 Y105.158 E0.39858
G1 X93.370 Y104.624 E0.01678
G1 X102.876 Y114.130 E0.42231
G1 X103.411 Y114.130 E0.01678
G1 X93.370 Y104.089 E0.44605
G1 X93.370 Y103.555 E0.01678
G1 X103.945 Y114.130 E0.46978
G1 X104.479 Y114.130 E0.01678
G1 X93.370 Y103.021 E0.49351
G1 X93.370 Y102.487 E0.01678
G1 X105.013 Y114.130 E0.51725
G1 X105.548 Y114.130 E0.01678
G1 X93.370 Y101.952 E0.54098
G1 X93.370 Y101.418 E0.01678
G1 X106.082 Y114.130 E0.56471
G1 X106.616 Y114.130 E0.01678
G1 X93.370 Y100.884 E0.58845
G1 X93.370 Y100.350 E0.01678
G1 X107.150 Y114.130 E0.61218
G1 X107.685 Y114.130 E0.01678
G1 X93.370 Y99.815 E0.63591
G1 X93.370 Y99.281 E0.01678
G1 X108.219 Y114.130 E0.65964
G1 X108.753 Y114.130 E0.01678
G1 X93.370 Y98.747 E0.68338
G1 X93.370 Y98.213 E0.01678
G1 X109.287 Y114.130 E0.70711
G1 X109.822 Y114.130 E0.01678
G1 X93.370 Y97.678 E0.73084
G1 X93.370 Y97.144 E0.01678
G1 X110.356 Y114.130 E0.75458
G1 X110.890 Y114.130 E0.01678
G1 X93.370 Y96.610 E0.77831
G1 X93.370 Y96.076 E0.01678
G1 X111.424 Y114.130 E0.80204
G1 X111.959 Y114.130 E0.01678
G1 X93.698 Y95.870 E0.81118
G1 X94.233 Y95.870 E0.01678
G1 X112.493 Y114.130 E0.81118
G1 X113.027 Y114.130 E0.01678
G1 X94.767 Y95.870 E0.81118
G1 X95.301 Y95.870 E0.01678
G1 X113.561 Y114.130 E0.81118
G1 X114.096 Y114.130 E0.01678
G1 X95.835 Y95.870 E0.81118
G1 X96.370 Y95.870 E0.01678
G1 X114.630 Y114.130 E0.81118
G1 X115.164 Y114.130 E0.01678
G1 X96.904 Y95.870 E0.81118
G1 X97.438 Y95.870 E0.01678
G1 X115.699 Y114.130 E0.81118
G1 X116.233 Y114.130 E0.01678
G1 X97.972 Y95.870 E0.81118
G1 X98.507 Y95.870 E0.01678
G1 X116.767 Y114.130 E0.81118
G1 X117.301 Y114.130 E0.01678
G1 X99.041 Y95.870 E0.81118
G1 X99.575 Y95.870 E0.01678
G1 X117.836 Y114.130 E0.81118
G1 X118.370 Y114.130 E0.01678
G1 X100.109 Y95.870 E0.81118
G1 X100.644 Y95.870 E0.01678
G1 X118.904 Y114.130 E0.81118
G1 X119.438 Y114.130 E0.01678
G1 X101.178 Y95.870 E0.81118
G1 X101.712 Y95.870 E0.01678
G1 X119.973 Y114.130 E0.81118
G1 X120.507 Y114.130 E0.01678
G1 X102.246 Y95.870 E0.81118
G1 X102.781 Y95.870 E0.01678
G1 X121.041 Y114.130 E0.81118
G1 X121.575 Y114.130 E0.01678
G1 X103.315 Y95.870 E0.81118
G1 X103.849 Y95.870 E0.01678
G1 X122.110 Y114.130 E0.81118
G1 X122.644 Y114.130 E0.01678
G1 X104.383 Y95.870 E0.81118
G1 X104.918 Y95.870 E0.01678
G1 X123.178 Y114.130 E0.81118
G1 X123.712 Y114.130 E0.01678
G1 X105.452 Y95.870 E0.81118
G1 X105.986 Y95.870 E0.01678
G1 X124.247 Y114.130 E0.81118
G1 X124.781 Y114.130 E0.01678
G1 X106.520 Y95.870 E0.81118
G1 X107.055 Y95.870 E0.01678
G1 X125.315 Y114.130 E0.81118
G1 X125.849 Y114.130 E0.01678
G1 X107.589 Y95.870 E0.81118
G1 X108.123 Y95.870 E0.01678
G1 X126.384 Y114.130 E0.81118
G1 X126.918 Y114.130 E0.01678
G1 X108.657 Y95.870 E0.81118
G1 X109.192 Y95.870 E0.01678
G1 X127.452 Y114.130 E0.81118
G1 X127.986 Y114.130 E0.01678
G1 X109.726 Y95.870 E0.81118
G1 X110.260 Y95.870 E0.01678
G1 X128.521 Y114.130 E0.81118
G1 X129.055 Y114.130 E0.01678
G1 X110.794 Y95.870 E0.81118
G1 X111.329 Y95.870 E0.01678
G1 X129.589 Y114.130 E0.81118
G1 X130.123 Y114.130 E0.01678
G1 X111.863 Y95.870 E0.81118
G1 X112.397 Y95.870 E0.01678
G1 X130.658 Y114.130 E0.81118
G1 X131.192 Y114.130 E0.01678
G1 X112.931 Y95.870 E0.81118
G1 X113.466 Y95.870 E0.01678
G1 X131.726 Y114.130 E0.81118
G1 X132.260 Y114.130 E0.01678
G1 X114.000 Y95.870 E0.81118
G1 X114.534 Y95.870 E0.01678
G1 X132.795 Y114.130 E0.81118
G1 X133.329 Y114.130 E0.01678
G1 X115.068 Y95.870 E0.81118
G1 X115.603 Y95.870 E0.01678
G1 X133.863 Y114.130 E0.81118
G1 X134.397 Y114.130 E0.01678
G1 X116.137 Y95.870 E0.81118
G1 X116.671 Y95.870 E0.01678
G1 X134.932 Y114.130 E0.81118
G1 X135.466 Y114.130 E0.01678
G1 X117.205 Y95.870 E0.81118
G1 X117.740 Y95.870 E0.01678
G1 X136.000 Y114.130 E0.81118
G1 X136.534 Y114.130 E0.01678
G1 X118.274 Y95.870 E0.81118
G1 X118.808 Y95.870 E0.01678
G1 X137.069 Y114.130 E0.81118
G1 X137.603 Y114.130 E0.01678
G1 X119.342 Y95.870 E0.81118
G1 X119.877 Y95.870 E0.01678
G1 X138.137 Y114.130 E0.81118
G1 X138.671 Y114.130 E0.01678
G1 X120.411 Y95.870 E0.81118
G1 X120.945 Y95.870 E0.01678
G1 X139.206 Y114.130 E0.81118
G1 X139.740 Y114.130 E0.01678
G1 X121.479 Y95.870 E0.81118
G1 X122.014 Y95.870 E0.01678
G1 X140.274 Y114.130 E0.81118
G1 X140.808 Y114.130 E0.01678
G1 X122.548 Y95.870 E0.81118
G1 X123.082 Y95.870 E0.01678
G1 X141.343 Y114.130 E0.81118
G1 X141.877 Y114.130 E0.01678
G1 X123.616 Y95.870 E0.81118
G1 X124.151 Y95.870 E0.01678
G1 X142.411 Y114.130 E0.81118
G1 X142.945 Y114.130 E0.01678
G1 X124.685 Y95.870 E0.81118
G1 X125.219 Y95.870 E0.01678
G1 X143.480 Y114.130 E0.81118
G1 X144.014 Y114.130 E0.01678
G1 X125.754 Y95.870 E0.81118
G1 X126.288 Y95.870 E0.01678
G1 X144.548 Y114.130 E0.81118
G1 X145.082 Y114.130 E0.01678
G1 X126.822 Y95.870 E0.81118
G1 X127.356 Y95.870 E0.01678
G1 X145.617 Y114.130 E0.81118
G1 X146.151 Y114.130 E0.01678
G1 X127.891 Y95.870 E0.81118
G1 X128.425 Y95.870 E0.01678
G1 X146.685 Y114.130 E0.81118
G1 X147.219 Y114.130 E0.01678
G1 X128.959 Y95.870 E0.81118
G1 X129.493 Y95.870 E0.01678
G1 X147.754 Y114.130 E0.81118
G1 X148.288 Y114.130 E0.01678
G1 X130.028 Y95.870 E0.81118
G1 X130.562 Y95.870 E0.01678
G1 X148.822 Y114.130 E0.81118
G1 X149.356 Y114.130 E0.01678
G1 X131.096 Y95.870 E0.81118
G1 X131.630 Y95.870 E0.01678
G1 X149.891 Y114.130 E0.81118
G1 X150.425 Y114.130 E0.01678
G1 X132.165 Y95.870 E0.81118
G1 X132.699 Y95.870 E0.01678
G1 X150.959 Y114.130 E0.81118
G1 X151.493 Y114.130 E0.01678
G1 X133.233 Y95.870 E0.81118
G1 X133.767 Y95.870 E0.01678
G1 X152.028 Y114.130 E0.81118
G1 X152.562 Y114.130 E0.01678
G1 X134.302 Y95.870 E0.81118
G1 X134.836 Y95.870 E0.01678
G1 X153.096 Y114.130 E0.81118
G1 X153.630 Y114.130 E0.01678
G1 X135.370 Y95.870 E0.81118
G1 X135.904 Y95.870 E0.01678
G1 X154.165 Y114.130 E0.81118
G1 X154.699 Y114.130 E0.01678
G1 X136.439 Y95.870 E0.81118
G1 X136.973 Y95.870 E0.01678
G1 X155.233 Y114.130 E0.81118
G1 X155.767 Y114.130 E0.01678
G1 X137.507 Y95.870 E0.81118
G1 X138.041 Y95.870 E0.01678
G1 X156.302 Y114.130 E0.81118
G1 X156.630 Y114.130 E0.01032
G1 X156.630 Y113.924 E0.00646
G1 X138.576 Y95.870 E0.80204
G1 X139.110 Y95.870 E0.01678
G1 X156.630 Y113.390 E0.77831
G1 X156.630 Y112.856 E0.01678
G1 X139.644 Y95.870 E0.75458
G1 X140.178 Y95.870 E0.01678
G1 X156.630 Y112.322 E0.73084
G1 X156.630 Y111.787 E0.01678
G1 X140.713 Y95.870 E0.70711
G1 X141.247 Y95.870 E0.01678
G1 X156.630 Y111.253 E0.68338
G1 X156.630 Y110.719 E0.01678
G1 X141.781 Y95.870 E0.65964
G1 X142.315 Y95.870 E0.01678
G1 X156.630 Y110.185 E0.63591
G1 X156.630 Y109.650 E0.01678
G1 X142.850 Y95.870 E0.61218
G1 X143.384 Y95.870 E0.01678
G1 X156.630 Y109.116 E0.58844
G1 X156.630 Y108.582 E0.01678
G1 X143.918 Y95.870 E0.56471
G1 X144.452 Y95.870 E0.01678
G1 X156.630 Y108.048 E0.54098
G1 X156.630 Y107.513 E0.01678
G1 X144.987 Y95.870 E0.51725
G1 X145.521 Y95.870 E0.01678
G1 X156.630 Y106.979 E0.49351
G1 X156.630 Y106.445 E0.01678
G1 X146.055 Y95.870 E0.46978
G1 X146.589 Y95.870 E0.01678
G1 X156.630 Y105.911 E0.44605
G1 X156.630 Y105.376 E0.01678
G1 X147.124 Y95.870 E0.42231
G1 X147.658 Y95.870 E0.01678
G1 X156.630 Y104.842 E0.39858
G1 X156.630 Y104.308 E0.01678
G1 X148.192 Y95.870 E0.37485
G1 X148.726 Y95.870 E0.01678
G1 X156.630 Y103.774 E0.35111
G1 X156.630 Y103.239 E0.01678
G1 X149.261 Y95.870 E0.32738
G1 X149.795 Y95.870 E0.01678
G1 X156.630 Y102.705 E0.30365
G1 X156.630 Y102.171 E0.01678
G1 X150.329 Y95.870 E0.27992
G1 X150.863 Y95.870 E0.01678
G1 X156.630 Y101.637 E0.25618
G1 X156.630 Y101.102 E0.01678
G1 X151.398 Y95.870 E0.23245
G1 X151.932 Y95.870 E0.01678
G1 X156.630 Y100.568 E0.20872
G1 X156.630 Y100.034 E0.01678
G1 X152.466 Y95.870 E0.18498
G1 X153.000 Y95.870 E0.01678
G1 X156.630 Y99.500 E0.16125
G1 X156.630 Y98.965 E0.01678
G1 X153.535 Y95.870 E0.13752
G1 X154.069 Y95.870 E0.01678
G1 X156.630 Y98.431 E0.11378
G1 X156.630 Y97.897 E0.01678
G1 X154.603 Y95.870 E0.09005
G1 X155.137 Y95.870 E0.01678
G1 X156.630 Y97.363 E0.06632
G1 X156.630 Y96.828 E0.01678
G1 X155.672 Y95.870 E0.04258
G1 X156.206 Y95.870 E0.01678
G1 X156.800 Y96.464 E0.02639
M106 S244.8
M104 S205 ; set temperature
G1 F4800
G1 X156.206 Y95.870 E-0.34917
G1 F4800
G1 X155.672 Y95.870 E-0.22205
G1 F4800
G1 X155.993 Y96.191 E-0.18878
G1 E-0.04000 F2100.00000
G1 Z0.550 F6000.000
G1 X156.760 Y95.740 F6000.000
G1 E0.80000 F2100.00000
M204 S800
G1 F2400
G1 X156.760 Y114.260 E0.95640
G1 X93.240 Y114.260 E3.28025
G1 X93.240 Y95.740 E0.95640
G1 X156.700 Y95.740 E3.27715
M204 S1000
G1 X157.200 Y95.300 F6000.000
M204 S800
G1 F1800
G1 X157.200 Y114.700 E1.48174
G1 X92.800 Y114.700 E4.91876
G1 X92.800 Y95.300 E1.48174
G1 X157.140 Y95.300 E4.91418
M204 S1000
G1 X157.035 Y95.664 F6000.000
G1 F4800
G1 X157.146 Y97.129 E-0.76000
G1 E-0.04000 F2100.00000
G1 X155.402 Y114.174 F6000.000
G1 E0.80000 F2100.00000
M204 S2000
G1 F3600
G1 X156.393 Y113.183 E0.12817
G1 X156.393 Y112.294 E0.08138
G1 X154.794 Y113.893 E0.20687
G1 X153.905 Y113.893 E0.08138
G1 X156.393 Y111.405 E0.32197
G1 X156.393 Y110.515 E0.08138
G1 X153.015 Y113.893 E0.43706
G1 X152.126 Y113.893 E0.08138
G1 X156.393 Y109.626 E0.55216
G1 X156.393 Y108.737 E0.08138
G1 X151.237 Y113.893 E0.66725
G1 X150.347 Y113.893 E0.08138
G1 X156.393 Y107.847 E0.78234
G1 X156.393 Y106.958 E0.08138
G1 X149.458 Y113.893 E0.89744
G1 X148.569 Y113.893 E0.08138
G1 X156.393 Y106.069 E1.01253
G1 X156.393 Y105.179 E0.08138
G1 X147.679 Y113.893 E1.12762
G1 X146.790 Y113.893 E0.08138
G1 X156.393 Y104.290 E1.24272
G1 X156.393 Y103.401 E0.08138
G1 X145.901 Y113.893 E1.35781
G1 X145.011 Y113.893 E0.08138
G1 X156.393 Y102.511 E1.47290
G1 X156.393 Y101.622 E0.08138
G1 X144.122 Y113.893 E1.58800
G1 X143.233 Y113.893 E0.08138
G1 X156.393 Y100.733 E1.70309
G1 X156.393 Y99.843 E0.08138
G1 X142.343 Y113.893 E1.81818
G1 X141.454 Y113.893 E0.08138
G1 X156.393 Y98.954 E1.93328
G1 X156.393 Y98.064 E0.08138
G1 X140.564 Y113.893 E2.04837
G1 X139.675 Y113.893 E0.08138
G1 X156.393 Y97.175 E2.16347
G1 X156.393 Y96.286 E0.08138
G1 X138.786 Y113.893 E2.27856
G1 X137.896 Y113.893 E0.08138
G1 X155.682 Y96.107 E2.30166
G1 X154.792 Y96.107 E0.08138
G1 X137.007 Y113.893 E2.30166
G1 X136.118 Y113.893 E0.08138
G1 X153.903 Y96.107 E2.30166
G1 X153.014 Y96.107 E0.08138
G1 X135.228 Y113.893 E2.30166
G1 X134.339 Y113.893 E0.08138
G1 X152.124 Y96.107 E2.30166
G1 X151.235 Y96.107 E0.08138
G1 X133.450 Y113.893 E2.30166
G1 X132.560 Y113.893 E0.08138
G1 X150.346 Y96.107 E2.30166
G1 X149.456 Y96.107 E0.08138
G1 X131.671 Y113.893 E2.30166
G1 X130.782 Y113.893 E0.08138
G1 X148.567 Y96.107 E2.30166
G1 X147.678 Y96.107 E0.08138
G1 X129.892 Y113.893 E2.30166
G1 X129.003 Y113.893 E0.08138
G1 X146.788 Y96.107 E2.30166
G1 X145.899 Y96.107 E0.08138
G1 X128.114 Y113.893 E2.30166
G1 X127.224 Y113.893 E0.08138
G1 X145.010 Y96.107 E2.30166
G1 X144.120 Y96.107 E0.08138
G1 X126.335 Y113.893 E2.30166
G1 X125.445 Y113.893 E0.08138
G1 X143.231 Y96.107 E2.30166
G1 X142.342 Y96.107 E0.08138
G1 X124.556 Y113.893 E2.30166
G1 X123.667 Y113.893 E0.08138
G1 X141.452 Y96.107 E2.30166
G1 X140.563 Y96.107 E0.08138
G1 X122.777 Y113.893 E2.30166
G1 X121.888 Y113.893 E0.08138
G1 X139.673 Y96.107 E2.30166
G1 X138.784 Y96.107 E0.08138
G1 X120.999 Y113.893 E2.30166
G1 X120.109 Y113.893 E0.08138
G1 X137.895 Y96.107 E2.30166
G1 X137.005 Y96.107 E0.08138
G1 X119.220 Y113.893 E2.30166
G1 X118.331 Y113.893 E0.08138
G1 X136.116 Y96.107 E2.30166
G1 X135.227 Y96.107 E0.08138
G1 X117.441 Y113.893 E2.30166
G1 X116.552 Y113.893 E0.08138
G1 X134.337 Y96.107 E2.30166
G1 X133.448 Y96.107 E0.08138
G1 X115.663 Y113.893 E2.30166
G1 X114.773 Y113.893 E0.08138
G1 X132.559 Y96.107 E2.30166
G1 X131.669 Y96.107 E0.08138
G1 X113.884 Y113.893 E2.30166
G1 X112.995 Y113.893 E0.08138
G1 X130.780 Y96.107 E2.30166
G1 X129.891 Y96.107 E0.08138
G1 X112.105 Y113.893 E2.30166
G1 X111.216 Y113.893 E0.08138
G1 X129.001 Y96.107 E2.30166
G1 X128.112 Y96.107 E0.08138
G1 X110.326 Y113.893 E2.30166
G1 X109.437 Y113.893 E0.08138
G1 X127.223 Y96.107 E2.30166
G1 X126.333 Y96.107 E0.08138
G1 X108.548 Y113.893 E2.30166
G1 X107.658 Y113.893 E0.08138
G1 X125.444 Y96.107 E2.30166
G1 X124.554 Y96.107 E0.08138
G1 X106.769 Y113.893 E2.30166
G1 X105.880 Y113.893 E0.08138
G1 X123.665 Y96.107 E2.30166
G1 X122.776 Y96.107 E0.08138
G1 X104.990 Y113.893 E2.30166
G1 X104.101 Y113.893 E0.08138
G1 X121.886 Y96.107 E2.30166
G1 X120.997 Y96.107 E0.08138
G1 X103.212 Y113.893 E2.30166
G1 X102.322 Y113.893 E0.08138
G1 X120.108 Y96.107 E2.30166
G1 X119.218 Y96.107 E0.08138
G1 X101.433 Y113.893 E2.30166
G1 X100.544 Y113.893 E0.08138
G1 X118.329 Y96.107 E2.30166
G1 X117.440 Y96.107 E0.08138
G1 X99.654 Y113.893 E2.30166
G1 X98.765 Y113.893 E0.08138
G1 X116.550 Y96.107 E2.30166
G1 X115.661 Y96.107 E0.08138
G1 X97.875 Y113.893 E2.30166
G1 X96.986 Y113.893 E0.08138
G1 X114.772 Y96.107 E2.30166
G1 X113.882 Y96.107 E0.08138
G1 X96.097 Y113.893 E2.30166
G1 X95.207 Y113.893 E0.08138
G1 X112.993 Y96.107 E2.30166
G1 X112.103 Y96.107 E0.08138
G1 X94.318 Y113.893 E2.30166
G1 X93.607 Y113.893 E0.06504
G1 X93.607 Y113.714 E0.01634
G1 X111.214 Y96.107 E2.27855
G1 X110.325 Y96.107 E0.08138
G1 X93.607 Y112.825 E2.16345
G1 X93.607 Y111.935 E0.08138
G1 X109.435 Y96.107 E2.04836
G1 X108.546 Y96.107 E0.08138
G1 X93.607 Y111.046 E1.93327
G1 X93.607 Y110.157 E0.08138
