; generated by Slic3r 1.31.6-prusa3d on 2016-11-29 at 00:09:18

; external perimeters extrusion width = 0.70mm
; perimeters extrusion width = 0.70mm
; infill extrusion width = 0.70mm
; solid infill extrusion width = 0.70mm
; top infill extrusion width = 0.74mm
; support material extrusion width = 0.35mm

M115 U3.0.8 ; tell printer latest fw version
M83  ; extruder relative mode
M104 S255 ; set extruder temp
M140 S100 ; set bed temp
M190 S100 ; wait for bed temp
M109 S255 ; wait for extruder temp
G28 W ; home all without mesh bed level
G80 ; mesh bed leveling
G1 Y-3.0 F1000.0 ; go outside pritn area
G1 X60.0 E9.0  F1000.0 ; intro line
G1 X100.0 E12.5  F1000.0 ; intro line
G21 ; set units to millimeters
G90 ; use absolute coordinates
M83 ; use relative distances for extrusion
G1 E-0.80000 F2100.00000
G1 Z0.150 F6000.000
G1 Z0.300 F6000.000
G1 X93.004 Y101.190 F6000.000
G1 Z0.150 F6000.000
G1 E0.80000 F2100.00000
M204 S1000
G1 F1800
G1 X94.324 Y100.210 E0.03976
G1 X148.822 Y84.124 E1.37424
G1 X149.791 Y84.045 E0.02352
G1 X151.246 Y84.225 E0.03546
G1 X151.780 Y84.334 E0.01318
G1 X152.620 Y84.776 E0.02295
G1 X153.441 Y86.069 E0.03704
G1 X157.320 Y101.933 E0.39497
G1 X157.388 Y102.500 E0.01381
G1 X157.388 Y122.500 E0.48370
G1 X156.996 Y123.810 E0.03307
G1 X155.950 Y124.691 E0.03307
G1 X155.000 Y124.888 E0.02346
G1 X95.000 Y124.888 E1.45109
G1 X93.690 Y124.496 E0.03307
G1 X92.809 Y123.450 E0.03307
G1 X92.612 Y122.500 E0.02346
G1 X92.612 Y102.500 E0.48370
G1 X92.987 Y101.247 E0.03162
G1 F4800
G1 X94.324 Y100.210 E-0.70346
G1 F4800
G1 X94.455 Y100.171 E-0.05654
G1 E-0.04000 F2100.00000
G1 Z0.300 F6000.000
G1 X95.598 Y103.098 F6000.000
G1 Z0.150 F6000.000
G1 E0.80000 F2100.00000
G1 F1440
G1 X154.402 Y103.098 E1.42218
G1 X154.402 Y121.902 E0.45478
G1 X95.598 Y121.902 E1.42218
G1 X95.598 Y103.158 E0.45333
G1 F4800
G1 X97.426 Y103.156 E-0.76000
G1 E-0.04000 F2100.00000
G1 Z0.300 F6000.000
G1 X149.878 Y93.998 F6000.000
G1 Z0.150 F6000.000
G1 E0.80000 F2100.00000
G1 F720
G1 X149.805 Y89.801 E0.10150
G1 X149.840 Y88.661 E0.02759
G1 X150.068 Y88.664 E0.00551
G1 X150.107 Y93.997 E0.12900
G1 X149.938 Y93.998 E0.00408
G1 F4800
G1 X149.880 Y92.170 E-0.76000
G1 E-0.04000 F2100.00000
G1 Z0.300 F6000.000
G1 X150.356 Y102.710 F6000.000
G1 Z0.150 F6000.000
G1 E0.80000 F2100.00000
G1 F1080
G1 X154.790 Y102.710 E0.10723
G1 X154.790 Y122.290 E0.47354
G1 X95.210 Y122.290 E1.44094
G1 X95.210 Y102.710 E0.47354
G1 X149.644 Y102.710 E1.31648
G1 X149.417 Y89.799 E0.31231
G1 X149.482 Y87.710 E0.05054
G1 X150.447 Y87.710 E0.02334
G1 X150.502 Y93.586 E0.14213
G1 X150.357 Y102.650 E0.21923
G1 X150.355 Y103.110 F6000.000
G1 X150.000 Y102.904 F6000.000
G1 F1440
G1 X149.998 Y100.000 E0.06943
G1 F1440
G1 X149.995 Y97.096 E0.08613
G1 F1440
G1 X149.993 Y94.191 E0.10284
G1 F4800
G1 X149.995 Y96.020 E-0.76000
G1 E-0.04000 F2100.00000
G1 Z0.300 F6000.000
G1 X154.189 Y104.096 F6000.000
G1 Z0.150 F6000.000
G1 E0.80000 F2100.00000
G1 F2160
G1 X153.579 Y103.486 E0.02088
G1 X153.030 Y103.486 E0.01328
G1 X154.014 Y104.470 E0.03369
G1 X154.014 Y105.019 E0.01328
G1 X152.481 Y103.486 E0.05247
G1 X151.933 Y103.486 E0.01328
G1 X154.014 Y105.567 E0.07125
G1 X154.014 Y106.116 E0.01328
G1 X151.384 Y103.486 E0.09004
G1 X150.835 Y103.486 E0.01328
G1 X154.014 Y106.665 E0.10882
G1 X154.014 Y107.214 E0.01328
G1 X150.286 Y103.486 E0.12760
G1 X149.737 Y103.486 E0.01328
G1 X154.014 Y107.763 E0.14639
G1 X154.014 Y108.312 E0.01328
G1 X149.188 Y103.486 E0.16517
G1 X148.640 Y103.486 E0.01328
G1 X154.014 Y108.860 E0.18395
G1 X154.014 Y109.409 E0.01328
G1 X148.091 Y103.486 E0.20273
G1 X147.542 Y103.486 E0.01328
G1 X154.014 Y109.958 E0.22152
G1 X154.014 Y110.507 E0.01328
G1 X146.993 Y103.486 E0.24030
G1 X146.444 Y103.486 E0.01328
G1 X154.014 Y111.056 E0.25908
G1 X154.014 Y111.604 E0.01328
G1 X145.896 Y103.486 E0.27787
G1 X145.347 Y103.486 E0.01328
G1 X154.014 Y112.153 E0.29665
G1 X154.014 Y112.702 E0.01328
G1 X144.798 Y103.486 E0.31543
G1 X144.249 Y103.486 E0.01328
G1 X154.014 Y113.251 E0.33422
G1 X154.014 Y113.800 E0.01328
G1 X143.700 Y103.486 E0.35300
G1 X143.152 Y103.486 E0.01328
G1 X154.014 Y114.348 E0.37178
G1 X154.014 Y114.897 E0.01328
G1 X142.603 Y103.486 E0.39057
G1 X142.054 Y103.486 E0.01328
G1 X154.014 Y115.446 E0.40935
G1 X154.014 Y115.995 E0.01328
G1 X141.505 Y103.486 E0.42813
G1 X140.956 Y103.486 E0.01328
G1 X154.014 Y116.544 E0.44691
G1 X154.014 Y117.092 E0.01328
G1 X140.408 Y103.486 E0.46570
G1 X139.859 Y103.486 E0.01328
G1 X154.014 Y117.641 E0.48448
G1 X154.014 Y118.190 E0.01328
G1 X139.310 Y103.486 E0.50326
G1 X138.761 Y103.486 E0.01328
G1 X154.014 Y118.739 E0.52205
G1 X154.014 Y119.288 E0.01328
G1 X138.212 Y103.486 E0.54083
G1 X137.663 Y103.486 E0.01328
G1 X154.014 Y119.837 E0.55961
G1 X154.014 Y120.385 E0.01328
G1 X137.115 Y103.486 E0.57840
G1 X136.566 Y103.486 E0.01328
G1 X154.014 Y120.934 E0.59718
G1 X154.014 Y121.483 E0.01328
G1 X136.017 Y103.486 E0.61596
G1 X135.468 Y103.486 E0.01328
G1 X153.497 Y121.514 E0.61704
G1 X152.948 Y121.514 E0.01328
G1 X134.919 Y103.486 E0.61704
G1 X134.371 Y103.486 E0.01328
G1 X152.399 Y121.514 E0.61704
G1 X151.851 Y121.514 E0.01328
G1 X133.822 Y103.486 E0.61704
G1 X133.273 Y103.486 E0.01328
G1 X151.302 Y121.514 E0.61704
G1 X150.753 Y121.514 E0.01328
G1 X132.724 Y103.486 E0.61704
G1 X132.175 Y103.486 E0.01328
G1 X150.204 Y121.514 E0.61704
G1 X149.655 Y121.514 E0.01328
G1 X131.627 Y103.486 E0.61704
G1 X131.078 Y103.486 E0.01328
G1 X149.107 Y121.514 E0.61704
G1 X148.558 Y121.514 E0.01328
G1 X130.529 Y103.486 E0.61704
G1 X129.980 Y103.486 E0.01328
G1 X148.009 Y121.514 E0.61704
G1 X147.460 Y121.514 E0.01328
G1 X129.431 Y103.486 E0.61704
G1 X128.883 Y103.486 E0.01328
G1 X146.911 Y121.514 E0.61704
G1 X146.363 Y121.514 E0.01328
G1 X128.334 Y103.486 E0.61704
G1 X127.785 Y103.486 E0.01328
G1 X145.814 Y121.514 E0.61704
G1 X145.265 Y121.514 E0.01328
G1 X127.236 Y103.486 E0.61704
G1 X126.687 Y103.486 E0.01328
G1 X144.716 Y121.514 E0.61704
G1 X144.167 Y121.514 E0.01328
G1 X126.139 Y103.486 E0.61704
G1 X125.590 Y103.486 E0.01328
G1 X143.619 Y121.514 E0.61704
G1 X143.070 Y121.514 E0.01328
G1 X125.041 Y103.486 E0.61704
G1 X124.492 Y103.486 E0.01328
G1 X142.521 Y121.514 E0.61704
G1 X141.972 Y121.514 E0.01328
G1 X123.943 Y103.486 E0.61704
G1 X123.394 Y103.486 E0.01328
G1 X141.423 Y121.514 E0.61704
G1 X140.874 Y121.514 E0.01328
G1 X122.846 Y103.486 E0.61704
G1 X122.297 Y103.486 E0.01328
G1 X140.326 Y121.514 E0.61704
G1 X139.777 Y121.514 E0.01328
G1 X121.748 Y103.486 E0.61704
G1 X121.199 Y103.486 E0.01328
G1 X139.228 Y121.514 E0.61704
G1 X138.679 Y121.514 E0.01328
G1 X120.650 Y103.486 E0.61704
G1 X120.102 Y103.486 E0.01328
G1 X138.130 Y121.514 E0.61704
G1 X137.582 Y121.514 E0.01328
G1 X119.553 Y103.486 E0.61704
G1 X119.004 Y103.486 E0.01328
G1 X137.033 Y121.514 E0.61704
G1 X136.484 Y121.514 E0.01328
G1 X118.455 Y103.486 E0.61704
G1 X117.906 Y103.486 E0.01328
G1 X135.935 Y121.514 E0.61704
G1 X135.386 Y121.514 E0.01328
G1 X117.358 Y103.486 E0.61704
G1 X116.809 Y103.486 E0.01328
G1 X134.838 Y121.514 E0.61704
G1 X134.289 Y121.514 E0.01328
G1 X116.260 Y103.486 E0.61704
G1 X115.711 Y103.486 E0.01328
G1 X133.740 Y121.514 E0.61704
G1 X133.191 Y121.514 E0.01328
G1 X115.162 Y103.486 E0.61704
G1 X114.614 Y103.486 E0.01328
G1 X132.642 Y121.514 E0.61704
G1 X132.094 Y121.514 E0.01328
G1 X114.065 Y103.486 E0.61704
G1 X113.516 Y103.486 E0.01328
G1 X131.545 Y121.514 E0.61704
G1 X130.996 Y121.514 E0.01328
G1 X112.967 Y103.486 E0.61704
G1 X112.418 Y103.486 E0.01328
G1 X130.447 Y121.514 E0.61704
G1 X129.898 Y121.514 E0.01328
G1 X111.870 Y103.486 E0.61704
G1 X111.321 Y103.486 E0.01328
G1 X129.350 Y121.514 E0.61704
G1 X128.801 Y121.514 E0.01328
G1 X110.772 Y103.486 E0.61704
G1 X110.223 Y103.486 E0.01328
G1 X128.252 Y121.514 E0.61704
G1 X127.703 Y121.514 E0.01328
G1 X109.674 Y103.486 E0.61704
G1 X109.125 Y103.486 E0.01328
G1 X127.154 Y121.514 E0.61704
G1 X126.605 Y121.514 E0.01328
G1 X108.577 Y103.486 E0.61704
G1 X108.028 Y103.486 E0.01328
G1 X126.057 Y121.514 E0.61704
G1 X125.508 Y121.514 E0.01328
G1 X107.479 Y103.486 E0.61704
G1 X106.930 Y103.486 E0.01328
G1 X124.959 Y121.514 E0.61704
G1 X124.410 Y121.514 E0.01328
G1 X106.381 Y103.486 E0.61704
G1 X105.833 Y103.486 E0.01328
G1 X123.861 Y121.514 E0.61704
G1 X123.313 Y121.514 E0.01328
G1 X105.284 Y103.486 E0.61704
G1 X104.735 Y103.486 E0.01328
G1 X122.764 Y121.514 E0.61704
G1 X122.215 Y121.514 E0.01328
G1 X104.186 Y103.486 E0.61704
G1 X103.637 Y103.486 E0.01328
G1 X121.666 Y121.514 E0.61704
G1 X121.117 Y121.514 E0.01328
G1 X103.089 Y103.486 E0.61704
G1 X102.540 Y103.486 E0.01328
G1 X120.569 Y121.514 E0.61704
G1 X120.020 Y121.514 E0.01328
G1 X101.991 Y103.486 E0.61704
G1 X101.442 Y103.486 E0.01328
G1 X119.471 Y121.514 E0.61704
G1 X118.922 Y121.514 E0.01328
G1 X100.893 Y103.486 E0.61704
G1 X100.345 Y103.486 E0.01328
G1 X118.373 Y121.514 E0.61704
G1 X117.825 Y121.514 E0.01328
G1 X99.796 Y103.486 E0.61704
G1 X99.247 Y103.486 E0.01328
G1 X117.276 Y121.514 E0.61704
G1 X116.727 Y121.514 E0.01328
G1 X98.698 Y103.486 E0.61704
G1 X98.149 Y103.486 E0.01328
G1 X116.178 Y121.514 E0.61704
G1 X115.629 Y121.514 E0.01328
G1 X97.600 Y103.486 E0.61704
G1 X97.052 Y103.486 E0.01328
G1 X115.080 Y121.514 E0.61704
G1 X114.532 Y121.514 E0.01328
G1 X96.503 Y103.486 E0.61704
G1 X95.986 Y103.486 E0.01252
G1 X95.986 Y103.517 E0.00076
G1 X113.983 Y121.514 E0.61596
G1 X113.434 Y121.514 E0.01328
G1 X95.986 Y104.066 E0.59718
G1 X95.986 Y104.615 E0.01328
G1 X112.885 Y121.514 E0.57839
G1 X112.336 Y121.514 E0.01328
G1 X95.986 Y105.164 E0.55961
G1 X95.986 Y105.712 E0.01328
G1 X111.788 Y121.514 E0.54083
G1 X111.239 Y121.514 E0.01328
G1 X95.986 Y106.261 E0.52205
G1 X95.986 Y106.810 E0.01328
G1 X110.690 Y121.514 E0.50326
G1 X110.141 Y121.514 E0.01328
G1 X95.986 Y107.359 E0.48448
G1 X95.986 Y107.908 E0.01328
G1 X109.592 Y121.514 E0.46570
G1 X109.044 Y121.514 E0.01328
G1 X95.986 Y108.456 E0.44691
G1 X95.986 Y109.005 E0.01328
G1 X108.495 Y121.514 E0.42813
G1 X107.946 Y121.514 E0.01328
G1 X95.986 Y109.554 E0.40935
G1 X95.986 Y110.103 E0.01328
G1 X107.397 Y121.514 E0.39056
G1 X106.848 Y121.514 E0.01328
G1 X95.986 Y110.652 E0.37178
G1 X95.986 Y111.200 E0.01328
G1 X106.300 Y121.514 E0.35300
G1 X105.751 Y121.514 E0.01328
G1 X95.986 Y111.749 E0.33421
G1 X95.986 Y112.298 E0.01328
G1 X105.202 Y121.514 E0.31543
G1 X104.653 Y121.514 E0.01328
G1 X95.986 Y112.847 E0.29665
G1 X95.986 Y113.396 E0.01328
G1 X104.104 Y121.514 E0.27787
G1 X103.556 Y121.514 E0.01328
G1 X95.986 Y113.944 E0.25908
G1 X95.986 Y114.493 E0.01328
G1 X103.007 Y121.514 E0.24030
G1 X102.458 Y121.514 E0.01328
G1 X95.986 Y115.042 E0.22152
G1 X95.986 Y115.591 E0.01328
G1 X101.909 Y121.514 E0.20273
G1 X101.360 Y121.514 E0.01328
G1 X95.986 Y116.140 E0.18395
G1 X95.986 Y116.689 E0.01328
G1 X100.811 Y121.514 E0.16517
G1 X100.263 Y121.514 E0.01328
G1 X95.986 Y117.237 E0.14638
G1 X95.986 Y117.786 E0.01328
G1 X99.714 Y121.514 E0.12760
G1 X99.165 Y121.514 E0.01328
G1 X95.986 Y118.335 E0.10882
G1 X95.986 Y118.884 E0.01328
G1 X98.616 Y121.514 E0.09003
G1 X98.067 Y121.514 E0.01328
G1 X95.986 Y119.433 E0.07125
G1 X95.986 Y119.981 E0.01328
G1 X97.519 Y121.514 E0.05247
G1 X96.970 Y121.514 E0.01328
G1 X95.986 Y120.530 E0.03369
G1 X95.986 Y121.079 E0.01328
G1 X96.596 Y121.689 E0.02088
G1 F4800
G1 X95.986 Y121.079 E-0.35851
G1 F4800
G1 X95.986 Y120.530 E-0.22810
G1 F4800
G1 X96.281 Y120.825 E-0.17339
G1 E-0.04000 F2100.00000
G1 Z0.300 F6000.000
G1 X147.320 Y101.959 F6000.000
G1 Z0.150 F6000.000
G1 E0.80000 F2100.00000
G1 F1800
G1 X147.641 Y101.319 E0.01419
G1 X147.637 Y100.619 E0.01388
G1 X147.036 Y101.816 E0.02655
G1 X146.681 Y101.816 E0.00705
G1 X147.632 Y99.919 E0.04207
G1 X147.627 Y99.218 E0.01388
G1 X146.329 Y101.810 E0.05745
G1 X146.332 Y101.094 E0.01418
G1 X147.623 Y98.518 E0.05711
G1 X147.618 Y97.818 E0.01388
G1 X146.335 Y100.379 E0.05677
G1 X146.338 Y99.663 E0.01418
G1 X147.335 Y97.673 E0.04412
G1 F4800
G1 X146.516 Y99.308 E-0.76000
G1 E-0.04000 F2100.00000
G1 Z0.300 F6000.000
G1 X152.234 Y97.121 F6000.000
G1 Z0.150 F6000.000
G1 E0.80000 F2100.00000
G1 F1800
G1 X152.596 Y96.399 E0.01600
G1 X152.738 Y96.458 E0.00305
G1 X152.878 Y96.544 E0.00327
G1 X152.375 Y97.549 E0.02227
G1 X152.371 Y98.265 E0.01419
G1 X153.124 Y96.763 E0.03329
G1 X153.357 Y97.008 E0.00670
G1 X152.368 Y98.981 E0.04373
G1 X152.365 Y99.697 E0.01419
G1 X153.539 Y97.354 E0.05194
G1 X153.603 Y97.509 E0.00333
G1 X153.654 Y97.730 E0.00449
G1 X153.661 Y97.819 E0.00178
G1 X152.361 Y100.413 E0.05750
G1 X152.358 Y101.129 E0.01419
G1 X153.663 Y98.524 E0.05776
G1 X153.666 Y99.228 E0.01396
G1 X152.369 Y101.816 E0.05737
G1 X152.724 Y101.816 E0.00705
G1 X153.668 Y99.933 E0.04176
G1 X153.671 Y100.637 E0.01396
G1 X153.008 Y101.959 E0.02931
G1 F4800
G1 X153.671 Y100.637 E-0.61461
G1 F4800
G1 X153.670 Y100.287 E-0.14539
G1 E-0.04000 F2100.00000
G1 Z0.300 F6000.000
G1 X150.962 Y86.956 F6000.000
G1 Z0.150 F6000.000
G1 E0.80000 F2100.00000
G1 F1800
G1 X151.122 Y86.636 E0.00865
G1 X151.108 Y86.625 E0.00043
G1 X150.893 Y86.589 E0.00526
G1 X150.278 Y86.589 E0.01488
G1 X150.182 Y86.781 E0.00520
G1 X149.314 Y86.781 E0.02098
G1 X149.498 Y86.414 E0.00992
G1 F4800
G1 X149.314 Y86.781 E-0.17050
G1 F4800
G1 X150.182 Y86.781 E-0.36059
G1 F4800
G1 X150.278 Y86.589 E-0.08937
G1 F4800
G1 X150.614 Y86.589 E-0.13954
G1 E-0.04000 F2100.00000
G1 Z0.300 F6000.000
G1 Z0.400 F6000.000
G1 Z0.550 F6000.000
G1 X152.877 Y96.352 F6000.000
G1 Z0.400 F6000.000
G1 E0.80000 F2100.00000
G1 F3000
G1 X153.087 Y96.501 E0.00794
G1 X153.298 Y96.712 E0.00920
G1 X153.076 Y97.097 E0.01369
G1 X153.339 Y97.552 E0.01617
G1 X153.644 Y97.552 E0.00941
G1 X153.646 Y98.179 F6000.000
G1 F3000
G1 X153.560 Y98.179 E0.00265
G1 X153.298 Y98.634 E0.01617
G1 X153.560 Y99.088 E0.01617
G1 X153.649 Y99.088 E0.00274
G1 X153.651 Y99.754 F6000.000
G1 F3000
G1 X153.566 Y99.754 E0.00265
G1 X153.303 Y100.209 E0.01617
G1 X153.566 Y100.663 E0.01617
G1 X153.655 Y100.663 E0.00274
G1 X153.657 Y101.294 F6000.000
G1 F3000
G1 X153.364 Y101.294 E0.00903
G1 X153.101 Y101.749 E0.01617
G1 X153.232 Y101.975 E0.00804
G1 X152.709 Y101.975 E0.01609
G1 X152.720 Y101.957 E0.00065
G1 X152.457 Y101.502 E0.01617
G1 X152.197 Y101.502 E0.00802
G1 X152.200 Y100.836 E0.02050
G1 X152.465 Y100.836 E0.00815
G1 X152.728 Y100.382 E0.01617
G1 X152.465 Y99.927 E0.01617
G1 X152.205 Y99.927 E0.00802
G1 X152.208 Y99.261 E0.02050
G1 X152.473 Y99.261 E0.00815
G1 X152.735 Y98.807 E0.01617
G1 X152.473 Y98.352 E0.01617
G1 X152.212 Y98.352 E0.00802
G1 X152.215 Y97.686 E0.02050
G1 X152.480 Y97.686 E0.00815
G1 X152.743 Y97.232 E0.01617
G1 X152.480 Y96.777 E0.01617
G1 X152.220 Y96.777 E0.00802
G1 X152.221 Y96.606 E0.00528
G1 X152.654 Y96.606 E0.01335
G1 X152.819 Y96.321 E0.01013
G1 X152.877 Y96.352 E0.00203
G1 F4800
G1 X152.819 Y96.321 E-0.02739
G1 F4800
G1 X152.654 Y96.606 E-0.13675
G1 F4800
G1 X152.221 Y96.606 E-0.18018
G1 F4800
G1 X152.220 Y96.777 E-0.07125
G1 F4800
G1 X152.480 Y96.777 E-0.10820
G1 F4800
G1 X152.743 Y97.232 E-0.21820
G1 F4800
G1 X152.721 Y97.269 E-0.01803
G1 E-0.04000 F2100.00000
G1 Z0.550 F6000.000
G1 X147.776 Y97.684 F6000.000
G1 Z0.400 F6000.000
G1 E0.80000 F2100.00000
G1 F3000
G1 X147.779 Y98.043 E0.01107
G1 F3000
G1 X147.544 Y98.043 E0.00724
G1 X147.738 Y97.707 E0.01197
G1 X147.725 Y97.684 E0.00081
G1 X146.950 Y98.161 F6000.000
G1 F3000
G1 X146.842 Y97.974 E0.00668
G1 X146.577 Y98.238 E0.01152
G1 X146.434 Y98.436 E0.00753
G1 X146.500 Y98.436 E0.00201
G1 X146.762 Y98.891 E0.01617
G1 X146.500 Y99.345 E0.01617
G1 X146.356 Y99.345 E0.00444
G1 X146.353 Y100.005 F6000.000
G1 F3000
G1 X146.438 Y100.005 E0.00263
G1 X146.701 Y100.460 E0.01617
G1 X146.438 Y100.915 E0.01617
G1 X146.349 Y100.915 E0.00276
G1 X146.346 Y101.520 F6000.000
G1 F3000
G1 X146.492 Y101.520 E0.00448
G1 X146.754 Y101.975 E0.01617
G1 X147.279 Y101.975 E0.01617
G1 X147.373 Y101.813 E0.00575
G1 X147.277 Y101.648 E0.00588
G1 X147.540 Y101.193 E0.01617
G1 X147.799 Y101.193 E0.00799
G1 X147.795 Y100.527 E0.02050
G1 X147.529 Y100.527 E0.00818
G1 X147.267 Y100.073 E0.01617
G1 X147.529 Y99.618 E0.01617
G1 X147.789 Y99.618 E0.00799
G1 X147.785 Y98.953 E0.02050
G1 X147.519 Y98.953 E0.00818
