; generated by Slic3r 1.31.6-prusa3d on 2016-11-29 at 00:24:26

; external perimeters extrusion width = 0.70mm
; perimeters extrusion width = 0.70mm
; infill extrusion width = 0.70mm
; solid infill extrusion width = 0.70mm
; top infill extrusion width = 0.74mm
; support material extrusion width = 0.35mm

M107
M115 U3.0.8 ; tell printer latest fw version
M83  ; extruder relative mode
M104 S210 ; set extruder temp
M140 S50 ; set bed temp
M190 S50 ; wait for bed temp
M109 S210 ; wait for extruder temp
G28 W ; home all without mesh bed level
G80 ; mesh bed leveling
G1 Y-3.0 F1000.0 ; go outside pritn area
G1 X60.0 E9.0  F1000.0 ; intro line
G1 X100.0 E12.5  F1000.0 ; intro line
G21 ; set units to millimeters
G90 ; use absolute coordinates
M83 ; use relative distances for extrusion
G1 E-0.80000 F2100.00000
G1 Z0.150 F6000.000
G1 Z0.300 F6000.000
G1 X90.504 Y101.190 F6000.000
G1 Z0.150 F6000.000
G1 E0.80000 F2100.00000
M204 S1000
G1 F1800
G1 X91.878 Y100.195 E0.04103
G1 X151.478 Y84.109 E1.49301
G1 X152.416 Y84.047 E0.02272
G1 X153.768 Y84.228 E0.03300
G1 X154.279 Y84.333 E0.01262
G1 X155.106 Y84.765 E0.02256
G1 X155.193 Y84.835 E0.00270
G1 X156.017 Y86.136 E0.03723
G1 X159.821 Y101.941 E0.39316
G1 X159.888 Y102.500 E0.01361
G1 X159.888 Y122.500 E0.48370
G1 X159.496 Y123.810 E0.03307
G1 X158.450 Y124.691 E0.03307
G1 X157.500 Y124.888 E0.02346
G1 X92.500 Y124.888 E1.57202
G1 X91.190 Y124.496 E0.03307
G1 X90.309 Y123.450 E0.03307
G1 X90.112 Y122.500 E0.02346
G1 X90.112 Y102.500 E0.48370
G1 X90.487 Y101.247 E0.03162
G1 F4800
G1 X91.878 Y100.195 E-0.72504
G1 F4800
G1 X91.959 Y100.173 E-0.03496
G1 E-0.04000 F2100.00000
G1 Z0.300 F6000.000
G1 X93.098 Y103.098 F6000.000
G1 Z0.150 F6000.000
G1 E0.80000 F2100.00000
G1 F1440
G1 X156.902 Y103.098 E1.54310
G1 X156.902 Y121.902 E0.45478
G1 X93.098 Y121.902 E1.54310
G1 X93.098 Y103.158 E0.45333
G1 F4800
G1 X94.926 Y103.156 E-0.76000
G1 E-0.04000 F2100.00000
G1 Z0.300 F6000.000
G1 X152.378 Y93.998 F6000.000
G1 Z0.150 F6000.000
G1 E0.80000 F2100.00000
G1 F720
G1 X152.305 Y89.801 E0.10150
G1 X152.340 Y88.661 E0.02759
G1 X152.568 Y88.664 E0.00551
G1 X152.607 Y93.997 E0.12900
G1 X152.438 Y93.998 E0.00408
G1 F4800
G1 X152.380 Y92.170 E-0.76000
G1 E-0.04000 F2100.00000
G1 Z0.300 F6000.000
G1 X152.856 Y102.710 F6000.000
G1 Z0.150 F6000.000
G1 E0.80000 F2100.00000
G1 F1080
G1 X157.290 Y102.710 E0.10723
G1 X157.290 Y122.290 E0.47354
G1 X92.710 Y122.290 E1.56186
G1 X92.710 Y102.710 E0.47354
G1 X152.144 Y102.710 E1.43741
G1 X151.917 Y89.799 E0.31231
G1 X151.982 Y87.710 E0.05054
G1 X152.947 Y87.710 E0.02334
G1 X153.002 Y93.586 E0.14213
G1 X152.857 Y102.650 E0.21923
G1 X152.855 Y103.110 F6000.000
G1 X152.500 Y102.904 F6000.000
G1 F1440
G1 X152.498 Y100.000 E0.06943
G1 F1440
G1 X152.495 Y97.096 E0.08613
G1 F1440
G1 X152.493 Y94.191 E0.10284
G1 F4800
G1 X152.495 Y96.020 E-0.76000
G1 E-0.04000 F2100.00000
G1 Z0.300 F6000.000
G1 X156.689 Y104.096 F6000.000
G1 Z0.150 F6000.000
G1 E0.80000 F2100.00000
G1 F2160
G1 X156.078 Y103.486 E0.02091
G1 X155.529 Y103.486 E0.01330
G1 X156.514 Y104.471 E0.03375
G1 X156.514 Y105.020 E0.01330
G1 X154.980 Y103.486 E0.05256
G1 X154.431 Y103.486 E0.01330
G1 X156.514 Y105.569 E0.07137
G1 X156.514 Y106.119 E0.01330
G1 X153.881 Y103.486 E0.09018
G1 X153.332 Y103.486 E0.01330
G1 X156.514 Y106.668 E0.10899
G1 X156.514 Y107.217 E0.01330
G1 X152.783 Y103.486 E0.12780
G1 X152.234 Y103.486 E0.01330
G1 X156.514 Y107.766 E0.14661
G1 X156.514 Y108.315 E0.01330
G1 X151.685 Y103.486 E0.16542
G1 X151.135 Y103.486 E0.01330
G1 X156.514 Y108.865 E0.18423
G1 X156.514 Y109.414 E0.01330
G1 X150.586 Y103.486 E0.20305
G1 X150.037 Y103.486 E0.01330
G1 X156.514 Y109.963 E0.22186
G1 X156.514 Y110.512 E0.01330
G1 X149.488 Y103.486 E0.24067
G1 X148.939 Y103.486 E0.01330
G1 X156.514 Y111.061 E0.25948
G1 X156.514 Y111.611 E0.01330
G1 X148.389 Y103.486 E0.27829
G1 X147.840 Y103.486 E0.01330
G1 X156.514 Y112.160 E0.29710
G1 X156.514 Y112.709 E0.01330
G1 X147.291 Y103.486 E0.31591
G1 X146.742 Y103.486 E0.01330
G1 X156.514 Y113.258 E0.33472
G1 X156.514 Y113.808 E0.01330
G1 X146.192 Y103.486 E0.35353
G1 X145.643 Y103.486 E0.01330
G1 X156.514 Y114.357 E0.37234
G1 X156.514 Y114.906 E0.01330
G1 X145.094 Y103.486 E0.39116
G1 X144.545 Y103.486 E0.01330
G1 X156.514 Y115.455 E0.40997
G1 X156.514 Y116.004 E0.01330
G1 X143.996 Y103.486 E0.42878
G1 X143.446 Y103.486 E0.01330
G1 X156.514 Y116.554 E0.44759
G1 X156.514 Y117.103 E0.01330
G1 X142.897 Y103.486 E0.46640
G1 X142.348 Y103.486 E0.01330
G1 X156.514 Y117.652 E0.48521
G1 X156.514 Y118.201 E0.01330
G1 X141.799 Y103.486 E0.50402
G1 X141.250 Y103.486 E0.01330
G1 X156.514 Y118.750 E0.52283
G1 X156.514 Y119.300 E0.01330
G1 X140.700 Y103.486 E0.54164
G1 X140.151 Y103.486 E0.01330
G1 X156.514 Y119.849 E0.56045
G1 X156.514 Y120.398 E0.01330
G1 X139.602 Y103.486 E0.57926
G1 X139.053 Y103.486 E0.01330
G1 X156.514 Y120.947 E0.59808
G1 X156.514 Y121.497 E0.01330
G1 X138.503 Y103.486 E0.61689
G1 X137.954 Y103.486 E0.01330
G1 X155.983 Y121.514 E0.61750
G1 X155.434 Y121.514 E0.01330
G1 X137.405 Y103.486 E0.61750
G1 X136.856 Y103.486 E0.01330
G1 X154.885 Y121.514 E0.61750
G1 X154.335 Y121.514 E0.01330
G1 X136.307 Y103.486 E0.61750
G1 X135.757 Y103.486 E0.01330
G1 X153.786 Y121.514 E0.61750
G1 X153.237 Y121.514 E0.01330
G1 X135.208 Y103.486 E0.61750
G1 X134.659 Y103.486 E0.01330
G1 X152.688 Y121.514 E0.61750
G1 X152.139 Y121.514 E0.01330
G1 X134.110 Y103.486 E0.61750
G1 X133.560 Y103.486 E0.01330
G1 X151.589 Y121.514 E0.61750
G1 X151.040 Y121.514 E0.01330
G1 X133.011 Y103.486 E0.61750
G1 X132.462 Y103.486 E0.01330
G1 X150.491 Y121.514 E0.61750
G1 X149.942 Y121.514 E0.01330
G1 X131.913 Y103.486 E0.61750
G1 X131.364 Y103.486 E0.01330
G1 X149.392 Y121.514 E0.61750
G1 X148.843 Y121.514 E0.01330
G1 X130.814 Y103.486 E0.61750
G1 X130.265 Y103.486 E0.01330
G1 X148.294 Y121.514 E0.61750
G1 X147.745 Y121.514 E0.01330
G1 X129.716 Y103.486 E0.61750
G1 X129.167 Y103.486 E0.01330
G1 X147.196 Y121.514 E0.61750
G1 X146.646 Y121.514 E0.01330
G1 X128.618 Y103.486 E0.61750
G1 X128.068 Y103.486 E0.01330
G1 X146.097 Y121.514 E0.61750
G1 X145.548 Y121.514 E0.01330
G1 X127.519 Y103.486 E0.61750
G1 X126.970 Y103.486 E0.01330
G1 X144.999 Y121.514 E0.61750
G1 X144.449 Y121.514 E0.01330
G1 X126.421 Y103.486 E0.61750
G1 X125.871 Y103.486 E0.01330
G1 X143.900 Y121.514 E0.61750
G1 X143.351 Y121.514 E0.01330
G1 X125.322 Y103.486 E0.61750
G1 X124.773 Y103.486 E0.01330
G1 X142.802 Y121.514 E0.61750
G1 X142.253 Y121.514 E0.01330
G1 X124.224 Y103.486 E0.61750
G1 X123.675 Y103.486 E0.01330
G1 X141.703 Y121.514 E0.61750
G1 X141.154 Y121.514 E0.01330
G1 X123.125 Y103.486 E0.61750
G1 X122.576 Y103.486 E0.01330
G1 X140.605 Y121.514 E0.61750
G1 X140.056 Y121.514 E0.01330
G1 X122.027 Y103.486 E0.61750
G1 X121.478 Y103.486 E0.01330
G1 X139.507 Y121.514 E0.61750
G1 X138.957 Y121.514 E0.01330
G1 X120.929 Y103.486 E0.61750
G1 X120.379 Y103.486 E0.01330
G1 X138.408 Y121.514 E0.61750
G1 X137.859 Y121.514 E0.01330
G1 X119.830 Y103.486 E0.61750
G1 X119.281 Y103.486 E0.01330
G1 X137.310 Y121.514 E0.61750
G1 X136.760 Y121.514 E0.01330
G1 X118.732 Y103.486 E0.61750
G1 X118.182 Y103.486 E0.01330
G1 X136.211 Y121.514 E0.61750
G1 X135.662 Y121.514 E0.01330
G1 X117.633 Y103.486 E0.61750
G1 X117.084 Y103.486 E0.01330
G1 X135.113 Y121.514 E0.61750
G1 X134.564 Y121.514 E0.01330
G1 X116.535 Y103.486 E0.61750
G1 X115.986 Y103.486 E0.01330
G1 X134.014 Y121.514 E0.61750
G1 X133.465 Y121.514 E0.01330
G1 X115.436 Y103.486 E0.61750
G1 X114.887 Y103.486 E0.01330
G1 X132.916 Y121.514 E0.61750
G1 X132.367 Y121.514 E0.01330
G1 X114.338 Y103.486 E0.61750
G1 X113.789 Y103.486 E0.01330
G1 X131.818 Y121.514 E0.61750
G1 X131.268 Y121.514 E0.01330
G1 X113.240 Y103.486 E0.61750
G1 X112.690 Y103.486 E0.01330
G1 X130.719 Y121.514 E0.61750
G1 X130.170 Y121.514 E0.01330
G1 X112.141 Y103.486 E0.61750
G1 X111.592 Y103.486 E0.01330
G1 X129.621 Y121.514 E0.61750
G1 X129.071 Y121.514 E0.01330
G1 X111.043 Y103.486 E0.61750
G1 X110.493 Y103.486 E0.01330
G1 X128.522 Y121.514 E0.61750
G1 X127.973 Y121.514 E0.01330
G1 X109.944 Y103.486 E0.61750
G1 X109.395 Y103.486 E0.01330
G1 X127.424 Y121.514 E0.61750
G1 X126.875 Y121.514 E0.01330
G1 X108.846 Y103.486 E0.61750
G1 X108.297 Y103.486 E0.01330
G1 X126.325 Y121.514 E0.61750
G1 X125.776 Y121.514 E0.01330
G1 X107.747 Y103.486 E0.61750
G1 X107.198 Y103.486 E0.01330
G1 X125.227 Y121.514 E0.61750
G1 X124.678 Y121.514 E0.01330
G1 X106.649 Y103.486 E0.61750
G1 X106.100 Y103.486 E0.01330
G1 X124.129 Y121.514 E0.61750
G1 X123.579 Y121.514 E0.01330
G1 X105.550 Y103.486 E0.61750
G1 X105.001 Y103.486 E0.01330
G1 X123.030 Y121.514 E0.61750
G1 X122.481 Y121.514 E0.01330
G1 X104.452 Y103.486 E0.61750
G1 X103.903 Y103.486 E0.01330
G1 X121.932 Y121.514 E0.61750
G1 X121.382 Y121.514 E0.01330
G1 X103.354 Y103.486 E0.61750
G1 X102.804 Y103.486 E0.01330
G1 X120.833 Y121.514 E0.61750
G1 X120.284 Y121.514 E0.01330
G1 X102.255 Y103.486 E0.61750
G1 X101.706 Y103.486 E0.01330
G1 X119.735 Y121.514 E0.61750
G1 X119.186 Y121.514 E0.01330
G1 X101.157 Y103.486 E0.61750
G1 X100.608 Y103.486 E0.01330
G1 X118.636 Y121.514 E0.61750
G1 X118.087 Y121.514 E0.01330
G1 X100.058 Y103.486 E0.61750
G1 X99.509 Y103.486 E0.01330
G1 X117.538 Y121.514 E0.61750
G1 X116.989 Y121.514 E0.01330
G1 X98.960 Y103.486 E0.61750
G1 X98.411 Y103.486 E0.01330
G1 X116.440 Y121.514 E0.61750
G1 X115.890 Y121.514 E0.01330
G1 X97.861 Y103.486 E0.61750
G1 X97.312 Y103.486 E0.01330
G1 X115.341 Y121.514 E0.61750
G1 X114.792 Y121.514 E0.01330
G1 X96.763 Y103.486 E0.61750
G1 X96.214 Y103.486 E0.01330
G1 X114.243 Y121.514 E0.61750
G1 X113.693 Y121.514 E0.01330
G1 X95.665 Y103.486 E0.61750
G1 X95.115 Y103.486 E0.01330
G1 X113.144 Y121.514 E0.61750
G1 X112.595 Y121.514 E0.01330
G1 X94.566 Y103.486 E0.61750
G1 X94.017 Y103.486 E0.01330
G1 X112.046 Y121.514 E0.61750
G1 X111.497 Y121.514 E0.01330
G1 X93.486 Y103.503 E0.61689
G1 X93.486 Y104.053 E0.01330
G1 X110.947 Y121.514 E0.59808
G1 X110.398 Y121.514 E0.01330
G1 X93.486 Y104.602 E0.57926
G1 X93.486 Y105.151 E0.01330
G1 X109.849 Y121.514 E0.56045
G1 X109.300 Y121.514 E0.01330
G1 X93.486 Y105.700 E0.54164
G1 X93.486 Y106.250 E0.01330
G1 X108.750 Y121.514 E0.52283
G1 X108.201 Y121.514 E0.01330
G1 X93.486 Y106.799 E0.50402
G1 X93.486 Y107.348 E0.01330
G1 X107.652 Y121.514 E0.48521
G1 X107.103 Y121.514 E0.01330
G1 X93.486 Y107.897 E0.46640
G1 X93.486 Y108.446 E0.01330
G1 X106.554 Y121.514 E0.44759
G1 X106.004 Y121.514 E0.01330
G1 X93.486 Y108.996 E0.42878
G1 X93.486 Y109.545 E0.01330
G1 X105.455 Y121.514 E0.40997
G1 X104.906 Y121.514 E0.01330
G1 X93.486 Y110.094 E0.39115
G1 X93.486 Y110.643 E0.01330
G1 X104.357 Y121.514 E0.37234
G1 X103.808 Y121.514 E0.01330
G1 X93.486 Y111.192 E0.35353
G1 X93.486 Y111.742 E0.01330
G1 X103.258 Y121.514 E0.33472
G1 X102.709 Y121.514 E0.01330
G1 X93.486 Y112.291 E0.31591
G1 X93.486 Y112.840 E0.01330
G1 X102.160 Y121.514 E0.29710
G1 X101.611 Y121.514 E0.01330
G1 X93.486 Y113.389 E0.27829
G1 X93.486 Y113.939 E0.01330
G1 X101.061 Y121.514 E0.25948
G1 X100.512 Y121.514 E0.01330
G1 X93.486 Y114.488 E0.24067
G1 X93.486 Y115.037 E0.01330
G1 X99.963 Y121.514 E0.22186
G1 X99.414 Y121.514 E0.01330
G1 X93.486 Y115.586 E0.20305
G1 X93.486 Y116.135 E0.01330
G1 X98.865 Y121.514 E0.18423
G1 X98.315 Y121.514 E0.01330
G1 X93.486 Y116.685 E0.16542
G1 X93.486 Y117.234 E0.01330
G1 X97.766 Y121.514 E0.14661
G1 X97.217 Y121.514 E0.01330
G1 X93.486 Y117.783 E0.12780
G1 X93.486 Y118.332 E0.01330
G1 X96.668 Y121.514 E0.10899
G1 X96.119 Y121.514 E0.01330
G1 X93.486 Y118.881 E0.09018
G1 X93.486 Y119.431 E0.01330
G1 X95.569 Y121.514 E0.07137
G1 X95.020 Y121.514 E0.01330
G1 X93.486 Y119.980 E0.05256
G1 X93.486 Y120.529 E0.01330
G1 X94.471 Y121.514 E0.03375
G1 X93.922 Y121.514 E0.01330
G1 X93.311 Y120.904 E0.02091
G1 F4800
G1 X93.922 Y121.514 E-0.35889
G1 F4800
G1 X94.471 Y121.514 E-0.22827
G1 F4800
G1 X94.177 Y121.220 E-0.17284
G1 E-0.04000 F2100.00000
G1 Z0.300 F6000.000
G1 X149.809 Y101.959 F6000.000
G1 Z0.150 F6000.000
G1 E0.80000 F2100.00000
G1 F1800
G1 X150.141 Y101.296 E0.01470
G1 X150.136 Y100.596 E0.01388
G1 X149.525 Y101.816 E0.02705
G1 X149.169 Y101.816 E0.00705
G1 X150.132 Y99.896 E0.04257
G1 X150.127 Y99.196 E0.01388
G1 X148.829 Y101.786 E0.05744
G1 X148.832 Y101.071 E0.01418
G1 X150.123 Y98.495 E0.05710
G1 X150.118 Y97.795 E0.01388
G1 X148.835 Y100.355 E0.05676
G1 X148.838 Y99.640 E0.01418
G1 X149.821 Y97.679 E0.04347
G1 F4800
G1 X149.002 Y99.314 E-0.76000
G1 E-0.04000 F2100.00000
G1 Z0.300 F6000.000
G1 X154.734 Y97.097 F6000.000
G1 Z0.150 F6000.000
G1 E0.80000 F2100.00000
G1 F1800
G1 X155.086 Y96.395 E0.01557
G1 X155.370 Y96.538 E0.00630
G1 X154.875 Y97.525 E0.02189
G1 X154.872 Y98.241 E0.01419
G1 X155.616 Y96.755 E0.03295
G1 X155.850 Y96.998 E0.00668
G1 X154.868 Y98.957 E0.04343
G1 X154.865 Y99.674 E0.01419
G1 X156.033 Y97.342 E0.05170
G1 X156.103 Y97.509 E0.00360
G1 X156.154 Y97.730 E0.00449
G1 X156.161 Y97.796 E0.00133
G1 X154.861 Y100.390 E0.05749
G1 X154.858 Y101.106 E0.01419
G1 X156.163 Y98.501 E0.05775
G1 X156.166 Y99.205 E0.01396
G1 X154.857 Y101.816 E0.05788
G1 X155.213 Y101.816 E0.00705
G1 X156.168 Y99.910 E0.04226
G1 X156.171 Y100.614 E0.01396
G1 X155.497 Y101.959 E0.02982
G1 F4800
G1 X156.171 Y100.614 E-0.62525
G1 F4800
G1 X156.170 Y100.290 E-0.13475
G1 E-0.04000 F2100.00000
G1 Z0.300 F6000.000
G1 X153.564 Y86.956 F6000.000
G1 Z0.150 F6000.000
G1 E0.80000 F2100.00000
G1 F1800
G1 X153.695 Y86.695 E0.00705
G1 X153.608 Y86.625 E0.00270
G1 X153.453 Y86.595 E0.00382
G1 X152.881 Y86.589 E0.01384
G1 X152.784 Y86.781 E0.00520
G1 X151.917 Y86.781 E0.02098
G1 X152.101 Y86.414 E0.00992
M106 S242.25
G1 F4800
G1 X151.917 Y86.781 E-0.17050
G1 F4800
G1 X152.784 Y86.781 E-0.36059
G1 F4800
G1 X152.881 Y86.589 E-0.08937
G1 F4800
G1 X153.216 Y86.592 E-0.13954
G1 E-0.04000 F2100.00000
G1 Z0.300 F6000.000
G1 Z0.400 F6000.000
G1 Z0.550 F6000.000
G1 X155.377 Y96.352 F6000.000
G1 Z0.400 F6000.000
G1 E0.80000 F2100.00000
G1 F3000
G1 X155.587 Y96.501 E0.00794
G1 X155.798 Y96.712 E0.00920
G1 X155.576 Y97.097 E0.01369
G1 X155.839 Y97.552 E0.01617
G1 X156.144 Y97.552 E0.00941
G1 X156.146 Y98.179 F6000.000
G1 F3000
G1 X156.060 Y98.179 E0.00265
G1 X155.798 Y98.634 E0.01617
G1 X156.060 Y99.088 E0.01617
G1 X156.149 Y99.088 E0.00274
G1 X156.151 Y99.754 F6000.000
G1 F3000
G1 X156.066 Y99.754 E0.00265
G1 X155.803 Y100.209 E0.01617
G1 X156.066 Y100.663 E0.01617
G1 X156.155 Y100.663 E0.00274
G1 X156.157 Y101.294 F6000.000
G1 F3000
G1 X155.864 Y101.294 E0.00903
G1 X155.601 Y101.749 E0.01617
G1 X155.732 Y101.975 E0.00804
G1 X155.209 Y101.975 E0.01609
G1 X155.220 Y101.957 E0.00065
G1 X154.957 Y101.502 E0.01617
G1 X154.697 Y101.502 E0.00802
G1 X154.700 Y100.836 E0.02050
G1 X154.965 Y100.836 E0.00815
G1 X155.228 Y100.382 E0.01617
G1 X154.965 Y99.927 E0.01617
G1 X154.705 Y99.927 E0.00802
G1 X154.708 Y99.261 E0.02050
G1 X154.973 Y99.261 E0.00815
G1 X155.235 Y98.807 E0.01617
G1 X154.973 Y98.352 E0.01617
G1 X154.712 Y98.352 E0.00802
G1 X154.715 Y97.686 E0.02050
G1 X154.980 Y97.686 E0.00815
G1 X155.243 Y97.232 E0.01617
G1 X154.980 Y96.777 E0.01617
G1 X154.720 Y96.777 E0.00802
G1 X154.721 Y96.606 E0.00528
G1 X155.154 Y96.606 E0.01335
G1 X155.319 Y96.321 E0.01013
G1 X155.377 Y96.352 E0.00203
G1 F4800
G1 X155.319 Y96.321 E-0.02739
G1 F4800
G1 X155.154 Y96.606 E-0.13675
G1 F4800
G1 X154.721 Y96.606 E-0.18018
G1 F4800
G1 X154.720 Y96.777 E-0.07125
G1 F4800
G1 X154.980 Y96.777 E-0.10820
G1 F4800
G1 X155.243 Y97.232 E-0.21820
G1 F4800
G1 X155.221 Y97.269 E-0.01803
G1 E-0.04000 F2100.00000
G1 Z0.550 F6000.000
G1 X150.276 Y97.684 F6000.000
G1 Z0.400 F6000.000
G1 E0.80000 F2100.00000
G1 F3000
G1 X150.279 Y98.043 E0.01107
G1 F3000
G1 X150.044 Y98.043 E0.00724
G1 X150.238 Y97.707 E0.01197
G1 X150.225 Y97.684 E0.00081
G1 X149.450 Y98.161 F6000.000
G1 F3000
G1 X149.342 Y97.974 E0.00668
G1 X149.077 Y98.238 E0.01152
G1 X148.934 Y98.436 E0.00753
G1 X149.000 Y98.436 E0.00201
G1 X149.262 Y98.891 E0.01617
G1 X149.000 Y99.345 E0.01617
G1 X148.856 Y99.345 E0.00444
G1 X148.853 Y100.005 F6000.000
G1 F3000
G1 X148.938 Y100.005 E0.00263
G1 X149.201 Y100.460 E0.01617
