; generated by Slic3r 1.31.6-prusa3d on 2016-12-03 at 18:33:44

; external perimeters extrusion width = 0.60mm
; perimeters extrusion width = 0.43mm
; infill extrusion width = 0.70mm
; solid infill extrusion width = 0.70mm
; top infill extrusion width = 0.43mm

M107
M115 U3.0.9 ; tell printer latest fw version
M83  ; extruder relative mode
M104 S215 ; set extruder temp
M140 S55 ; set bed temp
M190 S55 ; wait for bed temp
M109 S215 ; wait for extruder temp
G28 W ; home all without mesh bed level
G80 ; mesh bed leveling
G1 Y-3.0 F1000.0 ; go outside pritn area
G1 X60.0 E9.0  F1000.0 ; intro line
G1 X100.0 E12.5  F1000.0 ; intro line
G21 ; set units to millimeters
G90 ; use absolute coordinates
M83 ; use relative distances for extrusion
G1 E-0.80000 F2100.00000
G1 Z0.200 F6000.000
G1 X118.344 Y97.342 F6000.000
G1 E0.80000 F2100.00000
M204 S1000
G1 F1013.198
G1 X120.000 Y96.869 E0.05400
G1 X130.000 Y96.869 E0.31354
G1 X131.520 Y97.262 E0.04923
G1 X132.658 Y98.344 E0.04923
G1 X133.127 Y99.842 E0.04923
G1 X132.811 Y101.380 E0.04923
G1 X132.214 Y102.214 E0.03215
G1 X122.214 Y112.214 E0.44342
G1 X120.861 Y113.011 E0.04923
G1 X119.292 Y113.050 E0.04923
G1 X117.900 Y112.323 E0.04923
G1 X117.037 Y111.011 E0.04923
G1 X116.869 Y110.000 E0.03215
G1 X116.869 Y100.000 E0.31354
G1 X117.262 Y98.480 E0.04923
G1 X118.303 Y97.386 E0.04735
G1 F4800
G1 X120.000 Y96.869 E-0.73736
G1 F4800
G1 X120.054 Y96.869 E-0.02264
G1 E-0.04000 F2100.00000
G1 X117.639 Y98.583 F6000.000
G1 E0.80000 F2100.00000
G1 F1013.198
G1 X118.705 Y97.569 E0.04612
G1 X120.000 Y97.246 E0.04186
G1 X130.000 Y97.246 E0.31354
G1 X131.417 Y97.639 E0.04612
G1 X132.431 Y98.705 E0.04612
G1 X132.751 Y100.140 E0.04612
G1 X131.947 Y101.947 E0.06200
G1 X121.947 Y111.947 E0.44342
G1 X120.668 Y112.672 E0.04612
G1 X119.197 Y112.635 E0.04612
G1 X117.956 Y111.846 E0.04612
G1 X117.246 Y110.000 E0.06200
G1 X117.246 Y100.000 E0.31354
G1 X117.623 Y98.640 E0.04424
G1 X118.015 Y98.693 F6000.000
G1 F1013.198
G1 X119.060 Y97.817 E0.04278
G1 X120.000 Y97.623 E0.03008
G1 X130.000 Y97.623 E0.31354
G1 X131.307 Y98.015 E0.04278
G1 X132.183 Y99.060 E0.04278
G1 X132.340 Y100.416 E0.04278
G1 X131.681 Y101.681 E0.04474
G1 X121.681 Y111.681 E0.44342
G1 X120.480 Y112.328 E0.04278
G1 X119.121 Y112.208 E0.04278
G1 X118.051 Y111.361 E0.04278
G1 X117.623 Y110.000 E0.04474
G1 X117.623 Y100.000 E0.31354
G1 X117.997 Y98.750 E0.04090
G1 F4800
G1 X119.060 Y97.817 E-0.58808
G1 F4800
G1 X119.465 Y97.733 E-0.17192
G1 E-0.04000 F2100.00000
G1 X120.587 Y100.587 F6000.000
G1 E0.80000 F2100.00000
G1 F900.000
G1 X128.583 Y100.587 E0.25070
G1 X120.587 Y108.583 E0.35454
G1 X120.587 Y100.647 E0.24881
G1 X120.210 Y100.210 F6000.000
G1 F900.000
G1 X129.493 Y100.210 E0.29106
G1 X120.210 Y109.493 E0.41162
G1 X120.210 Y100.270 E0.28918
G1 X120.010 Y100.556 F6000.000
G1 F4800
G1 X122.039 Y100.258 E-0.76000
G1 E-0.04000 F2100.00000
G1 X121.079 Y107.931 F6000.000
G1 E0.80000 F2100.00000
G1 F1215.838
G1 X120.870 Y107.721 E0.00954
G1 X120.870 Y107.173 E0.01766
G1 X121.233 Y107.537 E0.01656
G1 X121.507 Y107.263 E0.01249
G1 X120.870 Y106.625 E0.02905
G1 X120.870 Y106.077 E0.01766
G1 X121.781 Y106.989 E0.04154
G1 X122.055 Y106.714 E0.01249
G1 X120.870 Y105.529 E0.05403
G1 X120.870 Y104.981 E0.01766
G1 X122.329 Y106.440 E0.06652
G1 X122.603 Y106.166 E0.01249
G1 X120.870 Y104.433 E0.07901
G1 X120.870 Y103.885 E0.01766
G1 X122.878 Y105.892 E0.09150
G1 X123.152 Y105.618 E0.01249
G1 X120.870 Y103.336 E0.10399
G1 X120.870 Y102.788 E0.01766
G1 X123.426 Y105.344 E0.11648
G1 X123.700 Y105.070 E0.01249
G1 X120.870 Y102.240 E0.12898
G1 X120.870 Y101.692 E0.01766
G1 X123.974 Y104.796 E0.14147
G1 X124.248 Y104.522 E0.01249
G1 X120.870 Y101.144 E0.15396
G1 X120.870 Y100.870 E0.00883
G1 X121.144 Y100.870 E0.00883
G1 X124.522 Y104.248 E0.15396
G1 X124.796 Y103.974 E0.01249
G1 X121.692 Y100.870 E0.14147
G1 X122.240 Y100.870 E0.01766
G1 X125.070 Y103.700 E0.12898
G1 X125.344 Y103.426 E0.01249
G1 X122.788 Y100.870 E0.11649
G1 X123.336 Y100.870 E0.01766
G1 X125.618 Y103.152 E0.10400
G1 X125.892 Y102.878 E0.01249
G1 X123.884 Y100.870 E0.09151
G1 X124.433 Y100.870 E0.01766
G1 X126.166 Y102.604 E0.07901
G1 X126.440 Y102.329 E0.01249
G1 X124.981 Y100.870 E0.06652
G1 X125.529 Y100.870 E0.01766
G1 X126.714 Y102.055 E0.05403
G1 X126.988 Y101.781 E0.01249
G1 X126.077 Y100.870 E0.04154
G1 X126.625 Y100.870 E0.01766
G1 X127.263 Y101.507 E0.02905
G1 X127.537 Y101.233 E0.01249
G1 X127.173 Y100.870 E0.01656
G1 X127.721 Y100.870 E0.01766
G1 X127.931 Y101.079 E0.00954
M106 S255
M104 S205 ; set temperature
G1 F4800
G1 X127.721 Y100.870 E-0.12301
G1 F4800
G1 X127.173 Y100.870 E-0.22781
G1 F4800
G1 X127.537 Y101.233 E-0.21357
G1 F4800
G1 X127.263 Y101.507 E-0.16109
G1 F4800
G1 X127.204 Y101.449 E-0.03452
G1 E-0.04000 F2100.00000
G1 Z0.550 F6000.000
G1 X128.214 Y100.740 F6000.000
G1 E0.80000 F2100.00000
M204 S800
G1 F900.000
G1 X120.740 Y108.214 E0.54583
G1 X120.740 Y100.740 E0.38596
G1 X128.154 Y100.740 E0.38286
M204 S1000
G1 F4800
G1 X126.866 Y102.038 E-0.76000
G1 E-0.04000 F2100.00000
G1 X129.276 Y100.300 F6000.000
G1 E0.80000 F2100.00000
M204 S800
G1 F900.000
G1 X120.300 Y109.276 E0.96952
G1 X120.300 Y100.300 E0.68555
G1 X129.216 Y100.300 E0.68097
M204 S1000
G1 X129.172 Y99.914 F6000.000
G1 F4800
G1 X127.927 Y101.597 E-0.76000
G1 E-0.04000 F2100.00000
G1 X122.130 Y100.826 F6000.000
G1 E0.80000 F2100.00000
M204 S2000
G1 F900.000
G1 X121.107 Y101.849 E0.13550
G1 X121.107 Y102.759 E0.08535
G1 X122.759 Y101.107 E0.21894
G1 X123.670 Y101.107 E0.08535
G1 X121.107 Y103.670 E0.33964
G1 X121.107 Y104.581 E0.08535
G1 X124.581 Y101.107 E0.46035
G1 X125.492 Y101.107 E0.08535
G1 X121.107 Y105.492 E0.58105
G1 X121.107 Y106.402 E0.08535
G1 X126.402 Y101.107 E0.70176
G1 X127.313 Y101.107 E0.08535
G1 X120.826 Y107.594 E0.85973
M204 S1000
G1 F4800
G1 X122.119 Y106.301 E-0.76000
G1 E-0.04000 F2100.00000
G1 Z0.900 F6000.000
G1 X120.740 Y108.214 F6000.000
G1 E0.80000 F2100.00000
M204 S800
G1 F900.000
G1 X120.740 Y100.740 E0.38596
G1 X128.214 Y100.740 E0.38596
G1 X120.782 Y108.171 E0.54273
M204 S1000
G1 F4800
G1 X120.772 Y106.343 E-0.76000
G1 E-0.04000 F2100.00000
G1 X120.300 Y109.276 F6000.000
G1 E0.80000 F2100.00000
M204 S800
G1 F900.000
G1 X120.300 Y100.300 E0.68555
G1 X129.276 Y100.300 E0.68555
G1 X120.342 Y109.233 E0.96493
M204 S1000
G1 X120.646 Y109.476 F6000.000
G1 F4800
G1 X120.334 Y107.405 E-0.76000
G1 E-0.04000 F2100.00000
G1 X120.826 Y106.367 F6000.000
G1 E0.80000 F2100.00000
M204 S2000
G1 F900.000
G1 X121.446 Y106.988 E0.08336
G1 X121.908 Y106.526 E0.06205
G1 X121.107 Y105.725 E0.10763
G1 X121.107 Y104.801 E0.08776
G1 X122.370 Y106.064 E0.16968
G1 X122.832 Y105.602 E0.06205
G1 X121.107 Y103.878 E0.23173
G1 X121.107 Y102.954 E0.08776
G1 X123.293 Y105.141 E0.29379
G1 X123.755 Y104.679 E0.06205
G1 X121.107 Y102.031 E0.35584
G1 X121.107 Y101.107 E0.08776
G1 X124.217 Y104.217 E0.41789
G1 X124.679 Y103.755 E0.06205
G1 X122.031 Y101.107 E0.35585
G1 X122.954 Y101.107 E0.08776
G1 X125.141 Y103.294 E0.29380
G1 X125.602 Y102.832 E0.06205
G1 X123.878 Y101.107 E0.23174
G1 X124.801 Y101.107 E0.08776
G1 X126.064 Y102.370 E0.16969
G1 X126.526 Y101.908 E0.06205
G1 X125.725 Y101.107 E0.10764
G1 X126.648 Y101.107 E0.08776
G1 X127.186 Y101.645 E0.07230
M204 S1000
G1 F4800
G1 X126.648 Y101.107 E-0.31625
G1 F4800
G1 X125.725 Y101.107 E-0.38384
G1 F4800
G1 X125.827 Y101.209 E-0.05991
G1 E-0.04000 F2100.00000
G1 Z1.250 F6000.000
G1 Z1.750 F6000.000
G1 X128.214 Y100.740 F6000.000
G1 Z1.250 F6000.000
G1 E0.80000 F2100.00000
M204 S800
G1 F900.000
G1 X120.740 Y108.214 E0.54583
G1 X120.740 Y100.740 E0.38596
G1 X128.154 Y100.740 E0.38286
M204 S1000
G1 F4800
G1 X126.866 Y102.038 E-0.76000
G1 E-0.04000 F2100.00000
G1 Z1.750 F6000.000
G1 X129.276 Y100.300 F6000.000
G1 Z1.250 F6000.000
G1 E0.80000 F2100.00000
M204 S800
G1 F900.000
G1 X120.300 Y109.276 E0.96952
G1 X120.300 Y100.300 E0.68555
G1 X129.216 Y100.300 E0.68097
M204 S1000
G1 X129.172 Y99.914 F6000.000
G1 F4800
G1 X127.927 Y101.597 E-0.76000
G1 E-0.04000 F2100.00000
G1 Z1.750 F6000.000
G1 X127.299 Y100.826 F6000.000
G1 Z1.250 F6000.000
G1 E0.80000 F2100.00000
M204 S2000
G1 F900.000
G1 X120.826 Y102.560 E0.60932
M204 S1000
G1 F4800
G1 X122.592 Y102.087 E-0.76000
G1 E-0.04000 F2100.00000
G1 Z1.750 F6000.000
G1 X120.826 Y105.686 F6000.000
G1 Z1.250 F6000.000
G1 E0.80000 F2100.00000
M204 S2000
G1 F900.000
G1 X121.986 Y106.846 E0.14912
M204 S1000
G1 F4800
G1 X120.826 Y105.686 E-0.68161
G1 E-0.11839 F2100.00000
G1 Z1.750 F6000.000
G1 X120.740 Y108.214 F6000.000
G1 Z1.600 F6000.000
G1 E0.80000 F2100.00000
M204 S800
G1 F900.000
G1 X120.740 Y100.740 E0.38596
G1 X128.214 Y100.740 E0.38596
G1 X120.782 Y108.171 E0.54273
M204 S1000
G1 F4800
G1 X120.772 Y106.343 E-0.76000
G1 E-0.04000 F2100.00000
G1 Z2.100 F6000.000
G1 X120.300 Y109.276 F6000.000
G1 Z1.600 F6000.000
G1 E0.80000 F2100.00000
M204 S800
G1 F900.000
G1 X120.300 Y100.300 E0.68555
G1 X129.276 Y100.300 E0.68555
G1 X120.342 Y109.233 E0.96493
M204 S1000
G1 X120.646 Y109.476 F6000.000
G1 F4800
G1 X120.334 Y107.405 E-0.76000
G1 E-0.04000 F2100.00000
G1 Z2.100 F6000.000
G1 X121.431 Y107.413 F6000.000
G1 Z1.600 F6000.000
G1 E0.80000 F2100.00000
M106 S255
G1 F1200
G1 X121.015 Y106.997 E0.03006
G1 X121.015 Y106.367 E0.03212
G1 X121.606 Y106.959 E0.04267
G1 X121.921 Y106.644 E0.02271
G1 X121.015 Y105.737 E0.06538
G1 X121.015 Y105.108 E0.03212
G1 X122.236 Y106.329 E0.08810
G1 X122.551 Y106.014 E0.02271
G1 X121.015 Y104.478 E0.11081
G1 X121.015 Y103.848 E0.03212
G1 X122.866 Y105.699 E0.13352
G1 X123.180 Y105.384 E0.02271
G1 X121.015 Y103.219 E0.15623
G1 X121.015 Y102.589 E0.03212
G1 X123.495 Y105.070 E0.17894
G1 X123.810 Y104.755 E0.02271
G1 X121.015 Y101.959 E0.20166
G1 X121.015 Y101.330 E0.03212
G1 X124.125 Y104.440 E0.22437
G1 X124.440 Y104.125 E0.02271
G1 X121.330 Y101.015 E0.22437
G1 X121.959 Y101.015 E0.03212
G1 X124.755 Y103.810 E0.20166
G1 X125.069 Y103.495 E0.02271
G1 X122.589 Y101.015 E0.17895
G1 X123.219 Y101.015 E0.03212
G1 X125.384 Y103.181 E0.15624
G1 X125.699 Y102.866 E0.02271
G1 X123.848 Y101.015 E0.13352
G1 X124.478 Y101.015 E0.03212
G1 X126.014 Y102.551 E0.11081
G1 X126.329 Y102.236 E0.02271
G1 X125.108 Y101.015 E0.08810
G1 X125.737 Y101.015 E0.03212
G1 X126.644 Y101.921 E0.06539
G1 X126.959 Y101.606 E0.02271
G1 X126.367 Y101.015 E0.04268
G1 X126.997 Y101.015 E0.03212
G1 X127.413 Y101.431 E0.03006
M106 S255
G1 F4800
G1 X126.997 Y101.015 E-0.24493
G1 F4800
G1 X126.367 Y101.015 E-0.26171
G1 F4800
G1 X126.798 Y101.446 E-0.25336
G1 E-0.04000 F2100.00000
G1 Z2.100 F6000.000
G1 X128.214 Y100.740 F6000.000
G1 Z1.950 F6000.000
G1 E0.80000 F2100.00000
M204 S800
G1 F900.000
G1 X120.740 Y108.214 E0.54583
G1 X120.740 Y100.740 E0.38596
G1 X128.154 Y100.740 E0.38286
M204 S1000
G1 F4800
G1 X126.866 Y102.038 E-0.76000
G1 E-0.04000 F2100.00000
G1 Z2.450 F6000.000
G1 X129.276 Y100.300 F6000.000
G1 Z1.950 F6000.000
G1 E0.80000 F2100.00000
M204 S800
G1 F900.000
G1 X120.300 Y109.276 E0.96952
G1 X120.300 Y100.300 E0.68555
G1 X129.216 Y100.300 E0.68097
M204 S1000
G1 X129.263 Y100.252 F6000.000
G1 F4800
G1 X129.241 Y100.335 E-0.01786
G1 F4800
G1 X127.978 Y101.597 E-0.74214
G1 E-0.04000 F2100.00000
G1 Z2.450 F6000.000
G1 X122.130 Y100.826 F6000.000
G1 Z1.950 F6000.000
G1 E0.80000 F2100.00000
M204 S2000
G1 F900.000
G1 X121.107 Y101.849 E0.13550
G1 X121.107 Y102.759 E0.08535
G1 X122.759 Y101.107 E0.21894
G1 X123.670 Y101.107 E0.08535
G1 X121.107 Y103.670 E0.33964
G1 X121.107 Y104.581 E0.08535
G1 X124.581 Y101.107 E0.46035
G1 X125.492 Y101.107 E0.08535
G1 X121.107 Y105.492 E0.58105
G1 X121.107 Y106.402 E0.08535
G1 X126.402 Y101.107 E0.70176
G1 X127.313 Y101.107 E0.08535
G1 X120.826 Y107.594 E0.85973
M204 S1000
G1 F4800
G1 X122.119 Y106.301 E-0.76000
G1 E-0.04000 F2100.00000
G1 Z2.450 F6000.000
G1 X120.740 Y108.214 F6000.000
G1 Z2.300 F6000.000
G1 E0.80000 F2100.00000
M204 S800
G1 F900.000
G1 X120.740 Y100.740 E0.38596
G1 X128.214 Y100.740 E0.38596
G1 X120.782 Y108.171 E0.54273
M204 S1000
G1 F4800
G1 X120.772 Y106.343 E-0.76000
G1 E-0.04000 F2100.00000
G1 Z2.800 F6000.000
G1 X120.300 Y109.276 F6000.000
G1 Z2.300 F6000.000
G1 E0.80000 F2100.00000
M204 S800
G1 F900.000
G1 X120.300 Y100.300 E0.68555
G1 X129.276 Y100.300 E0.68555
G1 X120.342 Y109.233 E0.96493
M204 S1000
G1 X120.404 Y108.889 F6000.000
G1 F4800
G1 X120.334 Y107.405 E-0.76000
G1 E-0.04000 F2100.00000
G1 Z2.800 F6000.000
G1 X120.826 Y106.367 F6000.000
G1 Z2.300 F6000.000
G1 E0.80000 F2100.00000
M204 S2000
G1 F900.000
G1 X121.446 Y106.988 E0.08336
G1 X121.908 Y106.526 E0.06205
G1 X121.107 Y105.725 E0.10763
G1 X121.107 Y104.801 E0.08776
G1 X122.370 Y106.064 E0.16968
G1 X122.832 Y105.602 E0.06205
G1 X121.107 Y103.878 E0.23173
G1 X121.107 Y102.954 E0.08776
G1 X123.293 Y105.141 E0.29379
G1 X123.755 Y104.679 E0.06205
G1 X121.107 Y102.031 E0.35584
G1 X121.107 Y101.107 E0.08776
G1 X124.217 Y104.217 E0.41789
G1 X124.679 Y103.755 E0.06205
G1 X122.031 Y101.107 E0.35585
G1 X122.954 Y101.107 E0.08776
G1 X125.141 Y103.294 E0.29380
G1 X125.602 Y102.832 E0.06205
G1 X123.878 Y101.107 E0.23174
G1 X124.801 Y101.107 E0.08776
G1 X126.064 Y102.370 E0.16969
G1 X126.526 Y101.908 E0.06205
G1 X125.725 Y101.107 E0.10764
G1 X126.648 Y101.107 E0.08776
G1 X127.186 Y101.645 E0.07230
M204 S1000
G1 F4800
G1 X126.648 Y101.107 E-0.31625
G1 F4800
G1 X125.725 Y101.107 E-0.38384
G1 F4800
G1 X125.827 Y101.209 E-0.05991
G1 E-0.04000 F2100.00000
G1 Z2.800 F6000.000
G1 X128.214 Y100.740 F6000.000
G1 Z2.650 F6000.000
G1 E0.80000 F2100.00000
M204 S800
G1 F900.000
G1 X120.740 Y108.214 E0.54583
G1 X120.740 Y100.740 E0.38596
G1 X122.444 Y100.740 E0.08800
G1 X122.574 Y100.780 E0.00702
G1 X123.142 Y100.816 E0.02940
G1 X123.546 Y100.740 E0.02125
G1 X128.154 Y100.740 E0.23793
M204 S1000
G1 F4800
G1 X126.866 Y102.038 E-0.76000
G1 E-0.04000 F2100.00000
G1 Z3.150 F6000.000
G1 X129.276 Y100.300 F6000.000
G1 Z2.650 F6000.000
G1 E0.80000 F2100.00000
M204 S800
G1 F900.000
G1 X120.300 Y109.276 E0.96952
G1 X120.300 Y100.300 E0.68555
G1 X122.511 Y100.300 E0.16887
G1 X122.654 Y100.345 E0.01146
G1 X123.115 Y100.374 E0.03523
G1 X123.505 Y100.300 E0.03036
G1 X129.216 Y100.300 E0.43616
M204 S1000
G1 X128.930 Y100.501 F6000.000
G1 F4800
G1 X127.927 Y101.597 E-0.76000
G1 E-0.04000 F2100.00000
G1 Z3.150 F6000.000
G1 X121.558 Y100.813 F6000.000
G1 Z2.650 F6000.000
G1 E0.80000 F2100.00000
M204 S2000
G1 F900.000
G1 X120.972 Y101.398 E0.04434
G1 X120.972 Y101.918 E0.02787
G1 X121.918 Y100.972 E0.07165
G1 X122.432 Y100.979 E0.02749
G1 X120.972 Y102.439 E0.11053
G1 X120.972 Y102.959 E0.02787
G1 X122.898 Y101.034 E0.14583
G1 X123.156 Y101.050 E0.01387
G1 X123.459 Y100.993 E0.01650
G1 X120.972 Y103.480 E0.18834
G1 X120.972 Y104.000 E0.02787
G1 X124.000 Y100.972 E0.22931
G1 X124.521 Y100.972 E0.02787
G1 X120.972 Y104.521 E0.26873
G1 X120.972 Y105.041 E0.02787
G1 X125.041 Y100.972 E0.30814
G1 X125.562 Y100.972 E0.02787
G1 X120.972 Y105.562 E0.34755
G1 X120.972 Y106.082 E0.02787
G1 X126.082 Y100.972 E0.38697
G1 X126.602 Y100.972 E0.02787
G1 X120.972 Y106.602 E0.42638
G1 X120.972 Y106.823 E0.01179
G1 X121.273 Y106.823 E0.01608
G1 X127.123 Y100.972 E0.44305
G1 X127.643 Y100.972 E0.02787
G1 X121.633 Y106.982 E0.45514
M204 S1000
G1 F4800
G1 X122.926 Y105.689 E-0.76000
G1 E-0.04000 F2100.00000
G1 Z3.150 F6000.000
G1 X122.049 Y104.740 F6000.000
G1 Z3.000 F6000.000
G1 E0.80000 F2100.00000
M204 S800
G1 F900.000
G1 X124.201 Y104.740 E0.11116
G1 X124.235 Y104.329 E0.02131
G1 X124.627 Y104.327 E0.02025
G1 X120.740 Y108.214 E0.28386
G1 X120.740 Y104.318 E0.20117
G1 X121.656 Y104.327 E0.04729
G1 X122.011 Y104.427 E0.01906
G1 X122.041 Y104.680 E0.01320
M204 S1000
G1 X122.439 Y104.300 F6000.000
M204 S800
G1 F900.000
G1 X123.796 Y104.300 E0.10364
G1 X123.826 Y103.928 E0.02851
G1 X123.936 Y103.890 E0.00889
G1 X125.693 Y103.883 E0.13421
G1 X120.300 Y109.276 E0.58254
G1 X120.300 Y103.874 E0.41255
G1 X121.798 Y103.888 E0.11446
G1 X121.799 Y103.910 E0.00168
G1 X122.411 Y104.072 E0.04836
G1 X122.432 Y104.240 E0.01293
M204 S1000
G1 X122.498 Y104.696 F6000.000
G1 X122.441 Y104.826 F6000.000
M204 S2000
G1 F900.000
G1 X123.223 Y105.609 E0.10062
