; generated by Slic3r 1.31.6-prusa3d on 2016-12-06 at 19:30:43

; external perimeters extrusion width = 0.45mm
; perimeters extrusion width = 0.45mm
; infill extrusion width = 0.45mm
; solid infill extrusion width = 0.45mm
; top infill extrusion width = 0.40mm

M107
M115 U3.0.9 ; tell printer latest fw version
M83  ; extruder relative mode
M104 S215 ; set extruder temp
M140 S55 ; set bed temp
M190 S55 ; wait for bed temp
M109 S215 ; wait for extruder temp
G28 W ; home all without mesh bed level
G80 ; mesh bed leveling
G1 Y-3.0 F1000.0 ; go outside pritn area
G1 X60.0 E9.0  F1000.0 ; intro line
G1 X100.0 E12.5  F1000.0 ; intro line
G21 ; set units to millimeters
G90 ; use absolute coordinates
M83 ; use relative distances for extrusion
G1 E-0.80000 F2100.00000
G1 Z0.200 F7200.000
G1 X103.015 Y87.693 F7200.000
G1 E0.80000 F2100.00000
M204 S1000
G1 F2100
G1 X104.060 Y86.817 E0.04278
G1 X105.000 Y86.623 E0.03008
G1 X145.000 Y86.623 E1.25417
G1 X146.307 Y87.015 E0.04278
G1 X147.183 Y88.060 E0.04278
G1 X147.377 Y89.000 E0.03008
G1 X147.377 Y121.000 E1.00334
G1 X146.985 Y122.307 E0.04278
G1 X145.940 Y123.183 E0.04278
G1 X145.000 Y123.377 E0.03008
G1 X105.000 Y123.377 E1.25417
G1 X103.693 Y122.985 E0.04278
G1 X102.817 Y121.940 E0.04278
G1 X102.623 Y121.000 E0.03008
G1 X102.623 Y89.000 E1.00334
G1 X102.997 Y87.750 E0.04090
G1 F5760
G1 X104.060 Y86.817 E-0.49007
G1 F5760
G1 X104.824 Y86.659 E-0.26993
G1 E-0.04000 F2100.00000
G1 X105.964 Y89.964 F7200.000
G1 E0.80000 F2100.00000
G1 F1680
G1 X144.036 Y89.964 E1.19371
G1 X144.036 Y120.036 E0.94288
G1 X105.964 Y120.036 E1.19371
G1 X105.964 Y90.024 E0.94100
G1 X105.587 Y89.587 F7200.000
G1 F1680
G1 X144.413 Y89.587 E1.21736
G1 X144.413 Y120.413 E0.96652
G1 X105.587 Y120.413 E1.21736
G1 X105.587 Y89.647 E0.96464
G1 X105.210 Y89.210 F7200.000
G1 F1260
G1 X144.790 Y89.210 E1.24100
G1 X144.790 Y120.790 E0.99017
G1 X105.210 Y120.790 E1.24100
G1 X105.210 Y89.270 E0.98829
G1 X105.600 Y89.299 F7200.000
G1 F5760
G1 X107.404 Y89.267 E-0.76000
G1 E-0.04000 F2100.00000
G1 X106.077 Y119.160 F7200.000
G1 E0.80000 F2100.00000
G1 F1680
G1 X106.670 Y119.753 E0.02631
G1 X107.204 Y119.753 E0.01674
G1 X106.247 Y118.796 E0.04246
G1 X106.247 Y118.263 E0.01674
G1 X107.737 Y119.753 E0.06613
G1 X108.271 Y119.753 E0.01674
G1 X106.247 Y117.729 E0.08981
G1 X106.247 Y117.195 E0.01674
G1 X108.805 Y119.753 E0.11348
G1 X109.338 Y119.753 E0.01674
G1 X106.247 Y116.662 E0.13716
G1 X106.247 Y116.128 E0.01674
G1 X109.872 Y119.753 E0.16083
G1 X110.405 Y119.753 E0.01674
G1 X106.247 Y115.595 E0.18451
G1 X106.247 Y115.061 E0.01674
G1 X110.939 Y119.753 E0.20818
G1 X111.473 Y119.753 E0.01674
G1 X106.247 Y114.527 E0.23186
G1 X106.247 Y113.994 E0.01674
G1 X112.006 Y119.753 E0.25553
G1 X112.540 Y119.753 E0.01674
G1 X106.247 Y113.460 E0.27920
G1 X106.247 Y112.927 E0.01674
G1 X113.073 Y119.753 E0.30288
G1 X113.607 Y119.753 E0.01674
G1 X106.247 Y112.393 E0.32655
G1 X106.247 Y111.859 E0.01674
G1 X114.141 Y119.753 E0.35023
G1 X114.674 Y119.753 E0.01674
G1 X106.247 Y111.326 E0.37390
G1 X106.247 Y110.792 E0.01674
G1 X115.208 Y119.753 E0.39758
G1 X115.741 Y119.753 E0.01674
G1 X106.247 Y110.259 E0.42125
G1 X106.247 Y109.725 E0.01674
G1 X116.275 Y119.753 E0.44493
G1 X116.809 Y119.753 E0.01674
G1 X106.247 Y109.191 E0.46860
G1 X106.247 Y108.658 E0.01674
G1 X117.342 Y119.753 E0.49228
G1 X117.876 Y119.753 E0.01674
G1 X106.247 Y108.124 E0.51595
G1 X106.247 Y107.591 E0.01674
G1 X118.409 Y119.753 E0.53963
G1 X118.943 Y119.753 E0.01674
G1 X106.247 Y107.057 E0.56330
G1 X106.247 Y106.523 E0.01674
G1 X119.477 Y119.753 E0.58697
G1 X120.010 Y119.753 E0.01674
G1 X106.247 Y105.990 E0.61065
G1 X106.247 Y105.456 E0.01674
G1 X120.544 Y119.753 E0.63432
G1 X121.077 Y119.753 E0.01674
G1 X106.247 Y104.923 E0.65800
G1 X106.247 Y104.389 E0.01674
G1 X121.611 Y119.753 E0.68167
G1 X122.144 Y119.753 E0.01674
G1 X106.247 Y103.856 E0.70535
G1 X106.247 Y103.322 E0.01674
G1 X122.678 Y119.753 E0.72902
G1 X123.212 Y119.753 E0.01674
G1 X106.247 Y102.788 E0.75270
G1 X106.247 Y102.255 E0.01674
G1 X123.745 Y119.753 E0.77637
G1 X124.279 Y119.753 E0.01674
G1 X106.247 Y101.721 E0.80005
G1 X106.247 Y101.188 E0.01674
G1 X124.812 Y119.753 E0.82372
G1 X125.346 Y119.753 E0.01674
G1 X106.247 Y100.654 E0.84740
G1 X106.247 Y100.120 E0.01674
G1 X125.880 Y119.753 E0.87107
G1 X126.413 Y119.753 E0.01674
G1 X106.247 Y99.587 E0.89475
G1 X106.247 Y99.053 E0.01674
G1 X126.947 Y119.753 E0.91842
G1 X127.480 Y119.753 E0.01674
G1 X106.247 Y98.520 E0.94209
G1 X106.247 Y97.986 E0.01674
G1 X128.014 Y119.753 E0.96577
G1 X128.548 Y119.753 E0.01674
G1 X106.247 Y97.452 E0.98944
G1 X106.247 Y96.919 E0.01674
G1 X129.081 Y119.753 E1.01312
G1 X129.615 Y119.753 E0.01674
G1 X106.247 Y96.385 E1.03679
G1 X106.247 Y95.852 E0.01674
G1 X130.148 Y119.753 E1.06047
G1 X130.682 Y119.753 E0.01674
G1 X106.247 Y95.318 E1.08414
G1 X106.247 Y94.784 E0.01674
G1 X131.216 Y119.753 E1.10782
G1 X131.749 Y119.753 E0.01674
G1 X106.247 Y94.251 E1.13149
G1 X106.247 Y93.717 E0.01674
G1 X132.283 Y119.753 E1.15517
G1 X132.816 Y119.753 E0.01674
G1 X106.247 Y93.184 E1.17884
G1 X106.247 Y92.650 E0.01674
G1 X133.350 Y119.753 E1.20252
G1 X133.884 Y119.753 E0.01674
G1 X106.247 Y92.116 E1.22619
G1 X106.247 Y91.583 E0.01674
G1 X134.417 Y119.753 E1.24987
G1 X134.951 Y119.753 E0.01674
G1 X106.247 Y91.049 E1.27354
G1 X106.247 Y90.516 E0.01674
G1 X135.484 Y119.753 E1.29721
G1 X136.018 Y119.753 E0.01674
G1 X106.512 Y90.247 E1.30914
G1 X107.045 Y90.247 E0.01674
G1 X136.551 Y119.753 E1.30914
G1 X137.085 Y119.753 E0.01674
G1 X107.579 Y90.247 E1.30914
G1 X108.113 Y90.247 E0.01674
G1 X137.619 Y119.753 E1.30914
G1 X138.152 Y119.753 E0.01674
G1 X108.646 Y90.247 E1.30914
G1 X109.180 Y90.247 E0.01674
G1 X138.686 Y119.753 E1.30914
G1 X139.219 Y119.753 E0.01674
G1 X109.713 Y90.247 E1.30914
G1 X110.247 Y90.247 E0.01674
G1 X139.753 Y119.753 E1.30914
G1 X140.287 Y119.753 E0.01674
G1 X110.781 Y90.247 E1.30914
G1 X111.314 Y90.247 E0.01674
G1 X140.820 Y119.753 E1.30914
G1 X141.354 Y119.753 E0.01674
G1 X111.848 Y90.247 E1.30914
G1 X112.381 Y90.247 E0.01674
G1 X141.887 Y119.753 E1.30914
G1 X142.421 Y119.753 E0.01674
G1 X112.915 Y90.247 E1.30914
G1 X113.448 Y90.247 E0.01674
G1 X142.955 Y119.753 E1.30914
G1 X143.488 Y119.753 E0.01674
G1 X113.982 Y90.247 E1.30914
G1 X114.516 Y90.247 E0.01674
G1 X143.753 Y119.484 E1.29722
G1 X143.753 Y118.951 E0.01674
G1 X115.049 Y90.247 E1.27354
G1 X115.583 Y90.247 E0.01674
G1 X143.753 Y118.417 E1.24987
G1 X143.753 Y117.884 E0.01674
G1 X116.116 Y90.247 E1.22619
G1 X116.650 Y90.247 E0.01674
G1 X143.753 Y117.350 E1.20252
G1 X143.753 Y116.816 E0.01674
G1 X117.184 Y90.247 E1.17884
G1 X117.717 Y90.247 E0.01674
G1 X143.753 Y116.283 E1.15517
G1 X143.753 Y115.749 E0.01674
G1 X118.251 Y90.247 E1.13149
G1 X118.784 Y90.247 E0.01674
G1 X143.753 Y115.216 E1.10782
G1 X143.753 Y114.682 E0.01674
G1 X119.318 Y90.247 E1.08414
G1 X119.852 Y90.247 E0.01674
G1 X143.753 Y114.148 E1.06047
G1 X143.753 Y113.615 E0.01674
G1 X120.385 Y90.247 E1.03680
G1 X120.919 Y90.247 E0.01674
G1 X143.753 Y113.081 E1.01312
G1 X143.753 Y112.548 E0.01674
G1 X121.452 Y90.247 E0.98945
G1 X121.986 Y90.247 E0.01674
G1 X143.753 Y112.014 E0.96577
G1 X143.753 Y111.480 E0.01674
G1 X122.520 Y90.247 E0.94210
G1 X123.053 Y90.247 E0.01674
G1 X143.753 Y110.947 E0.91842
G1 X143.753 Y110.413 E0.01674
G1 X123.587 Y90.247 E0.89475
G1 X124.120 Y90.247 E0.01674
G1 X143.753 Y109.880 E0.87107
G1 X143.753 Y109.346 E0.01674
G1 X124.654 Y90.247 E0.84740
G1 X125.188 Y90.247 E0.01674
G1 X143.753 Y108.812 E0.82372
G1 X143.753 Y108.279 E0.01674
G1 X125.721 Y90.247 E0.80005
G1 X126.255 Y90.247 E0.01674
G1 X143.753 Y107.745 E0.77637
G1 X143.753 Y107.212 E0.01674
G1 X126.788 Y90.247 E0.75270
G1 X127.322 Y90.247 E0.01674
G1 X143.753 Y106.678 E0.72902
G1 X143.753 Y106.145 E0.01674
G1 X127.855 Y90.247 E0.70535
G1 X128.389 Y90.247 E0.01674
G1 X143.753 Y105.611 E0.68168
G1 X143.753 Y105.077 E0.01674
G1 X128.923 Y90.247 E0.65800
G1 X129.456 Y90.247 E0.01674
G1 X143.753 Y104.544 E0.63433
G1 X143.753 Y104.010 E0.01674
G1 X129.990 Y90.247 E0.61065
G1 X130.523 Y90.247 E0.01674
G1 X143.753 Y103.477 E0.58698
G1 X143.753 Y102.943 E0.01674
G1 X131.057 Y90.247 E0.56330
G1 X131.591 Y90.247 E0.01674
G1 X143.753 Y102.409 E0.53963
G1 X143.753 Y101.876 E0.01674
G1 X132.124 Y90.247 E0.51595
G1 X132.658 Y90.247 E0.01674
G1 X143.753 Y101.342 E0.49228
G1 X143.753 Y100.809 E0.01674
G1 X133.191 Y90.247 E0.46860
G1 X133.725 Y90.247 E0.01674
G1 X143.753 Y100.275 E0.44493
G1 X143.753 Y99.741 E0.01674
G1 X134.259 Y90.247 E0.42125
G1 X134.792 Y90.247 E0.01674
G1 X143.753 Y99.208 E0.39758
G1 X143.753 Y98.674 E0.01674
G1 X135.326 Y90.247 E0.37390
G1 X135.859 Y90.247 E0.01674
G1 X143.753 Y98.141 E0.35023
G1 X143.753 Y97.607 E0.01674
G1 X136.393 Y90.247 E0.32656
G1 X136.927 Y90.247 E0.01674
G1 X143.753 Y97.073 E0.30288
G1 X143.753 Y96.540 E0.01674
G1 X137.460 Y90.247 E0.27921
G1 X137.994 Y90.247 E0.01674
G1 X143.753 Y96.006 E0.25553
G1 X143.753 Y95.473 E0.01674
G1 X138.527 Y90.247 E0.23186
G1 X139.061 Y90.247 E0.01674
G1 X143.753 Y94.939 E0.20818
G1 X143.753 Y94.405 E0.01674
G1 X139.595 Y90.247 E0.18451
G1 X140.128 Y90.247 E0.01674
G1 X143.753 Y93.872 E0.16083
G1 X143.753 Y93.338 E0.01674
G1 X140.662 Y90.247 E0.13716
G1 X141.195 Y90.247 E0.01674
G1 X143.753 Y92.805 E0.11348
G1 X143.753 Y92.271 E0.01674
G1 X141.729 Y90.247 E0.08981
G1 X142.262 Y90.247 E0.01674
G1 X143.753 Y91.738 E0.06613
G1 X143.753 Y91.204 E0.01674
G1 X142.796 Y90.247 E0.04246
G1 X143.330 Y90.247 E0.01674
G1 X143.923 Y90.840 E0.02631
M106 S224.4
M104 S205 ; set temperature
G1 F5760
G1 X143.330 Y90.247 E-0.29050
G1 F5760
G1 X142.796 Y90.247 E-0.18481
G1 F5760
G1 X143.377 Y90.828 E-0.28469
G1 E-0.04000 F2100.00000
G1 Z0.400 F7200.000
G1 X143.961 Y90.039 F7200.000
G1 E0.80000 F2100.00000
M204 S800
G1 F2400
G1 X143.961 Y119.961 E1.01281
G1 X106.039 Y119.961 E1.28360
G1 X106.039 Y90.039 E1.01281
G1 X143.901 Y90.039 E1.28157
M204 S1000
G1 X144.368 Y89.632 F7200.000
M204 S800
G1 F2400
G1 X144.368 Y120.368 E1.04037
G1 X105.632 Y120.368 E1.31116
G1 X105.632 Y89.632 E1.04037
G1 X144.308 Y89.632 E1.30913
M204 S1000
G1 X144.775 Y89.225 F7200.000
M204 S800
G1 F1800
G1 X144.775 Y120.775 E1.06793
G1 X105.225 Y120.775 E1.33872
G1 X105.225 Y89.225 E1.06793
G1 X144.715 Y89.225 E1.33669
M204 S1000
G1 X144.657 Y89.607 F7200.000
G1 F5760
G1 X144.719 Y91.419 E-0.76000
G1 E-0.04000 F2100.00000
G1 X143.015 Y119.839 F7200.000
G1 E0.80000 F2100.00000
M204 S2000
G1 F2400
G1 X143.656 Y119.198 E0.03071
G1 X143.656 Y118.622 E0.01953
G1 X142.622 Y119.656 E0.04955
G1 X142.045 Y119.656 E0.01953
G1 X143.656 Y118.045 E0.07718
G1 X143.656 Y117.469 E0.01953
G1 X141.469 Y119.656 E0.10480
G1 X140.892 Y119.656 E0.01953
G1 X143.656 Y116.892 E0.13242
G1 X143.656 Y116.316 E0.01953
G1 X140.316 Y119.656 E0.16005
G1 X139.740 Y119.656 E0.01953
G1 X143.656 Y115.740 E0.18767
G1 X143.656 Y115.163 E0.01953
G1 X139.163 Y119.656 E0.21529
G1 X138.587 Y119.656 E0.01953
G1 X143.656 Y114.587 E0.24292
G1 X143.656 Y114.011 E0.01953
G1 X138.011 Y119.656 E0.27054
G1 X137.434 Y119.656 E0.01953
G1 X143.656 Y113.434 E0.29816
G1 X143.656 Y112.858 E0.01953
G1 X136.858 Y119.656 E0.32579
G1 X136.281 Y119.656 E0.01953
G1 X143.656 Y112.281 E0.35341
G1 X143.656 Y111.705 E0.01953
G1 X135.705 Y119.656 E0.38103
G1 X135.129 Y119.656 E0.01953
G1 X143.656 Y111.129 E0.40866
G1 X143.656 Y110.552 E0.01953
G1 X134.552 Y119.656 E0.43628
G1 X133.976 Y119.656 E0.01953
G1 X143.656 Y109.976 E0.46391
G1 X143.656 Y109.400 E0.01953
G1 X133.400 Y119.656 E0.49153
G1 X132.823 Y119.656 E0.01953
G1 X143.656 Y108.823 E0.51915
G1 X143.656 Y108.247 E0.01953
G1 X132.247 Y119.656 E0.54678
G1 X131.670 Y119.656 E0.01953
G1 X143.656 Y107.670 E0.57440
G1 X143.656 Y107.094 E0.01953
G1 X131.094 Y119.656 E0.60202
G1 X130.518 Y119.656 E0.01953
G1 X143.656 Y106.518 E0.62965
G1 X143.656 Y105.941 E0.01953
G1 X129.941 Y119.656 E0.65727
G1 X129.365 Y119.656 E0.01953
G1 X143.656 Y105.365 E0.68489
G1 X143.656 Y104.789 E0.01953
G1 X128.789 Y119.656 E0.71252
G1 X128.212 Y119.656 E0.01953
G1 X143.656 Y104.212 E0.74014
G1 X143.656 Y103.636 E0.01953
G1 X127.636 Y119.656 E0.76776
G1 X127.059 Y119.656 E0.01953
G1 X143.656 Y103.059 E0.79539
G1 X143.656 Y102.483 E0.01953
G1 X126.483 Y119.656 E0.82301
G1 X125.907 Y119.656 E0.01953
G1 X143.656 Y101.907 E0.85064
G1 X143.656 Y101.330 E0.01953
G1 X125.330 Y119.656 E0.87826
G1 X124.754 Y119.656 E0.01953
G1 X143.656 Y100.754 E0.90588
G1 X143.656 Y100.178 E0.01953
G1 X124.177 Y119.656 E0.93351
G1 X123.601 Y119.656 E0.01953
G1 X143.656 Y99.601 E0.96113
G1 X143.656 Y99.025 E0.01953
G1 X123.025 Y119.656 E0.98875
G1 X122.448 Y119.656 E0.01953
G1 X143.656 Y98.448 E1.01638
G1 X143.656 Y97.872 E0.01953
G1 X121.872 Y119.656 E1.04400
G1 X121.296 Y119.656 E0.01953
G1 X143.656 Y97.296 E1.07162
G1 X143.656 Y96.719 E0.01953
G1 X120.719 Y119.656 E1.09925
G1 X120.143 Y119.656 E0.01953
G1 X143.656 Y96.143 E1.12687
G1 X143.656 Y95.566 E0.01953
G1 X119.566 Y119.656 E1.15449
G1 X118.990 Y119.656 E0.01953
G1 X143.656 Y94.990 E1.18212
G1 X143.656 Y94.414 E0.01953
G1 X118.414 Y119.656 E1.20974
G1 X117.837 Y119.656 E0.01953
G1 X143.656 Y93.837 E1.23736
G1 X143.656 Y93.261 E0.01953
G1 X117.261 Y119.656 E1.26499
G1 X116.685 Y119.656 E0.01953
G1 X143.656 Y92.685 E1.29261
G1 X143.656 Y92.108 E0.01953
G1 X116.108 Y119.656 E1.32024
G1 X115.532 Y119.656 E0.01953
G1 X143.656 Y91.532 E1.34786
G1 X143.656 Y90.955 E0.01953
G1 X114.955 Y119.656 E1.37548
G1 X114.379 Y119.656 E0.01953
G1 X143.656 Y90.379 E1.40311
G1 X143.656 Y90.344 E0.00117
G1 X143.114 Y90.344 E0.01836
G1 X113.803 Y119.656 E1.40476
G1 X113.226 Y119.656 E0.01953
G1 X142.537 Y90.344 E1.40476
G1 X141.961 Y90.344 E0.01953
G1 X112.650 Y119.656 E1.40476
G1 X112.074 Y119.656 E0.01953
G1 X141.385 Y90.344 E1.40476
G1 X140.808 Y90.344 E0.01953
G1 X111.497 Y119.656 E1.40476
G1 X110.921 Y119.656 E0.01953
G1 X140.232 Y90.344 E1.40476
G1 X139.656 Y90.344 E0.01953
G1 X110.344 Y119.656 E1.40476
G1 X109.768 Y119.656 E0.01953
G1 X139.079 Y90.344 E1.40476
G1 X138.503 Y90.344 E0.01953
G1 X109.192 Y119.656 E1.40476
G1 X108.615 Y119.656 E0.01953
G1 X137.926 Y90.344 E1.40476
G1 X137.350 Y90.344 E0.01953
G1 X108.039 Y119.656 E1.40476
G1 X107.463 Y119.656 E0.01953
G1 X136.774 Y90.344 E1.40476
G1 X136.197 Y90.344 E0.01953
G1 X106.886 Y119.656 E1.40476
G1 X106.344 Y119.656 E0.01836
G1 X106.344 Y119.621 E0.00118
G1 X135.621 Y90.344 E1.40310
G1 X135.044 Y90.344 E0.01953
G1 X106.344 Y119.044 E1.37548
G1 X106.344 Y118.468 E0.01953
G1 X134.468 Y90.344 E1.34786
G1 X133.892 Y90.344 E0.01953
G1 X106.344 Y117.892 E1.32023
G1 X106.344 Y117.315 E0.01953
G1 X133.315 Y90.344 E1.29261
G1 X132.739 Y90.344 E0.01953
G1 X106.344 Y116.739 E1.26498
G1 X106.344 Y116.163 E0.01953
G1 X132.163 Y90.344 E1.23736
G1 X131.586 Y90.344 E0.01953
G1 X106.344 Y115.586 E1.20974
G1 X106.344 Y115.010 E0.01953
G1 X131.010 Y90.344 E1.18211
G1 X130.433 Y90.344 E0.01953
G1 X106.344 Y114.433 E1.15449
G1 X106.344 Y113.857 E0.01953
G1 X129.857 Y90.344 E1.12687
G1 X129.281 Y90.344 E0.01953
G1 X106.344 Y113.281 E1.09924
G1 X106.344 Y112.704 E0.01953
G1 X128.704 Y90.344 E1.07162
G1 X128.128 Y90.344 E0.01953
G1 X106.344 Y112.128 E1.04400
G1 X106.344 Y111.552 E0.01953
G1 X127.552 Y90.344 E1.01637
G1 X126.975 Y90.344 E0.01953
G1 X106.344 Y110.975 E0.98875
G1 X106.344 Y110.399 E0.01953
G1 X126.399 Y90.344 E0.96113
G1 X125.822 Y90.344 E0.01953
G1 X106.344 Y109.822 E0.93350
G1 X106.344 Y109.246 E0.01953
G1 X125.246 Y90.344 E0.90588
G1 X124.670 Y90.344 E0.01953
G1 X106.344 Y108.670 E0.87826
G1 X106.344 Y108.093 E0.01953
G1 X124.093 Y90.344 E0.85063
G1 X123.517 Y90.344 E0.01953
G1 X106.344 Y107.517 E0.82301
G1 X106.344 Y106.941 E0.01953
G1 X122.941 Y90.344 E0.79538
G1 X122.364 Y90.344 E0.01953
G1 X106.344 Y106.364 E0.76776
G1 X106.344 Y105.788 E0.01953
G1 X121.788 Y90.344 E0.74014
G1 X121.211 Y90.344 E0.01953
G1 X106.344 Y105.211 E0.71251
G1 X106.344 Y104.635 E0.01953
G1 X120.635 Y90.344 E0.68489
G1 X120.059 Y90.344 E0.01953
G1 X106.344 Y104.059 E0.65727
G1 X106.344 Y103.482 E0.01953
G1 X119.482 Y90.344 E0.62964
G1 X118.906 Y90.344 E0.01953
G1 X106.344 Y102.906 E0.60202
